( Made using CamBam - http://www.cambam.co.uk )
( year_of_the_goat_medallion_2015 4/6/2015 10:47:40 PM )
( T2 : 1.0 )
G21 G90 G64 G40
G0 Z3.0
( T2 : 1.0 )
T2 M6
( 3DSurface1 )
G17
M3 S1000
G0 X-19.4307 Y-45.2018
G0 Z1.0
G1 F300.0 Z-0.4
G1 F800.0 X19.2037
G0 Z3.0
G0 X-19.8265 Y-44.8018
G0 Z1.0
G1 F300.0 Z-0.4
G1 F800.0 X19.6037
G0 Z3.0
G0 X-20.2224 Y-44.4018
G0 Z1.0
G1 F300.0 Z-0.4
G1 F800.0 X20.0038
G0 Z3.0
G0 X-20.6182 Y-44.0018
G0 Z1.0
G1 F300.0 Z-0.4
G1 F800.0 X20.4038
G0 Z3.0
G0 X-21.014 Y-43.6018
G0 Z1.0
G1 F300.0 Z-0.4
G1 F800.0 X20.8038
G0 Z3.0
G0 X-21.4098 Y-43.2018
G0 Z1.0
G1 F300.0 Z-0.4
G1 F800.0 X21.2038
G0 Z3.0
G0 X-21.8056 Y-42.8018
G0 Z1.0
G1 F300.0 Z-0.4
G1 F800.0 X21.6039
G0 Z3.0
G0 X-22.2015 Y-42.4018
G0 Z1.0
G1 F300.0 Z-0.4
G1 F800.0 X22.0039
G0 Z3.0
G0 X-22.5973 Y-42.0018
G0 Z1.0
G1 F300.0 Z-0.4
G1 F800.0 X22.4039
G0 Z3.0
G0 X-22.9931 Y-41.6018
G0 Z1.0
G1 F300.0 Z-0.4
G1 F800.0 X22.804
G0 Z3.0
G0 X-23.3889 Y-41.2018
G0 Z1.0
G1 F300.0 Z-0.4
G1 F800.0 X23.204
G0 Z3.0
G0 X-23.7847 Y-40.8018
G0 Z1.0
G1 F300.0 Z-0.4
G1 F800.0 X23.604
G0 Z3.0
G0 X-24.1806 Y-40.4018
G0 Z1.0
G1 F300.0 Z-0.4
G1 F800.0 X24.004
G0 Z3.0
G0 X-24.5764 Y-40.0018
G0 Z1.0
G1 F300.0 Z-0.4
G1 F800.0 X24.4041
G0 Z3.0
G0 X-24.9722 Y-39.6018
G0 Z1.0
G1 F300.0 Z-0.4
G1 F800.0 X24.8041
G0 Z3.0
G0 X-25.368 Y-39.2018
G0 Z1.0
G1 F300.0 Z-0.4
G1 F800.0 X25.2041
G0 Z3.0
G0 X-25.7638 Y-38.8018
G0 Z1.0
G1 F300.0 Z-0.4
G1 F800.0 X25.6041
G0 Z3.0
G0 X-26.1597 Y-38.4018
G0 Z1.0
G1 F300.0 Z-0.4
G1 F800.0 X26.0042
G0 Z3.0
G0 X-26.5555 Y-38.0018
G0 Z1.0
G1 F300.0 Z-0.4
G1 F800.0 X26.4042
G0 Z3.0
G0 X-26.9513 Y-37.6018
G0 Z1.0
G1 F300.0 Z-0.4
G1 F800.0 X26.8042
G0 Z3.0
G0 X-27.3471 Y-37.2018
G0 Z1.0
G1 F300.0 Z-0.4
G1 F800.0 X27.2043
G0 Z3.0
G0 X-27.7429 Y-36.8018
G0 Z1.0
G1 F300.0 Z-0.4
G1 F800.0 X27.6043
G0 Z3.0
G0 X-28.1388 Y-36.4018
G0 Z1.0
G1 F300.0 Z-0.4
G1 F800.0 X28.0043
G0 Z3.0
G0 X-28.5346 Y-36.0018
G0 Z1.0
G1 F300.0 Z-0.4
G1 F800.0 X28.4043
G0 Z3.0
G0 X-28.9304 Y-35.6018
G0 Z1.0
G1 F300.0 Z-0.4
G1 F800.0 X28.8044
G0 Z3.0
G0 X-29.3262 Y-35.2018
G0 Z1.0
G1 F300.0 Z-0.4
G1 F800.0 X29.2044
G0 Z3.0
G0 X-29.722 Y-34.8018
G0 Z1.0
G1 F300.0 Z-0.4
G1 F800.0 X29.6044
G0 Z3.0
G0 X-30.1179 Y-34.4018
G0 Z1.0
G1 F300.0 Z-0.4
G1 F800.0 X30.0045
G0 Z3.0
G0 X-30.5137 Y-34.0018
G0 Z1.0
G1 F300.0 Z-0.4
G1 F800.0 X30.4045
G0 Z3.0
G0 X-30.9095 Y-33.6018
G0 Z1.0
G1 F300.0 Z-0.4
G1 F800.0 X30.8045
G0 Z3.0
G0 X-31.3053 Y-33.2018
G0 Z1.0
G1 F300.0 Z-0.4
G1 F800.0 X31.2045
G0 Z3.0
G0 X-31.7011 Y-32.8018
G0 Z1.0
G1 F300.0 Z-0.4
G1 F800.0 X31.6046
G0 Z3.0
G0 X-32.097 Y-32.4018
G0 Z1.0
G1 F300.0 Z-0.4
G1 F800.0 X32.0046
G0 Z3.0
G0 X-32.4928 Y-32.0018
G0 Z1.0
G1 F300.0 Z-0.4
G1 F800.0 X32.4046
G0 Z3.0
G0 X-32.8886 Y-31.6018
G0 Z1.0
G1 F300.0 Z-0.4
G1 F800.0 X32.8046
G0 Z3.0
G0 X-33.2844 Y-31.2018
G0 Z1.0
G1 F300.0 Z-0.4
G1 F800.0 X33.2047
G0 Z3.0
G0 X-33.6802 Y-30.8018
G0 Z1.0
G1 F300.0 Z-0.4
G1 F800.0 X33.6047
G0 Z3.0
G0 X-34.0761 Y-30.4018
G0 Z1.0
G1 F300.0 Z-0.4
G1 F800.0 X34.0047
G0 Z3.0
G0 X-34.4719 Y-30.0018
G0 Z1.0
G1 F300.0 Z-0.4
G1 F800.0 X34.4048
G0 Z3.0
G0 X-34.8677 Y-29.6018
G0 Z1.0
G1 F300.0 Z-0.4
G1 F800.0 X34.8048
G0 Z3.0
G0 X-35.2635 Y-29.2018
G0 Z1.0
G1 F300.0 Z-0.4
G1 F800.0 X35.2048
G0 Z3.0
G0 X-35.6593 Y-28.8018
G0 Z1.0
G1 F300.0 Z-0.4
G1 F800.0 X35.6048
G0 Z3.0
G0 X-36.0551 Y-28.4018
G0 Z1.0
G1 F300.0 Z-0.4
G1 F800.0 X36.0049
G0 Z3.0
G0 X-36.451 Y-28.0018
G0 Z1.0
G1 F300.0 Z-0.4
G1 F800.0 X36.4049
G0 Z3.0
G0 X-36.8468 Y-27.6018
G0 Z1.0
G1 F300.0 Z-0.4
G1 F800.0 X36.8049
G0 Z3.0
G0 X-37.2426 Y-27.2018
G0 Z1.0
G1 F300.0 Z-0.4
G1 F800.0 X37.205
G0 Z3.0
G0 X-37.6384 Y-26.8018
G0 Z1.0
G1 F300.0 Z-0.4
G1 F800.0 X37.605
G0 Z3.0
G0 X-38.0342 Y-26.4018
G0 Z1.0
G1 F300.0 Z-0.4
G1 F800.0 X38.005
G0 Z3.0
G0 X-38.4301 Y-26.0018
G0 Z1.0
G1 F300.0 Z-0.4
G1 F800.0 X38.405
G0 Z3.0
G0 X-38.8259 Y-25.6018
G0 Z1.0
G1 F300.0 Z-0.4
G1 F800.0 X38.8051
G0 Z3.0
G0 X-39.2217 Y-25.2018
G0 Z1.0
G1 F300.0 Z-0.4
G1 F800.0 X39.2051
G0 Z3.0
G0 X-39.6175 Y-24.8018
G0 Z1.0
G1 F300.0 Z-0.4
G1 F800.0 X39.6051
G0 Z3.0
G0 X-40.0133 Y-24.4018
G0 Z1.0
G1 F300.0 Z-0.4
G1 F800.0 X40.0051
G0 Z3.0
G0 X-40.4092 Y-24.0018
G0 Z1.0
G1 F300.0 Z-0.4
G1 F800.0 X40.4052
G0 Z3.0
G0 X-40.805 Y-23.6018
G0 Z1.0
G1 F300.0 Z-0.4
G1 F800.0 X40.8052
G0 Z3.0
G0 X-41.2008 Y-23.2018
G0 Z1.0
G1 F300.0 Z-0.4
G1 F800.0 X41.2052
G0 Z3.0
G0 X-41.5966 Y-22.8018
G0 Z1.0
G1 F300.0 Z-0.4
G1 F800.0 X41.6053
G0 Z3.0
G0 X-41.9924 Y-22.4018
G0 Z1.0
G1 F300.0 Z-0.4
G1 F800.0 X42.0053
G0 Z3.0
G0 X-42.3883 Y-22.0018
G0 Z1.0
G1 F300.0 Z-0.4
G1 F800.0 X42.4053
G0 Z3.0
G0 X-42.7841 Y-21.6018
G0 Z1.0
G1 F300.0 Z-0.4
G1 F800.0 X42.8053
G0 Z3.0
G0 X-43.1799 Y-21.2018
G0 Z1.0
G1 F300.0 Z-0.4
G1 F800.0 X43.2054
G0 Z3.0
G0 X-43.5757 Y-20.8018
G0 Z1.0
G1 F300.0 Z-0.4
G1 F800.0 X43.6054
G0 Z3.0
G0 X-43.9715 Y-20.4018
G0 Z1.0
G1 F300.0 Z-0.4
G1 F800.0 X44.0054
G0 Z3.0
G0 X-44.3674 Y-20.0018
G0 Z1.0
G1 F300.0 Z-0.4
G1 F800.0 X44.4055
G0 Z3.0
G0 X-44.7632 Y-19.6018
G0 Z1.0
G1 F300.0 Z-0.4
G1 F800.0 X44.8055
G0 Z3.0
G0 X-45.159 Y-19.2018
G0 Z1.0
G1 F300.0 Z-0.4
G1 F800.0 X45.2055
G0 Z3.0
G0 X-45.4781 Y-18.8018
G0 Z1.0
G1 F300.0 Z-0.4
G1 F800.0 X45.491
G0 Z3.0
G0 X-45.5018 Y-18.4018
G0 Z1.0
G1 F300.0 Z-0.4
G1 F800.0 X45.3982
G1 X45.5018
G0 Z3.0
G0 X-45.5018 Y-18.0018
G0 Z1.0
G1 F300.0 Z-0.4
G1 F800.0 X45.3982
G1 X45.5018
G0 Z3.0
G0 X-45.5018 Y-17.6018
G0 Z1.0
G1 F300.0 Z-0.4
G1 F800.0 X45.3982
G1 X45.5018
G0 Z3.0
G0 X-45.5018 Y-17.2018
G0 Z1.0
G1 F300.0 Z-0.4
G1 F800.0 X45.3982
G1 X45.5018
G0 Z3.0
G0 X-45.5018 Y-16.8018
G0 Z1.0
G1 F300.0 Z-0.4
G1 F800.0 X45.3982
G1 X45.5018
G0 Z3.0
G0 X-45.5018 Y-16.4018
G0 Z1.0
G1 F300.0 Z-0.4
G1 F800.0 X45.3982
G1 X45.5018
G0 Z3.0
G0 X-45.5018 Y-16.0018
G0 Z1.0
G1 F300.0 Z-0.4
G1 F800.0 X45.3982
G1 X45.5018
G0 Z3.0
G0 X-45.5018 Y-15.6018
G0 Z1.0
G1 F300.0 Z-0.4
G1 F800.0 X45.3982
G1 X45.5018
G0 Z3.0
G0 X-45.5018 Y-15.2018
G0 Z1.0
G1 F300.0 Z-0.4
G1 F800.0 X45.3982
G1 X45.5018
G0 Z3.0
G0 X-45.5018 Y-14.8018
G0 Z1.0
G1 F300.0 Z-0.4
G1 F800.0 X45.3982
G1 X45.5018
G0 Z3.0
G0 X-45.5018 Y-14.4018
G0 Z1.0
G1 F300.0 Z-0.4
G1 F800.0 X45.3982
G1 X45.5018
G0 Z3.0
G0 X-45.5018 Y-14.0018
G0 Z1.0
G1 F300.0 Z-0.4
G1 F800.0 X45.3982
G1 X45.5018
G0 Z3.0
G0 X-45.5018 Y-13.6018
G0 Z1.0
G1 F300.0 Z-0.4
G1 F800.0 X45.3982
G1 X45.5018
G0 Z3.0
G0 X-45.5018 Y-13.2018
G0 Z1.0
G1 F300.0 Z-0.4
G1 F800.0 X45.3982
G1 X45.5018
G0 Z3.0
G0 X-45.5018 Y-12.8018
G0 Z1.0
G1 F300.0 Z-0.4
G1 F800.0 X45.3982
G1 X45.5018
G0 Z3.0
G0 X-45.5018 Y-12.4018
G0 Z1.0
G1 F300.0 Z-0.4
G1 F800.0 X45.3982
G1 X45.5018
G0 Z3.0
G0 X-45.5018 Y-12.0018
G0 Z1.0
G1 F300.0 Z-0.4
G1 F800.0 X45.3982
G1 X45.5018
G0 Z3.0
G0 X-45.5018 Y-11.6018
G0 Z1.0
G1 F300.0 Z-0.4
G1 F800.0 X45.3982
G1 X45.5018
G0 Z3.0
G0 X-45.5018 Y-11.2018
G0 Z1.0
G1 F300.0 Z-0.4
G1 F800.0 X45.3982
G1 X45.5018
G0 Z3.0
G0 X-45.5018 Y-10.8018
G0 Z1.0
G1 F300.0 Z-0.4
G1 F800.0 X45.3982
G1 X45.5018
G0 Z3.0
G0 X-45.5018 Y-10.4018
G0 Z1.0
G1 F300.0 Z-0.4
G1 F800.0 X45.3982
G1 X45.5018
G0 Z3.0
G0 X-45.5018 Y-10.0018
G0 Z1.0
G1 F300.0 Z-0.4
G1 F800.0 X45.3982
G1 X45.5018
G0 Z3.0
G0 X-45.5018 Y-9.6018
G0 Z1.0
G1 F300.0 Z-0.4
G1 F800.0 X45.3982
G1 X45.5018
G0 Z3.0
G0 X-45.5018 Y-9.2018
G0 Z1.0
G1 F300.0 Z-0.4
G1 F800.0 X45.3982
G1 X45.5018
G0 Z3.0
G0 X-45.5018 Y-8.8018
G0 Z1.0
G1 F300.0 Z-0.4
G1 F800.0 X45.3982
G1 X45.5018
G0 Z3.0
G0 X-45.5018 Y-8.4018
G0 Z1.0
G1 F300.0 Z-0.4
G1 F800.0 X45.3982
G1 X45.5018
G0 Z3.0
G0 X-45.5018 Y-8.0018
G0 Z1.0
G1 F300.0 Z-0.4
G1 F800.0 X45.3982
G1 X45.5018
G0 Z3.0
G0 X-45.5018 Y-7.6018
G0 Z1.0
G1 F300.0 Z-0.4
G1 F800.0 X45.3982
G1 X45.5018
G0 Z3.0
G0 X-45.5018 Y-7.2018
G0 Z1.0
G1 F300.0 Z-0.4
G1 F800.0 X45.3982
G1 X45.5018
G0 Z3.0
G0 X-45.5018 Y-6.8018
G0 Z1.0
G1 F300.0 Z-0.4
G1 F800.0 X45.3982
G1 X45.5018
G0 Z3.0
G0 X-45.5018 Y-6.4018
G0 Z1.0
G1 F300.0 Z-0.4
G1 F800.0 X45.3982
G1 X45.5018
G0 Z3.0
G0 X-45.5018 Y-6.0018
G0 Z1.0
G1 F300.0 Z-0.4
G1 F800.0 X45.3982
G1 X45.5018
G0 Z3.0
G0 X-45.5018 Y-5.6018
G0 Z1.0
G1 F300.0 Z-0.4
G1 F800.0 X45.3982
G1 X45.5018
G0 Z3.0
G0 X-45.5018 Y-5.2018
G0 Z1.0
G1 F300.0 Z-0.4
G1 F800.0 X45.3982
G1 X45.5018
G0 Z3.0
G0 X-45.5018 Y-4.8018
G0 Z1.0
G1 F300.0 Z-0.4
G1 F800.0 X45.3982
G1 X45.5018
G0 Z3.0
G0 X-45.5018 Y-4.4018
G0 Z1.0
G1 F300.0 Z-0.4
G1 F800.0 X45.3982
G1 X45.5018
G0 Z3.0
G0 X-45.5018 Y-4.0018
G0 Z1.0
G1 F300.0 Z-0.4
G1 F800.0 X45.3982
G1 X45.5018
G0 Z3.0
G0 X-45.5018 Y-3.6018
G0 Z1.0
G1 F300.0 Z-0.4
G1 F800.0 X45.3982
G1 X45.5018
G0 Z3.0
G0 X-45.5018 Y-3.2018
G0 Z1.0
G1 F300.0 Z-0.4
G1 F800.0 X45.3982
G1 X45.5018
G0 Z3.0
G0 X-45.5018 Y-2.8018
G0 Z1.0
G1 F300.0 Z-0.4
G1 F800.0 X45.3982
G1 X45.5018
G0 Z3.0
G0 X-45.5018 Y-2.4018
G0 Z1.0
G1 F300.0 Z-0.4
G1 F800.0 X45.3982
G1 X45.5018
G0 Z3.0
G0 X-45.5018 Y-2.0018
G0 Z1.0
G1 F300.0 Z-0.4
G1 F800.0 X45.3982
G1 X45.5018
G0 Z3.0
G0 X-45.5018 Y-1.6018
G0 Z1.0
G1 F300.0 Z-0.4
G1 F800.0 X45.3982
G1 X45.5018
G0 Z3.0
G0 X-45.5018 Y-1.2018
G0 Z1.0
G1 F300.0 Z-0.4
G1 F800.0 X45.3982
G1 X45.5018
G0 Z3.0
G0 X-45.5018 Y-0.8018
G0 Z1.0
G1 F300.0 Z-0.4
G1 F800.0 X45.3982
G1 X45.5018
G0 Z3.0
G0 X-45.5018 Y-0.4018
G0 Z1.0
G1 F300.0 Z-0.4
G1 F800.0 X45.3982
G1 X45.5018
G0 Z3.0
G0 X-45.5018 Y-0.0018
G0 Z1.0
G1 F300.0 Z-0.4
G1 F800.0 X45.3982
G1 X45.5018
G0 Z3.0
G0 X-45.5018 Y0.3982
G0 Z1.0
G1 F300.0 Z-0.4
G1 F800.0 X45.3982
G1 X45.5018
G0 Z3.0
G0 X-45.5018 Y0.7982
G0 Z1.0
G1 F300.0 Z-0.4
G1 F800.0 X45.3982
G1 X45.5018
G0 Z3.0
G0 X-45.5018 Y1.1982
G0 Z1.0
G1 F300.0 Z-0.4
G1 F800.0 X45.3982
G1 X45.5018
G0 Z3.0
G0 X-45.5018 Y1.5982
G0 Z1.0
G1 F300.0 Z-0.4
G1 F800.0 X45.3982
G1 X45.5018
G0 Z3.0
G0 X-45.5018 Y1.9982
G0 Z1.0
G1 F300.0 Z-0.4
G1 F800.0 X45.3982
G1 X45.5018
G0 Z3.0
G0 X-45.5018 Y2.3982
G0 Z1.0
G1 F300.0 Z-0.4
G1 F800.0 X45.3982
G1 X45.5018
G0 Z3.0
G0 X-45.5018 Y2.7982
G0 Z1.0
G1 F300.0 Z-0.4
G1 F800.0 X45.3982
G1 X45.5018
G0 Z3.0
G0 X-45.5018 Y3.1982
G0 Z1.0
G1 F300.0 Z-0.4
G1 F800.0 X45.3982
G1 X45.5018
G0 Z3.0
G0 X-45.5018 Y3.5982
G0 Z1.0
G1 F300.0 Z-0.4
G1 F800.0 X45.3982
G1 X45.5018
G0 Z3.0
G0 X-45.5018 Y3.9982
G0 Z1.0
G1 F300.0 Z-0.4
G1 F800.0 X45.3982
G1 X45.5018
G0 Z3.0
G0 X-45.5018 Y4.3982
G0 Z1.0
G1 F300.0 Z-0.4
G1 F800.0 X45.3982
G1 X45.5018
G0 Z3.0
G0 X-45.5018 Y4.7982
G0 Z1.0
G1 F300.0 Z-0.4
G1 F800.0 X45.3982
G1 X45.5018
G0 Z3.0
G0 X-45.5018 Y5.1982
G0 Z1.0
G1 F300.0 Z-0.4
G1 F800.0 X45.3982
G1 X45.5018
G0 Z3.0
G0 X-45.5018 Y5.5982
G0 Z1.0
G1 F300.0 Z-0.4
G1 F800.0 X45.3982
G1 X45.5018
G0 Z3.0
G0 X-45.5018 Y5.9982
G0 Z1.0
G1 F300.0 Z-0.4
G1 F800.0 X45.3982
G1 X45.5018
G0 Z3.0
G0 X-45.5018 Y6.3982
G0 Z1.0
G1 F300.0 Z-0.4
G1 F800.0 X45.3982
G1 X45.5018
G0 Z3.0
G0 X-45.5018 Y6.7982
G0 Z1.0
G1 F300.0 Z-0.4
G1 F800.0 X45.3982
G1 X45.5018
G0 Z3.0
G0 X-45.5018 Y7.1982
G0 Z1.0
G1 F300.0 Z-0.4
G1 F800.0 X45.3982
G1 X45.5018
G0 Z3.0
G0 X-45.5018 Y7.5982
G0 Z1.0
G1 F300.0 Z-0.4
G1 F800.0 X45.3982
G1 X45.5018
G0 Z3.0
G0 X-45.5018 Y7.9982
G0 Z1.0
G1 F300.0 Z-0.4
G1 F800.0 X45.3982
G1 X45.5018
G0 Z3.0
G0 X-45.5018 Y8.3982
G0 Z1.0
G1 F300.0 Z-0.4
G1 F800.0 X45.3982
G1 X45.5018
G0 Z3.0
G0 X-45.5018 Y8.7982
G0 Z1.0
G1 F300.0 Z-0.4
G1 F800.0 X45.3982
G1 X45.5018
G0 Z3.0
G0 X-45.5018 Y9.1982
G0 Z1.0
G1 F300.0 Z-0.4
G1 F800.0 X45.3982
G1 X45.5018
G0 Z3.0
G0 X-45.5018 Y9.5982
G0 Z1.0
G1 F300.0 Z-0.4
G1 F800.0 X45.3982
G1 X45.5018
G0 Z3.0
G0 X-45.5018 Y9.9982
G0 Z1.0
G1 F300.0 Z-0.4
G1 F800.0 X45.3982
G1 X45.5018
G0 Z3.0
G0 X-45.5018 Y10.3982
G0 Z1.0
G1 F300.0 Z-0.4
G1 F800.0 X45.3982
G1 X45.5018
G0 Z3.0
G0 X-45.5018 Y10.7982
G0 Z1.0
G1 F300.0 Z-0.4
G1 F800.0 X45.3982
G1 X45.5018
G0 Z3.0
G0 X-45.5018 Y11.1982
G0 Z1.0
G1 F300.0 Z-0.4
G1 F800.0 X45.3982
G1 X45.5018
G0 Z3.0
G0 X-45.5018 Y11.5982
G0 Z1.0
G1 F300.0 Z-0.4
G1 F800.0 X45.3982
G1 X45.5018
G0 Z3.0
G0 X-45.5018 Y11.9982
G0 Z1.0
G1 F300.0 Z-0.4
G1 F800.0 X45.3982
G1 X45.5018
G0 Z3.0
G0 X-45.5018 Y12.3982
G0 Z1.0
G1 F300.0 Z-0.4
G1 F800.0 X45.3982
G1 X45.5018
G0 Z3.0
G0 X-45.5018 Y12.7982
G0 Z1.0
G1 F300.0 Z-0.4
G1 F800.0 X45.3982
G1 X45.5018
G0 Z3.0
G0 X-45.5018 Y13.1982
G0 Z1.0
G1 F300.0 Z-0.4
G1 F800.0 X45.3982
G1 X45.5018
G0 Z3.0
G0 X-45.5018 Y13.5982
G0 Z1.0
G1 F300.0 Z-0.4
G1 F800.0 X45.3982
G1 X45.5018
G0 Z3.0
G0 X-45.5018 Y13.9982
G0 Z1.0
G1 F300.0 Z-0.4
G1 F800.0 X45.3982
G1 X45.5018
G0 Z3.0
G0 X-45.5018 Y14.3982
G0 Z1.0
G1 F300.0 Z-0.4
G1 F800.0 X45.3982
G1 X45.5018
G0 Z3.0
G0 X-45.5018 Y14.7982
G0 Z1.0
G1 F300.0 Z-0.4
G1 F800.0 X45.3982
G1 X45.5018
G0 Z3.0
G0 X-45.5018 Y15.1982
G0 Z1.0
G1 F300.0 Z-0.4
G1 F800.0 X45.3982
G1 X45.5018
G0 Z3.0
G0 X-45.5018 Y15.5982
G0 Z1.0
G1 F300.0 Z-0.4
G1 F800.0 X45.3982
G1 X45.5018
G0 Z3.0
G0 X-45.5018 Y15.9982
G0 Z1.0
G1 F300.0 Z-0.4
G1 F800.0 X45.3982
G1 X45.5018
G0 Z3.0
G0 X-45.5018 Y16.3982
G0 Z1.0
G1 F300.0 Z-0.4
G1 F800.0 X45.3982
G1 X45.5018
G0 Z3.0
G0 X-45.5018 Y16.7982
G0 Z1.0
G1 F300.0 Z-0.4
G1 F800.0 X45.3982
G1 X45.5018
G0 Z3.0
G0 X-45.5018 Y17.1982
G0 Z1.0
G1 F300.0 Z-0.4
G1 F800.0 X45.3982
G1 X45.5018
G0 Z3.0
G0 X-45.5018 Y17.5982
G0 Z1.0
G1 F300.0 Z-0.4
G1 F800.0 X45.3982
G1 X45.5018
G0 Z3.0
G0 X-45.5018 Y17.9982
G0 Z1.0
G1 F300.0 Z-0.4
G1 F800.0 X45.3982
G1 X45.5018
G0 Z3.0
G0 X-45.5018 Y18.3982
G0 Z1.0
G1 F300.0 Z-0.4
G1 F800.0 X45.3982
G1 X45.5018
G0 Z3.0
G0 X-45.4914 Y18.7982
G0 Z1.0
G1 F300.0 Z-0.4
G1 F800.0 X45.3982
G1 X45.4988
G0 Z3.0
G0 X-45.2073 Y19.1982
G0 Z1.0
G1 F300.0 Z-0.4
G1 F800.0 X45.2531
G0 Z3.0
G0 X-44.8074 Y19.5982
G0 Z1.0
G1 F300.0 Z-0.4
G1 F800.0 X44.8488
G0 Z3.0
G0 X-44.4074 Y19.9982
G0 Z1.0
G1 F300.0 Z-0.4
G1 F800.0 X44.4446
G0 Z3.0
G0 X-44.0074 Y20.3982
G0 Z1.0
G1 F300.0 Z-0.4
G1 F800.0 X44.0404
G0 Z3.0
G0 X-43.6074 Y20.7982
G0 Z1.0
G1 F300.0 Z-0.4
G1 F800.0 X43.6362
G0 Z3.0
G0 X-43.2075 Y21.1982
G0 Z1.0
G1 F300.0 Z-0.4
G1 F800.0 X43.2319
G0 Z3.0
G0 X-42.8075 Y21.5982
G0 Z1.0
G1 F300.0 Z-0.4
G1 F800.0 X42.8277
G0 Z3.0
G0 X-42.4075 Y21.9982
G0 Z1.0
G1 F300.0 Z-0.4
G1 F800.0 X42.4235
G0 Z3.0
G0 X-42.0075 Y22.3982
G0 Z1.0
G1 F300.0 Z-0.4
G1 F800.0 X42.0193
G0 Z3.0
G0 X-41.6076 Y22.7982
G0 Z1.0
G1 F300.0 Z-0.4
G1 F800.0 X41.6151
G0 Z3.0
G0 X-41.2076 Y23.1982
G0 Z1.0
G1 F300.0 Z-0.4
G1 F800.0 X41.2108
G0 Z3.0
G0 X-40.8076 Y23.5982
G0 Z1.0
G1 F300.0 Z-0.4
G1 F800.0 X40.8066
G0 Z3.0
G0 X-40.4077 Y23.9982
G0 Z1.0
G1 F300.0 Z-0.4
G1 F800.0 X40.4024
G0 Z3.0
G0 X-40.0077 Y24.3982
G0 Z1.0
G1 F300.0 Z-0.4
G1 F800.0 X39.7982
G1 X39.9982
G0 Z3.0
G0 X-39.6077 Y24.7982
G0 Z1.0
G1 F300.0 Z-0.4
G1 F800.0 X39.3982
G1 X39.5939
G0 Z3.0
G0 X-39.2077 Y25.1982
G0 Z1.0
G1 F300.0 Z-0.4
G1 F800.0 X38.9982
G1 X39.1897
G0 Z3.0
G0 X-38.8078 Y25.5982
G0 Z1.0
G1 F300.0 Z-0.4
G1 F800.0 X38.5982
G1 X38.7855
G0 Z3.0
G0 X-38.4078 Y25.9982
G0 Z1.0
G1 F300.0 Z-0.4
G1 F800.0 X38.1982
G1 X38.3813
G0 Z3.0
G0 X-38.0078 Y26.3982
G0 Z1.0
G1 F300.0 Z-0.4
G1 F800.0 X37.7982
G1 X37.9771
G0 Z3.0
G0 X-37.6078 Y26.7982
G0 Z1.0
G1 F300.0 Z-0.4
G1 F800.0 X37.3982
G1 X37.5728
G0 Z3.0
G0 X-37.2079 Y27.1982
G0 Z1.0
G1 F300.0 Z-0.4
G1 F800.0 X36.9982
G1 X37.1686
G0 Z3.0
G0 X-36.8079 Y27.5982
G0 Z1.0
G1 F300.0 Z-0.4
G1 F800.0 X36.5982
G1 X36.7644
G0 Z3.0
G0 X-36.4079 Y27.9982
G0 Z1.0
G1 F300.0 Z-0.4
G1 F800.0 X36.1982
G1 X36.3602
G0 Z3.0
G0 X-36.008 Y28.3982
G0 Z1.0
G1 F300.0 Z-0.4
G1 F800.0 X35.7982
G1 X35.9559
G0 Z3.0
G0 X-35.608 Y28.7982
G0 Z1.0
G1 F300.0 Z-0.4
G1 F800.0 X35.3982
G1 X35.5517
G0 Z3.0
G0 X-35.208 Y29.1982
G0 Z1.0
G1 F300.0 Z-0.4
G1 F800.0 X34.9982
G1 X35.1475
G0 Z3.0
G0 X-34.808 Y29.5982
G0 Z1.0
G1 F300.0 Z-0.4
G1 F800.0 X34.5982
G1 X34.7433
G0 Z3.0
G0 X-34.4081 Y29.9982
G0 Z1.0
G1 F300.0 Z-0.4
G1 F800.0 X34.1982
G1 X34.339
G0 Z3.0
G0 X-34.0081 Y30.3982
G0 Z1.0
G1 F300.0 Z-0.4
G1 F800.0 X33.7982
G1 X33.9348
G0 Z3.0
G0 X-33.6081 Y30.7982
G0 Z1.0
G1 F300.0 Z-0.4
G1 F800.0 X33.3982
G1 X33.5306
G0 Z3.0
G0 X-33.2081 Y31.1982
G0 Z1.0
G1 F300.0 Z-0.4
G1 F800.0 X32.9982
G1 X33.1264
G0 Z3.0
G0 X-32.8082 Y31.5982
G0 Z1.0
G1 F300.0 Z-0.4
G1 F800.0 X32.5982
G1 X32.7222
G0 Z3.0
G0 X-32.4082 Y31.9982
G0 Z1.0
G1 F300.0 Z-0.4
G1 F800.0 X32.1982
G1 X32.3179
G0 Z3.0
G0 X-32.0082 Y32.3982
G0 Z1.0
G1 F300.0 Z-0.4
G1 F800.0 X31.7982
G1 X31.9137
G0 Z3.0
G0 X-31.6083 Y32.7982
G0 Z1.0
G1 F300.0 Z-0.4
G1 F800.0 X31.3982
G1 X31.5095
G0 Z3.0
G0 X-31.2083 Y33.1982
G0 Z1.0
G1 F300.0 Z-0.4
G1 F800.0 X30.9982
G1 X31.1053
G0 Z3.0
G0 X-30.8083 Y33.5982
G0 Z1.0
G1 F300.0 Z-0.4
G1 F800.0 X30.5982
G1 X30.701
G0 Z3.0
G0 X-30.4083 Y33.9982
G0 Z1.0
G1 F300.0 Z-0.4
G1 F800.0 X30.2968
G0 Z3.0
G0 X-30.0084 Y34.3982
G0 Z1.0
G1 F300.0 Z-0.4
G1 F800.0 X29.8926
G0 Z3.0
G0 X-29.6084 Y34.7982
G0 Z1.0
G1 F300.0 Z-0.4
G1 F800.0 X29.4884
G0 Z3.0
G0 X-29.2084 Y35.1982
G0 Z1.0
G1 F300.0 Z-0.4
G1 F800.0 X29.0842
G0 Z3.0
G0 X-28.8084 Y35.5982
G0 Z1.0
G1 F300.0 Z-0.4
G1 F800.0 X28.6799
G0 Z3.0
G0 X-28.4085 Y35.9982
G0 Z1.0
G1 F300.0 Z-0.4
G1 F800.0 X28.2757
G0 Z3.0
G0 X-28.0085 Y36.3982
G0 Z1.0
G1 F300.0 Z-0.4
G1 F800.0 X27.8715
G0 Z3.0
G0 X-27.6085 Y36.7982
G0 Z1.0
G1 F300.0 Z-0.4
G1 F800.0 X27.4673
G0 Z3.0
G0 X-27.2086 Y37.1982
G0 Z1.0
G1 F300.0 Z-0.4
G1 F800.0 X27.063
G0 Z3.0
G0 X-26.8086 Y37.5982
G0 Z1.0
G1 F300.0 Z-0.4
G1 F800.0 X26.6588
G0 Z3.0
G0 X-26.4086 Y37.9982
G0 Z1.0
G1 F300.0 Z-0.4
G1 F800.0 X26.2546
G0 Z3.0
G0 X-26.0086 Y38.3982
G0 Z1.0
G1 F300.0 Z-0.4
G1 F800.0 X25.8504
G0 Z3.0
G0 X-25.6087 Y38.7982
G0 Z1.0
G1 F300.0 Z-0.4
G1 F800.0 X25.4461
G0 Z3.0
G0 X-25.2087 Y39.1982
G0 Z1.0
G1 F300.0 Z-0.4
G1 F800.0 X25.0419
G0 Z3.0
G0 X-24.8087 Y39.5982
G0 Z1.0
G1 F300.0 Z-0.4
G1 F800.0 X24.6377
G0 Z3.0
G0 X-24.4087 Y39.9982
G0 Z1.0
G1 F300.0 Z-0.4
G1 F800.0 X24.2335
G0 Z3.0
G0 X-24.0088 Y40.3982
G0 Z1.0
G1 F300.0 Z-0.4
G1 F800.0 X23.8293
G0 Z3.0
G0 X-23.6088 Y40.7982
G0 Z1.0
G1 F300.0 Z-0.4
G1 F800.0 X23.425
G0 Z3.0
G0 X-23.2088 Y41.1982
G0 Z1.0
G1 F300.0 Z-0.4
G1 F800.0 X23.0208
G0 Z3.0
G0 X-22.8089 Y41.5982
G0 Z1.0
G1 F300.0 Z-0.4
G1 F800.0 X22.6166
G0 Z3.0
G0 X-22.4089 Y41.9982
G0 Z1.0
G1 F300.0 Z-0.4
G1 F800.0 X22.2124
G0 Z3.0
G0 X-22.0089 Y42.3982
G0 Z1.0
G1 F300.0 Z-0.4
G1 F800.0 X21.8081
G0 Z3.0
G0 X-21.6089 Y42.7982
G0 Z1.0
G1 F300.0 Z-0.4
G1 F800.0 X21.4039
G0 Z3.0
G0 X-21.209 Y43.1982
G0 Z1.0
G1 F300.0 Z-0.4
G1 F800.0 X20.9997
G0 Z3.0
G0 X-20.809 Y43.5982
G0 Z1.0
G1 F300.0 Z-0.4
G1 F800.0 X20.3982
G1 X20.5955
G0 Z3.0
G0 X-20.409 Y43.9982
G0 Z1.0
G1 F300.0 Z-0.4
G1 F800.0 X19.9982
G1 X20.1912
G0 Z3.0
G0 X-20.009 Y44.3982
G0 Z1.0
G1 F300.0 Z-0.4
G1 F800.0 X19.5982
G1 X19.787
G0 Z3.0
G0 X-19.6091 Y44.7982
G0 Z1.0
G1 F300.0 Z-0.4
G1 F800.0 X19.1982
G1 X19.3828
G0 Z3.0
G0 X-19.2091 Y45.1982
G0 Z1.0
G1 F300.0 Z-0.4
G1 F800.0 X18.7982
G1 X18.9786
G1 F300.0 X18.7709 Y45.3982
G1 Z-0.8
G1 F800.0 X18.5982
G1 X-19.0031
G0 Z3.0
G0 X19.1807 Y44.9982
G0 Z0.6
G1 F300.0 Z-0.8
G1 F800.0 X18.9982
G1 X-19.4091
G0 Z3.0
G0 X19.5849 Y44.5982
G0 Z0.6
G1 F300.0 Z-0.8
G1 F800.0 X19.3982
G1 X-19.8091
G0 Z3.0
G0 X19.9891 Y44.1982
G0 Z0.6
G1 F300.0 Z-0.8
G1 F800.0 X19.7982
G1 X-20.209
G0 Z3.0
G0 X20.3934 Y43.7982
G0 Z0.6
G1 F300.0 Z-0.8
G1 F800.0 X20.1982
G1 X-20.609
G0 Z3.0
G0 X20.7976 Y43.3982
G0 Z0.6
G1 F300.0 Z-0.8
G1 F800.0 X20.5982
G1 X-21.009
G0 Z3.0
G0 X21.2018 Y42.9982
G0 Z0.6
G1 F300.0 Z-0.8
G1 F800.0 X-21.4089
G0 Z3.0
G0 X21.606 Y42.5982
G0 Z0.6
G1 F300.0 Z-0.8
G1 F800.0 X-21.8089
G0 Z3.0
G0 X22.0103 Y42.1982
G0 Z0.6
G1 F300.0 Z-0.8
G1 F800.0 X-22.2089
G0 Z3.0
G0 X22.4145 Y41.7982
G0 Z0.6
G1 F300.0 Z-0.8
G1 F800.0 X-22.6089
G0 Z3.0
G0 X22.8187 Y41.3982
G0 Z0.6
G1 F300.0 Z-0.8
G1 F800.0 X-23.0088
G0 Z3.0
G0 X23.2229 Y40.9982
G0 Z0.6
G1 F300.0 Z-0.8
G1 F800.0 X-23.4088
G0 Z3.0
G0 X23.6271 Y40.5982
G0 Z0.6
G1 F300.0 Z-0.8
G1 F800.0 X-23.8088
G0 Z3.0
G0 X24.0314 Y40.1982
G0 Z0.6
G1 F300.0 Z-0.8
G1 F800.0 X-24.2088
G0 Z3.0
G0 X24.4356 Y39.7982
G0 Z0.6
G1 F300.0 Z-0.8
G1 F800.0 X-24.6087
G0 Z3.0
G0 X24.8398 Y39.3982
G0 Z0.6
G1 F300.0 Z-0.8
G1 F800.0 X-25.0087
G0 Z3.0
G0 X25.244 Y38.9982
G0 Z0.6
G1 F300.0 Z-0.8
G1 F800.0 X-25.4087
G0 Z3.0
G0 X25.6483 Y38.5982
G0 Z0.6
G1 F300.0 Z-0.8
G1 F800.0 X-25.8086
G0 Z3.0
G0 X26.0525 Y38.1982
G0 Z0.6
G1 F300.0 Z-0.8
G1 F800.0 X-26.2086
G0 Z3.0
G0 X26.4567 Y37.7982
G0 Z0.6
G1 F300.0 Z-0.8
G1 F800.0 X-26.6086
G0 Z3.0
G0 X26.8609 Y37.3982
G0 Z0.6
G1 F300.0 Z-0.8
G1 F800.0 X-27.0086
G0 Z3.0
G0 X27.2651 Y36.9982
G0 Z0.6
G1 F300.0 Z-0.8
G1 F800.0 X-27.4085
G0 Z3.0
G0 X27.6694 Y36.5982
G0 Z0.6
G1 F300.0 Z-0.8
G1 F800.0 X-27.8085
G0 Z3.0
G0 X28.0736 Y36.1982
G0 Z0.6
G1 F300.0 Z-0.8
G1 F800.0 X-28.2085
G0 Z3.0
G0 X28.4778 Y35.7982
G0 Z0.6
G1 F300.0 Z-0.8
G1 F800.0 X-28.6085
G0 Z3.0
G0 X28.882 Y35.3982
G0 Z0.6
G1 F300.0 Z-0.8
G1 F800.0 X-29.0084
G0 Z3.0
G0 X29.2863 Y34.9982
G0 Z0.6
G1 F300.0 Z-0.8
G1 F800.0 X-29.4084
G0 Z3.0
G0 X29.6905 Y34.5982
G0 Z0.6
G1 F300.0 Z-0.8
G1 F800.0 X-29.8084
G0 Z3.0
G0 X30.0947 Y34.1982
G0 Z0.6
G1 F300.0 Z-0.8
G1 F800.0 X-30.2083
G0 Z3.0
G0 X30.4989 Y33.7982
G0 Z0.6
G1 F300.0 Z-0.8
G1 F800.0 X30.3982
G1 X-30.6083
G0 Z3.0
G0 X30.9032 Y33.3982
G0 Z0.6
G1 F300.0 Z-0.8
G1 F800.0 X30.7982
G1 X-31.0083
G0 Z3.0
G0 X31.3074 Y32.9982
G0 Z0.6
G1 F300.0 Z-0.8
G1 F800.0 X31.1982
G1 X-31.4083
G0 Z3.0
G0 X31.7116 Y32.5982
G0 Z0.6
G1 F300.0 Z-0.8
G1 F800.0 X31.5982
G1 X-31.8082
G0 Z3.0
G0 X32.1158 Y32.1982
G0 Z0.6
G1 F300.0 Z-0.8
G1 F800.0 X31.9982
G1 X-32.2082
G0 Z3.0
G0 X32.52 Y31.7982
G0 Z0.6
G1 F300.0 Z-0.8
G1 F800.0 X32.3982
G1 X-32.6082
G0 Z3.0
G0 X32.9243 Y31.3982
G0 Z0.6
G1 F300.0 Z-0.8
G1 F800.0 X32.7982
G1 X-33.0082
G0 Z3.0
G0 X33.3285 Y30.9982
G0 Z0.6
G1 F300.0 Z-0.8
G1 F800.0 X33.1982
G1 X-33.4081
G0 Z3.0
G0 X33.7327 Y30.5982
G0 Z0.6
G1 F300.0 Z-0.8
G1 F800.0 X33.5982
G1 X-33.8081
G0 Z3.0
G0 X34.1369 Y30.1982
G0 Z0.6
G1 F300.0 Z-0.8
G1 F800.0 X33.9982
G1 X-34.2081
G0 Z3.0
G0 X34.5412 Y29.7982
G0 Z0.6
G1 F300.0 Z-0.8
G1 F800.0 X34.3982
G1 X-34.6081
G0 Z3.0
G0 X34.9454 Y29.3982
G0 Z0.6
G1 F300.0 Z-0.8
G1 F800.0 X34.7982
G1 X-35.008
G0 Z3.0
G0 X35.3496 Y28.9982
G0 Z0.6
G1 F300.0 Z-0.8
G1 F800.0 X35.1982
G1 X-35.408
G0 Z3.0
G0 X35.7538 Y28.5982
G0 Z0.6
G1 F300.0 Z-0.8
G1 F800.0 X35.5982
G1 X-35.808
G0 Z3.0
G0 X36.158 Y28.1982
G0 Z0.6
G1 F300.0 Z-0.8
G1 F800.0 X35.9982
G1 X-36.2079
G0 Z3.0
G0 X36.5623 Y27.7982
G0 Z0.6
G1 F300.0 Z-0.8
G1 F800.0 X36.3982
G1 X-36.6079
G0 Z3.0
G0 X36.9665 Y27.3982
G0 Z0.6
G1 F300.0 Z-0.8
G1 F800.0 X36.7982
G1 X-37.0079
G0 Z3.0
G0 X37.3707 Y26.9982
G0 Z0.6
G1 F300.0 Z-0.8
G1 F800.0 X37.1982
G1 X-37.4079
G0 Z3.0
G0 X37.7749 Y26.5982
G0 Z0.6
G1 F300.0 Z-0.8
G1 F800.0 X37.5982
G1 X-37.8078
G0 Z3.0
G0 X38.1792 Y26.1982
G0 Z0.6
G1 F300.0 Z-0.8
G1 F800.0 X37.9982
G1 X-38.2078
G0 Z3.0
G0 X38.5834 Y25.7982
G0 Z0.6
G1 F300.0 Z-0.8
G1 F800.0 X38.3982
G1 X-38.6078
G0 Z3.0
G0 X38.9876 Y25.3982
G0 Z0.6
G1 F300.0 Z-0.8
G1 F800.0 X38.7982
G1 X-39.0078
G0 Z3.0
G0 X39.3918 Y24.9982
G0 Z0.6
G1 F300.0 Z-0.8
G1 F800.0 X39.1982
G1 X-39.4077
G0 Z3.0
G0 X39.7961 Y24.5982
G0 Z0.6
G1 F300.0 Z-0.8
G1 F800.0 X39.5982
G1 X-39.8077
G0 Z3.0
G0 X40.2003 Y24.1982
G0 Z0.6
G1 F300.0 Z-0.8
G1 F800.0 X-40.2077
G0 Z3.0
G0 X40.6045 Y23.7982
G0 Z0.6
G1 F300.0 Z-0.8
G1 F800.0 X-40.6076
G0 Z3.0
G0 X41.0087 Y23.3982
G0 Z0.6
G1 F300.0 Z-0.8
G1 F800.0 X-41.0076
G0 Z3.0
G0 X41.4129 Y22.9982
G0 Z0.6
G1 F300.0 Z-0.8
G1 F800.0 X-41.4076
G0 Z3.0
G0 X41.8172 Y22.5982
G0 Z0.6
G1 F300.0 Z-0.8
G1 F800.0 X-41.8076
G0 Z3.0
G0 X42.2214 Y22.1982
G0 Z0.6
G1 F300.0 Z-0.8
G1 F800.0 X-42.2075
G0 Z3.0
G0 X42.6256 Y21.7982
G0 Z0.6
G1 F300.0 Z-0.8
G1 F800.0 X-42.6075
G0 Z3.0
G0 X43.0298 Y21.3982
G0 Z0.6
G1 F300.0 Z-0.8
G1 F800.0 X-43.0075
G0 Z3.0
G0 X43.4341 Y20.9982
G0 Z0.6
G1 F300.0 Z-0.8
G1 F800.0 X-43.4075
G0 Z3.0
G0 X43.8383 Y20.5982
G0 Z0.6
G1 F300.0 Z-0.8
G1 F800.0 X-43.8074
G0 Z3.0
G0 X44.2425 Y20.1982
G0 Z0.6
G1 F300.0 Z-0.8
G1 F800.0 X-44.2074
G0 Z3.0
G0 X44.6467 Y19.7982
G0 Z0.6
G1 F300.0 Z-0.8
G1 F800.0 X-44.6074
G0 Z3.0
G0 X45.051 Y19.3982
G0 Z0.6
G1 F300.0 Z-0.8
G1 F800.0 X-45.0073
G0 Z3.0
G0 X45.432 Y18.9982
G0 Z0.6
G1 F300.0 Z-0.8
G1 F800.0 X-45.4006
G0 Z3.0
G0 X45.5018 Y18.5982
G0 Z0.6
G1 F300.0 Z-0.8
G1 F800.0 X45.3982
G1 X-45.5018
G0 Z3.0
G0 X45.5018 Y18.1982
G0 Z0.6
G1 F300.0 Z-0.8
G1 F800.0 X45.3982
G1 X-45.5018
G0 Z3.0
G0 X45.5018 Y17.7982
G0 Z0.6
G1 F300.0 Z-0.8
G1 F800.0 X45.3982
G1 X-45.5018
G0 Z3.0
G0 X45.5018 Y17.3982
G0 Z0.6
G1 F300.0 Z-0.8
G1 F800.0 X45.3982
G1 X-45.5018
G0 Z3.0
G0 X45.5018 Y16.9982
G0 Z0.6
G1 F300.0 Z-0.8
G1 F800.0 X45.3982
G1 X-45.5018
G0 Z3.0
G0 X45.5018 Y16.5982
G0 Z0.6
G1 F300.0 Z-0.8
G1 F800.0 X45.3982
G1 X-45.5018
G0 Z3.0
G0 X45.5018 Y16.1982
G0 Z0.6
G1 F300.0 Z-0.8
G1 F800.0 X45.3982
G1 X-45.5018
G0 Z3.0
G0 X45.5018 Y15.7982
G0 Z0.6
G1 F300.0 Z-0.8
G1 F800.0 X45.3982
G1 X-45.5018
G0 Z3.0
G0 X45.5018 Y15.3982
G0 Z0.6
G1 F300.0 Z-0.8
G1 F800.0 X45.3982
G1 X-45.5018
G0 Z3.0
G0 X45.5018 Y14.9982
G0 Z0.6
G1 F300.0 Z-0.8
G1 F800.0 X45.3982
G1 X-45.5018
G0 Z3.0
G0 X45.5018 Y14.5982
G0 Z0.6
G1 F300.0 Z-0.8
G1 F800.0 X45.3982
G1 X-45.5018
G0 Z3.0
G0 X45.5018 Y14.1982
G0 Z0.6
G1 F300.0 Z-0.8
G1 F800.0 X45.3982
G1 X-45.5018
G0 Z3.0
G0 X45.5018 Y13.7982
G0 Z0.6
G1 F300.0 Z-0.8
G1 F800.0 X45.3982
G1 X-45.5018
G0 Z3.0
G0 X45.5018 Y13.3982
G0 Z0.6
G1 F300.0 Z-0.8
G1 F800.0 X45.3982
G1 X-45.5018
G0 Z3.0
G0 X45.5018 Y12.9982
G0 Z0.6
G1 F300.0 Z-0.8
G1 F800.0 X45.3982
G1 X-45.5018
G0 Z3.0
G0 X45.5018 Y12.5982
G0 Z0.6
G1 F300.0 Z-0.8
G1 F800.0 X45.3982
G1 X-45.5018
G0 Z3.0
G0 X45.5018 Y12.1982
G0 Z0.6
G1 F300.0 Z-0.8
G1 F800.0 X45.3982
G1 X-45.5018
G0 Z3.0
G0 X45.5018 Y11.7982
G0 Z0.6
G1 F300.0 Z-0.8
G1 F800.0 X45.3982
G1 X-45.5018
G0 Z3.0
G0 X45.5018 Y11.3982
G0 Z0.6
G1 F300.0 Z-0.8
G1 F800.0 X45.3982
G1 X-45.5018
G0 Z3.0
G0 X45.5018 Y10.9982
G0 Z0.6
G1 F300.0 Z-0.8
G1 F800.0 X45.3982
G1 X-45.5018
G0 Z3.0
G0 X45.5018 Y10.5982
G0 Z0.6
G1 F300.0 Z-0.8
G1 F800.0 X45.3982
G1 X-45.5018
G0 Z3.0
G0 X45.5018 Y10.1982
G0 Z0.6
G1 F300.0 Z-0.8
G1 F800.0 X45.3982
G1 X-45.5018
G0 Z3.0
G0 X45.5018 Y9.7982
G0 Z0.6
G1 F300.0 Z-0.8
G1 F800.0 X45.3982
G1 X-45.5018
G0 Z3.0
G0 X45.5018 Y9.3982
G0 Z0.6
G1 F300.0 Z-0.8
G1 F800.0 X45.3982
G1 X-45.5018
G0 Z3.0
G0 X45.5018 Y8.9982
G0 Z0.6
G1 F300.0 Z-0.8
G1 F800.0 X45.3982
G1 X-45.5018
G0 Z3.0
G0 X45.5018 Y8.5982
G0 Z0.6
G1 F300.0 Z-0.8
G1 F800.0 X45.3982
G1 X-45.5018
G0 Z3.0
G0 X45.5018 Y8.1982
G0 Z0.6
G1 F300.0 Z-0.8
G1 F800.0 X45.3982
G1 X-45.5018
G0 Z3.0
G0 X45.5018 Y7.7982
G0 Z0.6
G1 F300.0 Z-0.8
G1 F800.0 X45.3982
G1 X-45.5018
G0 Z3.0
G0 X45.5018 Y7.3982
G0 Z0.6
G1 F300.0 Z-0.8
G1 F800.0 X45.3982
G1 X-45.5018
G0 Z3.0
G0 X45.5018 Y6.9982
G0 Z0.6
G1 F300.0 Z-0.8
G1 F800.0 X45.3982
G1 X-45.5018
G0 Z3.0
G0 X45.5018 Y6.5982
G0 Z0.6
G1 F300.0 Z-0.8
G1 F800.0 X45.3982
G1 X-45.5018
G0 Z3.0
G0 X45.5018 Y6.1982
G0 Z0.6
G1 F300.0 Z-0.8
G1 F800.0 X45.3982
G1 X-45.5018
G0 Z3.0
G0 X45.5018 Y5.7982
G0 Z0.6
G1 F300.0 Z-0.8
G1 F800.0 X45.3982
G1 X-45.5018
G0 Z3.0
G0 X45.5018 Y5.3982
G0 Z0.6
G1 F300.0 Z-0.8
G1 F800.0 X45.3982
G1 X-45.5018
G0 Z3.0
G0 X45.5018 Y4.9982
G0 Z0.6
G1 F300.0 Z-0.8
G1 F800.0 X45.3982
G1 X-45.5018
G0 Z3.0
G0 X45.5018 Y4.5982
G0 Z0.6
G1 F300.0 Z-0.8
G1 F800.0 X45.3982
G1 X-45.5018
G0 Z3.0
G0 X45.5018 Y4.1982
G0 Z0.6
G1 F300.0 Z-0.8
G1 F800.0 X45.3982
G1 X-45.5018
G0 Z3.0
G0 X45.5018 Y3.7982
G0 Z0.6
G1 F300.0 Z-0.8
G1 F800.0 X45.3982
G1 X-45.5018
G0 Z3.0
G0 X45.5018 Y3.3982
G0 Z0.6
G1 F300.0 Z-0.8
G1 F800.0 X45.3982
G1 X-45.5018
G0 Z3.0
G0 X45.5018 Y2.9982
G0 Z0.6
G1 F300.0 Z-0.8
G1 F800.0 X45.3982
G1 X-45.5018
G0 Z3.0
G0 X45.5018 Y2.5982
G0 Z0.6
G1 F300.0 Z-0.8
G1 F800.0 X45.3982
G1 X-45.5018
G0 Z3.0
G0 X45.5018 Y2.1982
G0 Z0.6
G1 F300.0 Z-0.8
G1 F800.0 X45.3982
G1 X-45.5018
G0 Z3.0
G0 X45.5018 Y1.7982
G0 Z0.6
G1 F300.0 Z-0.8
G1 F800.0 X45.3982
G1 X-45.5018
G0 Z3.0
G0 X45.5018 Y1.3982
G0 Z0.6
G1 F300.0 Z-0.8
G1 F800.0 X45.3982
G1 X-45.5018
G0 Z3.0
G0 X45.5018 Y0.9982
G0 Z0.6
G1 F300.0 Z-0.8
G1 F800.0 X45.3982
G1 X-45.5018
G0 Z3.0
G0 X45.5018 Y0.5982
G0 Z0.6
G1 F300.0 Z-0.8
G1 F800.0 X45.3982
G1 X-45.5018
G0 Z3.0
G0 X45.5018 Y0.1982
G0 Z0.6
G1 F300.0 Z-0.8
G1 F800.0 X45.3982
G1 X-45.5018
G0 Z3.0
G0 X45.5018 Y-0.2018
G0 Z0.6
G1 F300.0 Z-0.8
G1 F800.0 X45.3982
G1 X-45.5018
G0 Z3.0
G0 X45.5018 Y-0.6018
G0 Z0.6
G1 F300.0 Z-0.8
G1 F800.0 X45.3982
G1 X-45.5018
G0 Z3.0
G0 X45.5018 Y-1.0018
G0 Z0.6
G1 F300.0 Z-0.8
G1 F800.0 X45.3982
G1 X-45.5018
G0 Z3.0
G0 X45.5018 Y-1.4018
G0 Z0.6
G1 F300.0 Z-0.8
G1 F800.0 X45.3982
G1 X-45.5018
G0 Z3.0
G0 X45.5018 Y-1.8018
G0 Z0.6
G1 F300.0 Z-0.8
G1 F800.0 X45.3982
G1 X-45.5018
G0 Z3.0
G0 X45.5018 Y-2.2018
G0 Z0.6
G1 F300.0 Z-0.8
G1 F800.0 X45.3982
G1 X-45.5018
G0 Z3.0
G0 X45.5018 Y-2.6018
G0 Z0.6
G1 F300.0 Z-0.8
G1 F800.0 X45.3982
G1 X-45.5018
G0 Z3.0
G0 X45.5018 Y-3.0018
G0 Z0.6
G1 F300.0 Z-0.8
G1 F800.0 X45.3982
G1 X-45.5018
G0 Z3.0
G0 X45.5018 Y-3.4018
G0 Z0.6
G1 F300.0 Z-0.8
G1 F800.0 X45.3982
G1 X-45.5018
G0 Z3.0
G0 X45.5018 Y-3.8018
G0 Z0.6
G1 F300.0 Z-0.8
G1 F800.0 X45.3982
G1 X-45.5018
G0 Z3.0
G0 X45.5018 Y-4.2018
G0 Z0.6
G1 F300.0 Z-0.8
G1 F800.0 X45.3982
G1 X-45.5018
G0 Z3.0
G0 X45.5018 Y-4.6018
G0 Z0.6
G1 F300.0 Z-0.8
G1 F800.0 X45.3982
G1 X-45.5018
G0 Z3.0
G0 X45.5018 Y-5.0018
G0 Z0.6
G1 F300.0 Z-0.8
G1 F800.0 X45.3982
G1 X-45.5018
G0 Z3.0
G0 X45.5018 Y-5.4018
G0 Z0.6
G1 F300.0 Z-0.8
G1 F800.0 X45.3982
G1 X-45.5018
G0 Z3.0
G0 X45.5018 Y-5.8018
G0 Z0.6
G1 F300.0 Z-0.8
G1 F800.0 X45.3982
G1 X-45.5018
G0 Z3.0
G0 X45.5018 Y-6.2018
G0 Z0.6
G1 F300.0 Z-0.8
G1 F800.0 X45.3982
G1 X-45.5018
G0 Z3.0
G0 X45.5018 Y-6.6018
G0 Z0.6
G1 F300.0 Z-0.8
G1 F800.0 X45.3982
G1 X-45.5018
G0 Z3.0
G0 X45.5018 Y-7.0018
G0 Z0.6
G1 F300.0 Z-0.8
G1 F800.0 X45.3982
G1 X-45.5018
G0 Z3.0
G0 X45.5018 Y-7.4018
G0 Z0.6
G1 F300.0 Z-0.8
G1 F800.0 X45.3982
G1 X-45.5018
G0 Z3.0
G0 X45.5018 Y-7.8018
G0 Z0.6
G1 F300.0 Z-0.8
G1 F800.0 X45.3982
G1 X-45.5018
G0 Z3.0
G0 X45.5018 Y-8.2018
G0 Z0.6
G1 F300.0 Z-0.8
G1 F800.0 X45.3982
G1 X-45.5018
G0 Z3.0
G0 X45.5018 Y-8.6018
G0 Z0.6
G1 F300.0 Z-0.8
G1 F800.0 X45.3982
G1 X-45.5018
G0 Z3.0
G0 X45.5018 Y-9.0018
G0 Z0.6
G1 F300.0 Z-0.8
G1 F800.0 X45.3982
G1 X-45.5018
G0 Z3.0
G0 X45.5018 Y-9.4018
G0 Z0.6
G1 F300.0 Z-0.8
G1 F800.0 X45.3982
G1 X-45.5018
G0 Z3.0
G0 X45.5018 Y-9.8018
G0 Z0.6
G1 F300.0 Z-0.8
G1 F800.0 X45.3982
G1 X-45.5018
G0 Z3.0
G0 X45.5018 Y-10.2018
G0 Z0.6
G1 F300.0 Z-0.8
G1 F800.0 X45.3982
G1 X-45.5018
G0 Z3.0
G0 X45.5018 Y-10.6018
G0 Z0.6
G1 F300.0 Z-0.8
G1 F800.0 X45.3982
G1 X-45.5018
G0 Z3.0
G0 X45.5018 Y-11.0018
G0 Z0.6
G1 F300.0 Z-0.8
G1 F800.0 X45.3982
G1 X-45.5018
G0 Z3.0
G0 X45.5018 Y-11.4018
G0 Z0.6
G1 F300.0 Z-0.8
G1 F800.0 X45.3982
G1 X-45.5018
G0 Z3.0
G0 X45.5018 Y-11.8018
G0 Z0.6
G1 F300.0 Z-0.8
G1 F800.0 X45.3982
G1 X-45.5018
G0 Z3.0
G0 X45.5018 Y-12.2018
G0 Z0.6
G1 F300.0 Z-0.8
G1 F800.0 X45.3982
G1 X-45.5018
G0 Z3.0
G0 X45.5018 Y-12.6018
G0 Z0.6
G1 F300.0 Z-0.8
G1 F800.0 X45.3982
G1 X-45.5018
G0 Z3.0
G0 X45.5018 Y-13.0018
G0 Z0.6
G1 F300.0 Z-0.8
G1 F800.0 X45.3982
G1 X-45.5018
G0 Z3.0
G0 X45.5018 Y-13.4018
G0 Z0.6
G1 F300.0 Z-0.8
G1 F800.0 X45.3982
G1 X-45.5018
G0 Z3.0
G0 X45.5018 Y-13.8018
G0 Z0.6
G1 F300.0 Z-0.8
G1 F800.0 X45.3982
G1 X-45.5018
G0 Z3.0
G0 X45.5018 Y-14.2018
G0 Z0.6
G1 F300.0 Z-0.8
G1 F800.0 X45.3982
G1 X-45.5018
G0 Z3.0
G0 X45.5018 Y-14.6018
G0 Z0.6
G1 F300.0 Z-0.8
G1 F800.0 X45.3982
G1 X-45.5018
G0 Z3.0
G0 X45.5018 Y-15.0018
G0 Z0.6
G1 F300.0 Z-0.8
G1 F800.0 X45.3982
G1 X-45.5018
G0 Z3.0
G0 X45.5018 Y-15.4018
G0 Z0.6
G1 F300.0 Z-0.8
G1 F800.0 X45.3982
G1 X-45.5018
G0 Z3.0
G0 X45.5018 Y-15.8018
G0 Z0.6
G1 F300.0 Z-0.8
G1 F800.0 X45.3982
G1 X-45.5018
G0 Z3.0
G0 X45.5018 Y-16.2018
G0 Z0.6
G1 F300.0 Z-0.8
G1 F800.0 X45.3982
G1 X-45.5018
G0 Z3.0
G0 X45.5018 Y-16.6018
G0 Z0.6
G1 F300.0 Z-0.8
G1 F800.0 X45.3982
G1 X-45.5018
G0 Z3.0
G0 X45.5018 Y-17.0018
G0 Z0.6
G1 F300.0 Z-0.8
G1 F800.0 X45.3982
G1 X-45.5018
G0 Z3.0
G0 X45.5018 Y-17.4018
G0 Z0.6
G1 F300.0 Z-0.8
G1 F800.0 X45.3982
G1 X-45.5018
G0 Z3.0
G0 X45.5018 Y-17.8018
G0 Z0.6
G1 F300.0 Z-0.8
G1 F800.0 X45.3982
G1 X-45.5018
G0 Z3.0
G0 X45.5018 Y-18.2018
G0 Z0.6
G1 F300.0 Z-0.8
G1 F800.0 X45.3982
G1 X-45.5018
G0 Z3.0
G0 X45.5018 Y-18.6018
G0 Z0.6
G1 F300.0 Z-0.8
G1 F800.0 X45.3982
G1 X-45.5018
G0 Z3.0
G0 X45.3992 Y-19.0018
G0 Z0.6
G1 F300.0 Z-0.8
G1 F800.0 X-45.3569
G0 Z3.0
G0 X45.0055 Y-19.4018
G0 Z0.6
G1 F300.0 Z-0.8
G1 F800.0 X-44.9611
G0 Z3.0
G0 X44.6055 Y-19.8018
G0 Z0.6
G1 F300.0 Z-0.8
G1 F800.0 X-44.5653
G0 Z3.0
G0 X44.2054 Y-20.2018
G0 Z0.6
G1 F300.0 Z-0.8
G1 F800.0 X-44.1695
G0 Z3.0
G0 X43.8054 Y-20.6018
G0 Z0.6
G1 F300.0 Z-0.8
G1 F800.0 X-43.7736
G0 Z3.0
G0 X43.4054 Y-21.0018
G0 Z0.6
G1 F300.0 Z-0.8
G1 F800.0 X-43.3778
G0 Z3.0
G0 X43.0054 Y-21.4018
G0 Z0.6
G1 F300.0 Z-0.8
G1 F800.0 X-42.982
G0 Z3.0
G0 X42.6053 Y-21.8018
G0 Z0.6
G1 F300.0 Z-0.8
G1 F800.0 X-42.5862
G0 Z3.0
G0 X42.2053 Y-22.2018
G0 Z0.6
G1 F300.0 Z-0.8
G1 F800.0 X-42.1904
G0 Z3.0
G0 X41.8053 Y-22.6018
G0 Z0.6
G1 F300.0 Z-0.8
G1 F800.0 X-41.7945
G0 Z3.0
G0 X41.4052 Y-23.0018
G0 Z0.6
G1 F300.0 Z-0.8
G1 F800.0 X-41.3987
G0 Z3.0
G0 X41.0052 Y-23.4018
G0 Z0.6
G1 F300.0 Z-0.8
G1 F800.0 X-41.0029
G0 Z3.0
G0 X40.6052 Y-23.8018
G0 Z0.6
G1 F300.0 Z-0.8
G1 F800.0 X-40.6071
G0 Z3.0
G0 X40.2052 Y-24.2018
G0 Z0.6
G1 F300.0 Z-0.8
G1 F800.0 X-40.2113
G0 Z3.0
G0 X39.8051 Y-24.6018
G0 Z0.6
G1 F300.0 Z-0.8
G1 F800.0 X-39.8154
G0 Z3.0
G0 X39.4051 Y-25.0018
G0 Z0.6
G1 F300.0 Z-0.8
G1 F800.0 X-39.4196
G0 Z3.0
G0 X39.0051 Y-25.4018
G0 Z0.6
G1 F300.0 Z-0.8
G1 F800.0 X-39.0238
G0 Z3.0
G0 X38.6051 Y-25.8018
G0 Z0.6
G1 F300.0 Z-0.8
G1 F800.0 X-38.628
G0 Z3.0
G0 X38.205 Y-26.2018
G0 Z0.6
G1 F300.0 Z-0.8
G1 F800.0 X-38.2322
G0 Z3.0
G0 X37.805 Y-26.6018
G0 Z0.6
G1 F300.0 Z-0.8
G1 F800.0 X-37.8363
G0 Z3.0
G0 X37.405 Y-27.0018
G0 Z0.6
G1 F300.0 Z-0.8
G1 F800.0 X-37.4405
G0 Z3.0
G0 X37.0049 Y-27.4018
G0 Z0.6
G1 F300.0 Z-0.8
G1 F800.0 X-37.0447
G0 Z3.0
G0 X36.6049 Y-27.8018
G0 Z0.6
G1 F300.0 Z-0.8
G1 F800.0 X-36.6489
G0 Z3.0
G0 X36.2049 Y-28.2018
G0 Z0.6
G1 F300.0 Z-0.8
G1 F800.0 X-36.2531
G0 Z3.0
G0 X35.8049 Y-28.6018
G0 Z0.6
G1 F300.0 Z-0.8
G1 F800.0 X-35.8572
G0 Z3.0
G0 X35.4048 Y-29.0018
G0 Z0.6
G1 F300.0 Z-0.8
G1 F800.0 X-35.4614
G0 Z3.0
G0 X35.0048 Y-29.4018
G0 Z0.6
G1 F300.0 Z-0.8
G1 F800.0 X-35.0656
G0 Z3.0
G0 X34.6048 Y-29.8018
G0 Z0.6
G1 F300.0 Z-0.8
G1 F800.0 X-34.6698
G0 Z3.0
G0 X34.2047 Y-30.2018
G0 Z0.6
G1 F300.0 Z-0.8
G1 F800.0 X-34.274
G0 Z3.0
G0 X33.8047 Y-30.6018
G0 Z0.6
G1 F300.0 Z-0.8
G1 F800.0 X-33.8781
G0 Z3.0
G0 X33.4047 Y-31.0018
G0 Z0.6
G1 F300.0 Z-0.8
G1 F800.0 X-33.4823
G0 Z3.0
G0 X33.0047 Y-31.4018
G0 Z0.6
G1 F300.0 Z-0.8
G1 F800.0 X-33.0865
G0 Z3.0
G0 X32.6046 Y-31.8018
G0 Z0.6
G1 F300.0 Z-0.8
G1 F800.0 X-32.6907
G0 Z3.0
G0 X32.2046 Y-32.2018
G0 Z0.6
G1 F300.0 Z-0.8
G1 F800.0 X-32.2949
G0 Z3.0
G0 X31.8046 Y-32.6018
G0 Z0.6
G1 F300.0 Z-0.8
G1 F800.0 X-31.899
G0 Z3.0
G0 X31.4046 Y-33.0018
G0 Z0.6
G1 F300.0 Z-0.8
G1 F800.0 X-31.5032
G0 Z3.0
G0 X31.0045 Y-33.4018
G0 Z0.6
G1 F300.0 Z-0.8
G1 F800.0 X-31.1074
G0 Z3.0
G0 X30.6045 Y-33.8018
G0 Z0.6
G1 F300.0 Z-0.8
G1 F800.0 X-30.7116
G0 Z3.0
G0 X30.2045 Y-34.2018
G0 Z0.6
G1 F300.0 Z-0.8
G1 F800.0 X-30.3158
G0 Z3.0
G0 X29.8044 Y-34.6018
G0 Z0.6
G1 F300.0 Z-0.8
G1 F800.0 X-29.9199
G0 Z3.0
G0 X29.4044 Y-35.0018
G0 Z0.6
G1 F300.0 Z-0.8
G1 F800.0 X-29.5241
G0 Z3.0
G0 X29.0044 Y-35.4018
G0 Z0.6
G1 F300.0 Z-0.8
G1 F800.0 X-29.1283
G0 Z3.0
G0 X28.6044 Y-35.8018
G0 Z0.6
G1 F300.0 Z-0.8
G1 F800.0 X-28.7325
G0 Z3.0
G0 X28.2043 Y-36.2018
G0 Z0.6
G1 F300.0 Z-0.8
G1 F800.0 X-28.3367
G0 Z3.0
G0 X27.8043 Y-36.6018
G0 Z0.6
G1 F300.0 Z-0.8
G1 F800.0 X-27.9408
G0 Z3.0
G0 X27.4043 Y-37.0018
G0 Z0.6
G1 F300.0 Z-0.8
G1 F800.0 X-27.545
G0 Z3.0
G0 X27.0042 Y-37.4018
G0 Z0.6
G1 F300.0 Z-0.8
G1 F800.0 X-27.1492
G0 Z3.0
G0 X26.6042 Y-37.8018
G0 Z0.6
G1 F300.0 Z-0.8
G1 F800.0 X-26.7534
G0 Z3.0
G0 X26.2042 Y-38.2018
G0 Z0.6
G1 F300.0 Z-0.8
G1 F800.0 X-26.3576
G0 Z3.0
G0 X25.8042 Y-38.6018
G0 Z0.6
G1 F300.0 Z-0.8
G1 F800.0 X-25.9617
G0 Z3.0
G0 X25.4041 Y-39.0018
G0 Z0.6
G1 F300.0 Z-0.8
G1 F800.0 X-25.5659
G0 Z3.0
G0 X25.0041 Y-39.4018
G0 Z0.6
G1 F300.0 Z-0.8
G1 F800.0 X-25.1701
G0 Z3.0
G0 X24.6041 Y-39.8018
G0 Z0.6
G1 F300.0 Z-0.8
G1 F800.0 X-24.7743
G0 Z3.0
G0 X24.2041 Y-40.2018
G0 Z0.6
G1 F300.0 Z-0.8
G1 F800.0 X-24.3785
G0 Z3.0
G0 X23.804 Y-40.6018
G0 Z0.6
G1 F300.0 Z-0.8
G1 F800.0 X-23.9826
G0 Z3.0
G0 X23.404 Y-41.0018
G0 Z0.6
G1 F300.0 Z-0.8
G1 F800.0 X-23.5868
G0 Z3.0
G0 X23.004 Y-41.4018
G0 Z0.6
G1 F300.0 Z-0.8
G1 F800.0 X-23.191
G0 Z3.0
G0 X22.6039 Y-41.8018
G0 Z0.6
G1 F300.0 Z-0.8
G1 F800.0 X-22.7952
G0 Z3.0
G0 X22.2039 Y-42.2018
G0 Z0.6
G1 F300.0 Z-0.8
G1 F800.0 X-22.3994
G0 Z3.0
G0 X21.8039 Y-42.6018
G0 Z0.6
G1 F300.0 Z-0.8
G1 F800.0 X-22.0036
G0 Z3.0
G0 X21.4039 Y-43.0018
G0 Z0.6
G1 F300.0 Z-0.8
G1 F800.0 X-21.6077
G0 Z3.0
G0 X21.0038 Y-43.4018
G0 Z0.6
G1 F300.0 Z-0.8
G1 F800.0 X-21.2119
G0 Z3.0
G0 X20.6038 Y-43.8018
G0 Z0.6
G1 F300.0 Z-0.8
G1 F800.0 X-20.8161
G0 Z3.0
G0 X20.2038 Y-44.2018
G0 Z0.6
G1 F300.0 Z-0.8
G1 F800.0 X-20.4203
G0 Z3.0
G0 X19.8037 Y-44.6018
G0 Z0.6
G1 F300.0 Z-0.8
G1 F800.0 X-20.0245
G0 Z3.0
G0 X19.4037 Y-45.0018
G0 Z0.6
G1 F300.0 Z-0.8
G1 F800.0 X-19.6286
G0 Z3.0
G0 X18.9966 Y-45.4018
G0 Z0.6
G1 F300.0 Z-0.8
G1 F800.0 X18.7982
G1 X-19.2252
G1 F300.0 X-19.4307 Y-45.2018
G1 Z-1.2
G1 F800.0 X19.2037
G0 Z3.0
G0 X-19.8265 Y-44.8018
G0 Z0.2
G1 F300.0 Z-1.2
G1 F800.0 X19.6037
G0 Z3.0
G0 X-20.2224 Y-44.4018
G0 Z0.2
G1 F300.0 Z-1.2
G1 F800.0 X20.0038
G0 Z3.0
G0 X-20.6182 Y-44.0018
G0 Z0.2
G1 F300.0 Z-1.2
G1 F800.0 X20.4038
G0 Z3.0
G0 X-21.014 Y-43.6018
G0 Z0.2
G1 F300.0 Z-1.2
G1 F800.0 X20.8038
G0 Z3.0
G0 X-21.4098 Y-43.2018
G0 Z0.2
G1 F300.0 Z-1.2
G1 F800.0 X21.2038
G0 Z3.0
G0 X-21.8056 Y-42.8018
G0 Z0.2
G1 F300.0 Z-1.2
G1 F800.0 X21.6039
G0 Z3.0
G0 X-22.2015 Y-42.4018
G0 Z0.2
G1 F300.0 Z-1.2
G1 F800.0 X22.0039
G0 Z3.0
G0 X-22.5973 Y-42.0018
G0 Z0.2
G1 F300.0 Z-1.2
G1 F800.0 X22.4039
G0 Z3.0
G0 X-22.9931 Y-41.6018
G0 Z0.2
G1 F300.0 Z-1.2
G1 F800.0 X22.804
G0 Z3.0
G0 X-23.3889 Y-41.2018
G0 Z0.2
G1 F300.0 Z-1.2
G1 F800.0 X23.204
G0 Z3.0
G0 X-23.7847 Y-40.8018
G0 Z0.2
G1 F300.0 Z-1.2
G1 F800.0 X23.604
G0 Z3.0
G0 X-24.1806 Y-40.4018
G0 Z0.2
G1 F300.0 Z-1.2
G1 F800.0 X24.004
G0 Z3.0
G0 X-24.5764 Y-40.0018
G0 Z0.2
G1 F300.0 Z-1.2
G1 F800.0 X24.4041
G0 Z3.0
G0 X-24.9722 Y-39.6018
G0 Z0.2
G1 F300.0 Z-1.2
G1 F800.0 X24.8041
G0 Z3.0
G0 X-25.368 Y-39.2018
G0 Z0.2
G1 F300.0 Z-1.2
G1 F800.0 X25.2041
G0 Z3.0
G0 X-25.7638 Y-38.8018
G0 Z0.2
G1 F300.0 Z-1.2
G1 F800.0 X25.6041
G0 Z3.0
G0 X-26.1597 Y-38.4018
G0 Z0.2
G1 F300.0 Z-1.2
G1 F800.0 X26.0042
G0 Z3.0
G0 X-26.5555 Y-38.0018
G0 Z0.2
G1 F300.0 Z-1.2
G1 F800.0 X26.4042
G0 Z3.0
G0 X-26.9513 Y-37.6018
G0 Z0.2
G1 F300.0 Z-1.2
G1 F800.0 X26.8042
G0 Z3.0
G0 X-27.3471 Y-37.2018
G0 Z0.2
G1 F300.0 Z-1.2
G1 F800.0 X27.2043
G0 Z3.0
G0 X-27.7429 Y-36.8018
G0 Z0.2
G1 F300.0 Z-1.2
G1 F800.0 X27.6043
G0 Z3.0
G0 X-28.1388 Y-36.4018
G0 Z0.2
G1 F300.0 Z-1.2
G1 F800.0 X28.0043
G0 Z3.0
G0 X-28.5346 Y-36.0018
G0 Z0.2
G1 F300.0 Z-1.2
G1 F800.0 X28.4043
G0 Z3.0
G0 X-28.9304 Y-35.6018
G0 Z0.2
G1 F300.0 Z-1.2
G1 F800.0 X28.8044
G0 Z3.0
G0 X-29.3262 Y-35.2018
G0 Z0.2
G1 F300.0 Z-1.2
G1 F800.0 X29.2044
G0 Z3.0
G0 X-29.722 Y-34.8018
G0 Z0.2
G1 F300.0 Z-1.2
G1 F800.0 X29.6044
G0 Z3.0
G0 X-30.1179 Y-34.4018
G0 Z0.2
G1 F300.0 Z-1.2
G1 F800.0 X30.0045
G0 Z3.0
G0 X-30.5137 Y-34.0018
G0 Z0.2
G1 F300.0 Z-1.2
G1 F800.0 X30.4045
G0 Z3.0
G0 X-30.9095 Y-33.6018
G0 Z0.2
G1 F300.0 Z-1.2
G1 F800.0 X30.8045
G0 Z3.0
G0 X-31.3053 Y-33.2018
G0 Z0.2
G1 F300.0 Z-1.2
G1 F800.0 X31.2045
G0 Z3.0
G0 X-31.7011 Y-32.8018
G0 Z0.2
G1 F300.0 Z-1.2
G1 F800.0 X31.6046
G0 Z3.0
G0 X-32.097 Y-32.4018
G0 Z0.2
G1 F300.0 Z-1.2
G1 F800.0 X32.0046
G0 Z3.0
G0 X-32.4928 Y-32.0018
G0 Z0.2
G1 F300.0 Z-1.2
G1 F800.0 X32.4046
G0 Z3.0
G0 X-32.8886 Y-31.6018
G0 Z0.2
G1 F300.0 Z-1.2
G1 F800.0 X32.8046
G0 Z3.0
G0 X-33.2844 Y-31.2018
G0 Z0.2
G1 F300.0 Z-1.2
G1 F800.0 X33.2047
G0 Z3.0
G0 X-33.6802 Y-30.8018
G0 Z0.2
G1 F300.0 Z-1.2
G1 F800.0 X33.6047
G0 Z3.0
G0 X-34.0761 Y-30.4018
G0 Z0.2
G1 F300.0 Z-1.2
G1 F800.0 X34.0047
G0 Z3.0
G0 X-34.4719 Y-30.0018
G0 Z0.2
G1 F300.0 Z-1.2
G1 F800.0 X34.4048
G0 Z3.0
G0 X-34.8677 Y-29.6018
G0 Z0.2
G1 F300.0 Z-1.2
G1 F800.0 X34.8048
G0 Z3.0
G0 X-35.2635 Y-29.2018
G0 Z0.2
G1 F300.0 Z-1.2
G1 F800.0 X35.2048
G0 Z3.0
G0 X-35.6593 Y-28.8018
G0 Z0.2
G1 F300.0 Z-1.2
G1 F800.0 X35.6048
G0 Z3.0
G0 X-36.0551 Y-28.4018
G0 Z0.2
G1 F300.0 Z-1.2
G1 F800.0 X36.0049
G0 Z3.0
G0 X-36.451 Y-28.0018
G0 Z0.2
G1 F300.0 Z-1.2
G1 F800.0 X36.4049
G0 Z3.0
G0 X-36.8468 Y-27.6018
G0 Z0.2
G1 F300.0 Z-1.2
G1 F800.0 X36.8049
G0 Z3.0
G0 X-37.2426 Y-27.2018
G0 Z0.2
G1 F300.0 Z-1.2
G1 F800.0 X37.205
G0 Z3.0
G0 X-37.6384 Y-26.8018
G0 Z0.2
G1 F300.0 Z-1.2
G1 F800.0 X37.605
G0 Z3.0
G0 X-38.0342 Y-26.4018
G0 Z0.2
G1 F300.0 Z-1.2
G1 F800.0 X38.005
G0 Z3.0
G0 X-38.4301 Y-26.0018
G0 Z0.2
G1 F300.0 Z-1.2
G1 F800.0 X38.405
G0 Z3.0
G0 X-38.8259 Y-25.6018
G0 Z0.2
G1 F300.0 Z-1.2
G1 F800.0 X38.8051
G0 Z3.0
G0 X-39.2217 Y-25.2018
G0 Z0.2
G1 F300.0 Z-1.2
G1 F800.0 X39.2051
G0 Z3.0
G0 X-39.6175 Y-24.8018
G0 Z0.2
G1 F300.0 Z-1.2
G1 F800.0 X39.6051
G0 Z3.0
G0 X-40.0133 Y-24.4018
G0 Z0.2
G1 F300.0 Z-1.2
G1 F800.0 X40.0051
G0 Z3.0
G0 X-40.4092 Y-24.0018
G0 Z0.2
G1 F300.0 Z-1.2
G1 F800.0 X40.4052
G0 Z3.0
G0 X-40.805 Y-23.6018
G0 Z0.2
G1 F300.0 Z-1.2
G1 F800.0 X40.8052
G0 Z3.0
G0 X-41.2008 Y-23.2018
G0 Z0.2
G1 F300.0 Z-1.2
G1 F800.0 X41.2052
G0 Z3.0
G0 X-41.5966 Y-22.8018
G0 Z0.2
G1 F300.0 Z-1.2
G1 F800.0 X41.6053
G0 Z3.0
G0 X-41.9924 Y-22.4018
G0 Z0.2
G1 F300.0 Z-1.2
G1 F800.0 X42.0053
G0 Z3.0
G0 X-42.3883 Y-22.0018
G0 Z0.2
G1 F300.0 Z-1.2
G1 F800.0 X42.4053
G0 Z3.0
G0 X-42.7841 Y-21.6018
G0 Z0.2
G1 F300.0 Z-1.2
G1 F800.0 X42.8053
G0 Z3.0
G0 X-43.1799 Y-21.2018
G0 Z0.2
G1 F300.0 Z-1.2
G1 F800.0 X43.2054
G0 Z3.0
G0 X-43.5757 Y-20.8018
G0 Z0.2
G1 F300.0 Z-1.2
G1 F800.0 X43.6054
G0 Z3.0
G0 X-43.9715 Y-20.4018
G0 Z0.2
G1 F300.0 Z-1.2
G1 F800.0 X44.0054
G0 Z3.0
G0 X-44.3674 Y-20.0018
G0 Z0.2
G1 F300.0 Z-1.2
G1 F800.0 X44.4055
G0 Z3.0
G0 X-44.7632 Y-19.6018
G0 Z0.2
G1 F300.0 Z-1.2
G1 F800.0 X44.8055
G0 Z3.0
G0 X-45.159 Y-19.2018
G0 Z0.2
G1 F300.0 Z-1.2
G1 F800.0 X45.2055
G0 Z3.0
G0 X-45.4781 Y-18.8018
G0 Z0.2
G1 F300.0 Z-1.2
G1 F800.0 X45.491
G0 Z3.0
G0 X-45.5018 Y-18.4018
G0 Z0.2
G1 F300.0 Z-1.2
G1 F800.0 X45.3982
G1 X45.5018
G0 Z3.0
G0 X-45.5018 Y-18.0018
G0 Z0.2
G1 F300.0 Z-1.2
G1 F800.0 X45.3982
G1 X45.5018
G0 Z3.0
G0 X-45.5018 Y-17.6018
G0 Z0.2
G1 F300.0 Z-1.2
G1 F800.0 X45.3982
G1 X45.5018
G0 Z3.0
G0 X-45.5018 Y-17.2018
G0 Z0.2
G1 F300.0 Z-1.2
G1 F800.0 X45.3982
G1 X45.5018
G0 Z3.0
G0 X-45.5018 Y-16.8018
G0 Z0.2
G1 F300.0 Z-1.2
G1 F800.0 X45.3982
G1 X45.5018
G0 Z3.0
G0 X-45.5018 Y-16.4018
G0 Z0.2
G1 F300.0 Z-1.2
G1 F800.0 X45.3982
G1 X45.5018
G0 Z3.0
G0 X-45.5018 Y-16.0018
G0 Z0.2
G1 F300.0 Z-1.2
G1 F800.0 X45.3982
G1 X45.5018
G0 Z3.0
G0 X-45.5018 Y-15.6018
G0 Z0.2
G1 F300.0 Z-1.2
G1 F800.0 X45.3982
G1 X45.5018
G0 Z3.0
G0 X-45.5018 Y-15.2018
G0 Z0.2
G1 F300.0 Z-1.2
G1 F800.0 X45.3982
G1 X45.5018
G0 Z3.0
G0 X-45.5018 Y-14.8018
G0 Z0.2
G1 F300.0 Z-1.2
G1 F800.0 X45.3982
G1 X45.5018
G0 Z3.0
G0 X-45.5018 Y-14.4018
G0 Z0.2
G1 F300.0 Z-1.2
G1 F800.0 X45.3982
G1 X45.5018
G0 Z3.0
G0 X-45.5018 Y-14.0018
G0 Z0.2
G1 F300.0 Z-1.2
G1 F800.0 X45.3982
G1 X45.5018
G0 Z3.0
G0 X-45.5018 Y-13.6018
G0 Z0.2
G1 F300.0 Z-1.2
G1 F800.0 X45.3982
G1 X45.5018
G0 Z3.0
G0 X-45.5018 Y-13.2018
G0 Z0.2
G1 F300.0 Z-1.2
G1 F800.0 X45.3982
G1 X45.5018
G0 Z3.0
G0 X-45.5018 Y-12.8018
G0 Z0.2
G1 F300.0 Z-1.2
G1 F800.0 X45.3982
G1 X45.5018
G0 Z3.0
G0 X-45.5018 Y-12.4018
G0 Z0.2
G1 F300.0 Z-1.2
G1 F800.0 X45.3982
G1 X45.5018
G0 Z3.0
G0 X-45.5018 Y-12.0018
G0 Z0.2
G1 F300.0 Z-1.2
G1 F800.0 X45.3982
G1 X45.5018
G0 Z3.0
G0 X-45.5018 Y-11.6018
G0 Z0.2
G1 F300.0 Z-1.2
G1 F800.0 X45.3982
G1 X45.5018
G0 Z3.0
G0 X-45.5018 Y-11.2018
G0 Z0.2
G1 F300.0 Z-1.2
G1 F800.0 X45.3982
G1 X45.5018
G0 Z3.0
G0 X-45.5018 Y-10.8018
G0 Z0.2
G1 F300.0 Z-1.2
G1 F800.0 X45.3982
G1 X45.5018
G0 Z3.0
G0 X-45.5018 Y-10.4018
G0 Z0.2
G1 F300.0 Z-1.2
G1 F800.0 X45.3982
G1 X45.5018
G0 Z3.0
G0 X-45.5018 Y-10.0018
G0 Z0.2
G1 F300.0 Z-1.2
G1 F800.0 X45.3982
G1 X45.5018
G0 Z3.0
G0 X-45.5018 Y-9.6018
G0 Z0.2
G1 F300.0 Z-1.2
G1 F800.0 X45.3982
G1 X45.5018
G0 Z3.0
G0 X-45.5018 Y-9.2018
G0 Z0.2
G1 F300.0 Z-1.2
G1 F800.0 X45.3982
G1 X45.5018
G0 Z3.0
G0 X-45.5018 Y-8.8018
G0 Z0.2
G1 F300.0 Z-1.2
G1 F800.0 X45.3982
G1 X45.5018
G0 Z3.0
G0 X-45.5018 Y-8.4018
G0 Z0.2
G1 F300.0 Z-1.2
G1 F800.0 X45.3982
G1 X45.5018
G0 Z3.0
G0 X-45.5018 Y-8.0018
G0 Z0.2
G1 F300.0 Z-1.2
G1 F800.0 X45.3982
G1 X45.5018
G0 Z3.0
G0 X-45.5018 Y-7.6018
G0 Z0.2
G1 F300.0 Z-1.2
G1 F800.0 X45.3982
G1 X45.5018
G0 Z3.0
G0 X-45.5018 Y-7.2018
G0 Z0.2
G1 F300.0 Z-1.2
G1 F800.0 X45.3982
G1 X45.5018
G0 Z3.0
G0 X-45.5018 Y-6.8018
G0 Z0.2
G1 F300.0 Z-1.2
G1 F800.0 X45.3982
G1 X45.5018
G0 Z3.0
G0 X-45.5018 Y-6.4018
G0 Z0.2
G1 F300.0 Z-1.2
G1 F800.0 X45.3982
G1 X45.5018
G0 Z3.0
G0 X-45.5018 Y-6.0018
G0 Z0.2
G1 F300.0 Z-1.2
G1 F800.0 X45.3982
G1 X45.5018
G0 Z3.0
G0 X-45.5018 Y-5.6018
G0 Z0.2
G1 F300.0 Z-1.2
G1 F800.0 X45.3982
G1 X45.5018
G0 Z3.0
G0 X-45.5018 Y-5.2018
G0 Z0.2
G1 F300.0 Z-1.2
G1 F800.0 X45.3982
G1 X45.5018
G0 Z3.0
G0 X-45.5018 Y-4.8018
G0 Z0.2
G1 F300.0 Z-1.2
G1 F800.0 X45.3982
G1 X45.5018
G0 Z3.0
G0 X-45.5018 Y-4.4018
G0 Z0.2
G1 F300.0 Z-1.2
G1 F800.0 X45.3982
G1 X45.5018
G0 Z3.0
G0 X-45.5018 Y-4.0018
G0 Z0.2
G1 F300.0 Z-1.2
G1 F800.0 X45.3982
G1 X45.5018
G0 Z3.0
G0 X-45.5018 Y-3.6018
G0 Z0.2
G1 F300.0 Z-1.2
G1 F800.0 X45.3982
G1 X45.5018
G0 Z3.0
G0 X-45.5018 Y-3.2018
G0 Z0.2
G1 F300.0 Z-1.2
G1 F800.0 X45.3982
G1 X45.5018
G0 Z3.0
G0 X-45.5018 Y-2.8018
G0 Z0.2
G1 F300.0 Z-1.2
G1 F800.0 X45.3982
G1 X45.5018
G0 Z3.0
G0 X-45.5018 Y-2.4018
G0 Z0.2
G1 F300.0 Z-1.2
G1 F800.0 X45.3982
G1 X45.5018
G0 Z3.0
G0 X-45.5018 Y-2.0018
G0 Z0.2
G1 F300.0 Z-1.2
G1 F800.0 X45.3982
G1 X45.5018
G0 Z3.0
G0 X-45.5018 Y-1.6018
G0 Z0.2
G1 F300.0 Z-1.2
G1 F800.0 X45.3982
G1 X45.5018
G0 Z3.0
G0 X-45.5018 Y-1.2018
G0 Z0.2
G1 F300.0 Z-1.2
G1 F800.0 X45.3982
G1 X45.5018
G0 Z3.0
G0 X-45.5018 Y-0.8018
G0 Z0.2
G1 F300.0 Z-1.2
G1 F800.0 X45.3982
G1 X45.5018
G0 Z3.0
G0 X-45.5018 Y-0.4018
G0 Z0.2
G1 F300.0 Z-1.2
G1 F800.0 X45.3982
G1 X45.5018
G0 Z3.0
G0 X-45.5018 Y-0.0018
G0 Z0.2
G1 F300.0 Z-1.2
G1 F800.0 X45.3982
G1 X45.5018
G0 Z3.0
G0 X-45.5018 Y0.3982
G0 Z0.2
G1 F300.0 Z-1.2
G1 F800.0 X45.3982
G1 X45.5018
G0 Z3.0
G0 X-45.5018 Y0.7982
G0 Z0.2
G1 F300.0 Z-1.2
G1 F800.0 X45.3982
G1 X45.5018
G0 Z3.0
G0 X-45.5018 Y1.1982
G0 Z0.2
G1 F300.0 Z-1.2
G1 F800.0 X45.3982
G1 X45.5018
G0 Z3.0
G0 X-45.5018 Y1.5982
G0 Z0.2
G1 F300.0 Z-1.2
G1 F800.0 X45.3982
G1 X45.5018
G0 Z3.0
G0 X-45.5018 Y1.9982
G0 Z0.2
G1 F300.0 Z-1.2
G1 F800.0 X45.3982
G1 X45.5018
G0 Z3.0
G0 X-45.5018 Y2.3982
G0 Z0.2
G1 F300.0 Z-1.2
G1 F800.0 X45.3982
G1 X45.5018
G0 Z3.0
G0 X-45.5018 Y2.7982
G0 Z0.2
G1 F300.0 Z-1.2
G1 F800.0 X45.3982
G1 X45.5018
G0 Z3.0
G0 X-45.5018 Y3.1982
G0 Z0.2
G1 F300.0 Z-1.2
G1 F800.0 X45.3982
G1 X45.5018
G0 Z3.0
G0 X-45.5018 Y3.5982
G0 Z0.2
G1 F300.0 Z-1.2
G1 F800.0 X45.3982
G1 X45.5018
G0 Z3.0
G0 X-45.5018 Y3.9982
G0 Z0.2
G1 F300.0 Z-1.2
G1 F800.0 X45.3982
G1 X45.5018
G0 Z3.0
G0 X-45.5018 Y4.3982
G0 Z0.2
G1 F300.0 Z-1.2
G1 F800.0 X45.3982
G1 X45.5018
G0 Z3.0
G0 X-45.5018 Y4.7982
G0 Z0.2
G1 F300.0 Z-1.2
G1 F800.0 X45.3982
G1 X45.5018
G0 Z3.0
G0 X-45.5018 Y5.1982
G0 Z0.2
G1 F300.0 Z-1.2
G1 F800.0 X45.3982
G1 X45.5018
G0 Z3.0
G0 X-45.5018 Y5.5982
G0 Z0.2
G1 F300.0 Z-1.2
G1 F800.0 X45.3982
G1 X45.5018
G0 Z3.0
G0 X-45.5018 Y5.9982
G0 Z0.2
G1 F300.0 Z-1.2
G1 F800.0 X45.3982
G1 X45.5018
G0 Z3.0
G0 X-45.5018 Y6.3982
G0 Z0.2
G1 F300.0 Z-1.2
G1 F800.0 X45.3982
G1 X45.5018
G0 Z3.0
G0 X-45.5018 Y6.7982
G0 Z0.2
G1 F300.0 Z-1.2
G1 F800.0 X45.3982
G1 X45.5018
G0 Z3.0
G0 X-45.5018 Y7.1982
G0 Z0.2
G1 F300.0 Z-1.2
G1 F800.0 X45.3982
G1 X45.5018
G0 Z3.0
G0 X-45.5018 Y7.5982
G0 Z0.2
G1 F300.0 Z-1.2
G1 F800.0 X45.3982
G1 X45.5018
G0 Z3.0
G0 X-45.5018 Y7.9982
G0 Z0.2
G1 F300.0 Z-1.2
G1 F800.0 X45.3982
G1 X45.5018
G0 Z3.0
G0 X-45.5018 Y8.3982
G0 Z0.2
G1 F300.0 Z-1.2
G1 F800.0 X45.3982
G1 X45.5018
G0 Z3.0
G0 X-45.5018 Y8.7982
G0 Z0.2
G1 F300.0 Z-1.2
G1 F800.0 X45.3982
G1 X45.5018
G0 Z3.0
G0 X-45.5018 Y9.1982
G0 Z0.2
G1 F300.0 Z-1.2
G1 F800.0 X45.3982
G1 X45.5018
G0 Z3.0
G0 X-45.5018 Y9.5982
G0 Z0.2
G1 F300.0 Z-1.2
G1 F800.0 X45.3982
G1 X45.5018
G0 Z3.0
G0 X-45.5018 Y9.9982
G0 Z0.2
G1 F300.0 Z-1.2
G1 F800.0 X45.3982
G1 X45.5018
G0 Z3.0
G0 X-45.5018 Y10.3982
G0 Z0.2
G1 F300.0 Z-1.2
G1 F800.0 X45.3982
G1 X45.5018
G0 Z3.0
G0 X-45.5018 Y10.7982
G0 Z0.2
G1 F300.0 Z-1.2
G1 F800.0 X45.3982
G1 X45.5018
G0 Z3.0
G0 X-45.5018 Y11.1982
G0 Z0.2
G1 F300.0 Z-1.2
G1 F800.0 X45.3982
G1 X45.5018
G0 Z3.0
G0 X-45.5018 Y11.5982
G0 Z0.2
G1 F300.0 Z-1.2
G1 F800.0 X45.3982
G1 X45.5018
G0 Z3.0
G0 X-45.5018 Y11.9982
G0 Z0.2
G1 F300.0 Z-1.2
G1 F800.0 X45.3982
G1 X45.5018
G0 Z3.0
G0 X-45.5018 Y12.3982
G0 Z0.2
G1 F300.0 Z-1.2
G1 F800.0 X45.3982
G1 X45.5018
G0 Z3.0
G0 X-45.5018 Y12.7982
G0 Z0.2
G1 F300.0 Z-1.2
G1 F800.0 X45.3982
G1 X45.5018
G0 Z3.0
G0 X-45.5018 Y13.1982
G0 Z0.2
G1 F300.0 Z-1.2
G1 F800.0 X45.3982
G1 X45.5018
G0 Z3.0
G0 X-45.5018 Y13.5982
G0 Z0.2
G1 F300.0 Z-1.2
G1 F800.0 X45.3982
G1 X45.5018
G0 Z3.0
G0 X-45.5018 Y13.9982
G0 Z0.2
G1 F300.0 Z-1.2
G1 F800.0 X45.3982
G1 X45.5018
G0 Z3.0
G0 X-45.5018 Y14.3982
G0 Z0.2
G1 F300.0 Z-1.2
G1 F800.0 X45.3982
G1 X45.5018
G0 Z3.0
G0 X-45.5018 Y14.7982
G0 Z0.2
G1 F300.0 Z-1.2
G1 F800.0 X45.3982
G1 X45.5018
G0 Z3.0
G0 X-45.5018 Y15.1982
G0 Z0.2
G1 F300.0 Z-1.2
G1 F800.0 X45.3982
G1 X45.5018
G0 Z3.0
G0 X-45.5018 Y15.5982
G0 Z0.2
G1 F300.0 Z-1.2
G1 F800.0 X45.3982
G1 X45.5018
G0 Z3.0
G0 X-45.5018 Y15.9982
G0 Z0.2
G1 F300.0 Z-1.2
G1 F800.0 X45.3982
G1 X45.5018
G0 Z3.0
G0 X-45.5018 Y16.3982
G0 Z0.2
G1 F300.0 Z-1.2
G1 F800.0 X45.3982
G1 X45.5018
G0 Z3.0
G0 X-45.5018 Y16.7982
G0 Z0.2
G1 F300.0 Z-1.2
G1 F800.0 X45.3982
G1 X45.5018
G0 Z3.0
G0 X-45.5018 Y17.1982
G0 Z0.2
G1 F300.0 Z-1.2
G1 F800.0 X45.3982
G1 X45.5018
G0 Z3.0
G0 X-45.5018 Y17.5982
G0 Z0.2
G1 F300.0 Z-1.2
G1 F800.0 X45.3982
G1 X45.5018
G0 Z3.0
G0 X-45.5018 Y17.9982
G0 Z0.2
G1 F300.0 Z-1.2
G1 F800.0 X45.3982
G1 X45.5018
G0 Z3.0
G0 X-45.5018 Y18.3982
G0 Z0.2
G1 F300.0 Z-1.2
G1 F800.0 X45.3982
G1 X45.5018
G0 Z3.0
G0 X-45.4914 Y18.7982
G0 Z0.2
G1 F300.0 Z-1.2
G1 F800.0 X45.3982
G1 X45.4988
G0 Z3.0
G0 X-45.2073 Y19.1982
G0 Z0.2
G1 F300.0 Z-1.2
G1 F800.0 X45.2531
G0 Z3.0
G0 X-44.8074 Y19.5982
G0 Z0.2
G1 F300.0 Z-1.2
G1 F800.0 X44.8488
G0 Z3.0
G0 X-44.4074 Y19.9982
G0 Z0.2
G1 F300.0 Z-1.2
G1 F800.0 X44.4446
G0 Z3.0
G0 X-44.0074 Y20.3982
G0 Z0.2
G1 F300.0 Z-1.2
G1 F800.0 X44.0404
G0 Z3.0
G0 X-43.6074 Y20.7982
G0 Z0.2
G1 F300.0 Z-1.2
G1 F800.0 X43.6362
G0 Z3.0
G0 X-43.2075 Y21.1982
G0 Z0.2
G1 F300.0 Z-1.2
G1 F800.0 X43.2319
G0 Z3.0
G0 X-42.8075 Y21.5982
G0 Z0.2
G1 F300.0 Z-1.2
G1 F800.0 X42.8277
G0 Z3.0
G0 X-42.4075 Y21.9982
G0 Z0.2
G1 F300.0 Z-1.2
G1 F800.0 X42.4235
G0 Z3.0
G0 X-42.0075 Y22.3982
G0 Z0.2
G1 F300.0 Z-1.2
G1 F800.0 X42.0193
G0 Z3.0
G0 X-41.6076 Y22.7982
G0 Z0.2
G1 F300.0 Z-1.2
G1 F800.0 X41.6151
G0 Z3.0
G0 X-41.2076 Y23.1982
G0 Z0.2
G1 F300.0 Z-1.2
G1 F800.0 X41.2108
G0 Z3.0
G0 X-40.8076 Y23.5982
G0 Z0.2
G1 F300.0 Z-1.2
G1 F800.0 X40.8066
G0 Z3.0
G0 X-40.4077 Y23.9982
G0 Z0.2
G1 F300.0 Z-1.2
G1 F800.0 X40.4024
G0 Z3.0
G0 X-40.0077 Y24.3982
G0 Z0.2
G1 F300.0 Z-1.2
G1 F800.0 X39.7982
G1 X39.9982
G0 Z3.0
G0 X-39.6077 Y24.7982
G0 Z0.2
G1 F300.0 Z-1.2
G1 F800.0 X39.3982
G1 X39.5939
G0 Z3.0
G0 X-39.2077 Y25.1982
G0 Z0.2
G1 F300.0 Z-1.2
G1 F800.0 X38.9982
G1 X39.1897
G0 Z3.0
G0 X-38.8078 Y25.5982
G0 Z0.2
G1 F300.0 Z-1.2
G1 F800.0 X38.5982
G1 X38.7855
G0 Z3.0
G0 X-38.4078 Y25.9982
G0 Z0.2
G1 F300.0 Z-1.2
G1 F800.0 X38.1982
G1 X38.3813
G0 Z3.0
G0 X-38.0078 Y26.3982
G0 Z0.2
G1 F300.0 Z-1.2
G1 F800.0 X37.7982
G1 X37.9771
G0 Z3.0
G0 X-37.6078 Y26.7982
G0 Z0.2
G1 F300.0 Z-1.2
G1 F800.0 X37.3982
G1 X37.5728
G0 Z3.0
G0 X-37.2079 Y27.1982
G0 Z0.2
G1 F300.0 Z-1.2
G1 F800.0 X36.9982
G1 X37.1686
G0 Z3.0
G0 X-36.8079 Y27.5982
G0 Z0.2
G1 F300.0 Z-1.2
G1 F800.0 X36.5982
G1 X36.7644
G0 Z3.0
G0 X-36.4079 Y27.9982
G0 Z0.2
G1 F300.0 Z-1.2
G1 F800.0 X36.1982
G1 X36.3602
G0 Z3.0
G0 X-36.008 Y28.3982
G0 Z0.2
G1 F300.0 Z-1.2
G1 F800.0 X35.7982
G1 X35.9559
G0 Z3.0
G0 X-35.608 Y28.7982
G0 Z0.2
G1 F300.0 Z-1.2
G1 F800.0 X35.3982
G1 X35.5517
G0 Z3.0
G0 X-35.208 Y29.1982
G0 Z0.2
G1 F300.0 Z-1.2
G1 F800.0 X34.9982
G1 X35.1475
G0 Z3.0
G0 X-34.808 Y29.5982
G0 Z0.2
G1 F300.0 Z-1.2
G1 F800.0 X34.5982
G1 X34.7433
G0 Z3.0
G0 X-34.4081 Y29.9982
G0 Z0.2
G1 F300.0 Z-1.2
G1 F800.0 X34.1982
G1 X34.339
G0 Z3.0
G0 X-34.0081 Y30.3982
G0 Z0.2
G1 F300.0 Z-1.2
G1 F800.0 X33.7982
G1 X33.9348
G0 Z3.0
G0 X-33.6081 Y30.7982
G0 Z0.2
G1 F300.0 Z-1.2
G1 F800.0 X33.3982
G1 X33.5306
G0 Z3.0
G0 X-33.2081 Y31.1982
G0 Z0.2
G1 F300.0 Z-1.2
G1 F800.0 X32.9982
G1 X33.1264
G0 Z3.0
G0 X-32.8082 Y31.5982
G0 Z0.2
G1 F300.0 Z-1.2
G1 F800.0 X32.5982
G1 X32.7222
G0 Z3.0
G0 X-32.4082 Y31.9982
G0 Z0.2
G1 F300.0 Z-1.2
G1 F800.0 X32.1982
G1 X32.3179
G0 Z3.0
G0 X-32.0082 Y32.3982
G0 Z0.2
G1 F300.0 Z-1.2
G1 F800.0 X31.7982
G1 X31.9137
G0 Z3.0
G0 X-31.6083 Y32.7982
G0 Z0.2
G1 F300.0 Z-1.2
G1 F800.0 X31.3982
G1 X31.5095
G0 Z3.0
G0 X-31.2083 Y33.1982
G0 Z0.2
G1 F300.0 Z-1.2
G1 F800.0 X30.9982
G1 X31.1053
G0 Z3.0
G0 X-30.8083 Y33.5982
G0 Z0.2
G1 F300.0 Z-1.2
G1 F800.0 X30.5982
G1 X30.701
G0 Z3.0
G0 X-30.4083 Y33.9982
G0 Z0.2
G1 F300.0 Z-1.2
G1 F800.0 X30.2968
G0 Z3.0
G0 X-30.0084 Y34.3982
G0 Z0.2
G1 F300.0 Z-1.2
G1 F800.0 X29.8926
G0 Z3.0
G0 X-29.6084 Y34.7982
G0 Z0.2
G1 F300.0 Z-1.2
G1 F800.0 X29.4884
G0 Z3.0
G0 X-29.2084 Y35.1982
G0 Z0.2
G1 F300.0 Z-1.2
G1 F800.0 X29.0842
G0 Z3.0
G0 X-28.8084 Y35.5982
G0 Z0.2
G1 F300.0 Z-1.2
G1 F800.0 X28.6799
G0 Z3.0
G0 X-28.4085 Y35.9982
G0 Z0.2
G1 F300.0 Z-1.2
G1 F800.0 X28.2757
G0 Z3.0
G0 X-28.0085 Y36.3982
G0 Z0.2
G1 F300.0 Z-1.2
G1 F800.0 X27.8715
G0 Z3.0
G0 X-27.6085 Y36.7982
G0 Z0.2
G1 F300.0 Z-1.2
G1 F800.0 X27.4673
G0 Z3.0
G0 X-27.2086 Y37.1982
G0 Z0.2
G1 F300.0 Z-1.2
G1 F800.0 X27.063
G0 Z3.0
G0 X-26.8086 Y37.5982
G0 Z0.2
G1 F300.0 Z-1.2
G1 F800.0 X26.6588
G0 Z3.0
G0 X-26.4086 Y37.9982
G0 Z0.2
G1 F300.0 Z-1.2
G1 F800.0 X26.2546
G0 Z3.0
G0 X-26.0086 Y38.3982
G0 Z0.2
G1 F300.0 Z-1.2
G1 F800.0 X25.8504
G0 Z3.0
G0 X-25.6087 Y38.7982
G0 Z0.2
G1 F300.0 Z-1.2
G1 F800.0 X25.4461
G0 Z3.0
G0 X-25.2087 Y39.1982
G0 Z0.2
G1 F300.0 Z-1.2
G1 F800.0 X25.0419
G0 Z3.0
G0 X-24.8087 Y39.5982
G0 Z0.2
G1 F300.0 Z-1.2
G1 F800.0 X24.6377
G0 Z3.0
G0 X-24.4087 Y39.9982
G0 Z0.2
G1 F300.0 Z-1.2
G1 F800.0 X24.2335
G0 Z3.0
G0 X-24.0088 Y40.3982
G0 Z0.2
G1 F300.0 Z-1.2
G1 F800.0 X23.8293
G0 Z3.0
G0 X-23.6088 Y40.7982
G0 Z0.2
G1 F300.0 Z-1.2
G1 F800.0 X23.425
G0 Z3.0
G0 X-23.2088 Y41.1982
G0 Z0.2
G1 F300.0 Z-1.2
G1 F800.0 X23.0208
G0 Z3.0
G0 X-22.8089 Y41.5982
G0 Z0.2
G1 F300.0 Z-1.2
G1 F800.0 X22.6166
G0 Z3.0
G0 X-22.4089 Y41.9982
G0 Z0.2
G1 F300.0 Z-1.2
G1 F800.0 X22.2124
G0 Z3.0
G0 X-22.0089 Y42.3982
G0 Z0.2
G1 F300.0 Z-1.2
G1 F800.0 X21.8081
G0 Z3.0
G0 X-21.6089 Y42.7982
G0 Z0.2
G1 F300.0 Z-1.2
G1 F800.0 X21.4039
G0 Z3.0
G0 X-21.209 Y43.1982
G0 Z0.2
G1 F300.0 Z-1.2
G1 F800.0 X20.9997
G0 Z3.0
G0 X-20.809 Y43.5982
G0 Z0.2
G1 F300.0 Z-1.2
G1 F800.0 X20.3982
G1 X20.5955
G0 Z3.0
G0 X-20.409 Y43.9982
G0 Z0.2
G1 F300.0 Z-1.2
G1 F800.0 X19.9982
G1 X20.1912
G0 Z3.0
G0 X-20.009 Y44.3982
G0 Z0.2
G1 F300.0 Z-1.2
G1 F800.0 X19.5982
G1 X19.787
G0 Z3.0
G0 X-19.6091 Y44.7982
G0 Z0.2
G1 F300.0 Z-1.2
G1 F800.0 X19.1982
G1 X19.3828
G0 Z3.0
G0 X-19.2091 Y45.1982
G0 Z0.2
G1 F300.0 Z-1.2
G1 F800.0 X18.7982
G1 X18.9786
G1 F300.0 X18.7709 Y45.3982
G1 Z-1.3982
G1 F800.0 X18.5982
G1 X-19.0031
G0 Z3.0
G0 X19.1807 Y44.9982
G0 Z0.0018
G1 F300.0 Z-1.3982
G1 F800.0 X18.9982
G1 X-19.4091
G0 Z3.0
G0 X19.5849 Y44.5982
G0 Z0.0018
G1 F300.0 Z-1.3982
G1 F800.0 X19.3982
G1 X-19.8091
G0 Z3.0
G0 X19.9891 Y44.1982
G0 Z0.0018
G1 F300.0 Z-1.3982
G1 F800.0 X19.7982
G1 X-20.209
G0 Z3.0
G0 X20.3934 Y43.7982
G0 Z0.0018
G1 F300.0 Z-1.3982
G1 F800.0 X20.1982
G1 X-20.609
G0 Z3.0
G0 X20.7976 Y43.3982
G0 Z0.0018
G1 F300.0 Z-1.3982
G1 F800.0 X20.5982
G1 X-21.009
G0 Z3.0
G0 X21.2018 Y42.9982
G0 Z0.0018
G1 F300.0 Z-1.3982
G1 F800.0 X-21.4089
G0 Z3.0
G0 X21.606 Y42.5982
G0 Z0.0018
G1 F300.0 Z-1.3982
G1 F800.0 X-21.8089
G0 Z3.0
G0 X22.0103 Y42.1982
G0 Z0.0018
G1 F300.0 Z-1.3982
G1 F800.0 X-22.2089
G0 Z3.0
G0 X22.4145 Y41.7982
G0 Z0.0018
G1 F300.0 Z-1.3982
G1 F800.0 X-22.6089
G0 Z3.0
G0 X22.8187 Y41.3982
G0 Z0.0018
G1 F300.0 Z-1.3982
G1 F800.0 X-23.0088
G0 Z3.0
G0 X23.2229 Y40.9982
G0 Z0.0018
G1 F300.0 Z-1.3982
G1 F800.0 X-23.4088
G0 Z3.0
G0 X23.6271 Y40.5982
G0 Z0.0018
G1 F300.0 Z-1.3982
G1 F800.0 X-23.8088
G0 Z3.0
G0 X24.0314 Y40.1982
G0 Z0.0018
G1 F300.0 Z-1.3982
G1 F800.0 X-24.2088
G0 Z3.0
G0 X24.4356 Y39.7982
G0 Z0.0018
G1 F300.0 Z-1.3982
G1 F800.0 X-24.6087
G0 Z3.0
G0 X24.8398 Y39.3982
G0 Z0.0018
G1 F300.0 Z-1.3982
G1 F800.0 X-25.0087
G0 Z3.0
G0 X25.244 Y38.9982
G0 Z0.0018
G1 F300.0 Z-1.3982
G1 F800.0 X-25.4087
G0 Z3.0
G0 X25.6483 Y38.5982
G0 Z0.0018
G1 F300.0 Z-1.3982
G1 F800.0 X-25.8086
G0 Z3.0
G0 X26.0525 Y38.1982
G0 Z0.0018
G1 F300.0 Z-1.3982
G1 F800.0 X-26.2086
G0 Z3.0
G0 X26.4567 Y37.7982
G0 Z0.0018
G1 F300.0 Z-1.3982
G1 F800.0 X16.1982
G1 X15.9982 Z-1.6
G1 X-16.2018
G1 X-16.4018 Z-1.3982
G1 X-26.6086
G0 Z3.0
G0 X26.8609 Y37.3982
G0 Z0.0018
G1 F300.0 Z-1.3982
G1 F800.0 X16.5982
G1 X16.3982 Z-1.6
G1 X7.7982
G1 X7.5982 Z-1.3982
G1 X3.1982
G1 X2.9982 Z-1.6
G1 X-16.6018
G1 X-16.8018 Z-1.3982
G1 X-27.0086
G0 Z3.0
G0 X27.2651 Y36.9982
G0 Z0.0018
G1 F300.0 Z-1.3982
G1 F800.0 X16.9982
G1 X16.7982 Z-1.6
G1 X8.3982
G1 X8.1982 Z-1.3982
G1 X2.1982
G1 X1.9982 Z-1.6
G1 X-17.0018
G1 X-17.2018 Z-1.3982
G1 X-27.4085
G0 Z3.0
G0 X27.6694 Y36.5982
G0 Z0.0018
G1 F300.0 Z-1.3982
G1 F800.0 X17.3982
G1 X17.1982 Z-1.6
G1 X8.9982
G1 X8.7982 Z-1.3982
G1 X1.1982
G1 X0.9982 Z-1.6
G1 X-17.4018
G1 X-17.6018 Z-1.3982
G1 X-27.8085
G0 Z3.0
G0 X28.0736 Y36.1982
G0 Z0.0018
G1 F300.0 Z-1.3982
G1 F800.0 X17.7982
G1 X17.5982 Z-1.6
G1 X9.5982
G1 X9.3982 Z-1.3982
G1 X0.5982
G1 X0.3982 Z-1.6
G1 X-17.8018
G1 X-18.0018 Z-1.3982
G1 X-28.2085
G0 Z3.0
G0 X28.4778 Y35.7982
G0 Z0.0018
G1 F300.0 Z-1.3982
G1 F800.0 X18.1982
G1 X17.9982 Z-1.6
G1 X9.9982
G1 X9.7982 Z-1.3982
G1 X-0.0018
G1 X-0.2018 Z-1.6
G1 X-18.2018
G1 X-18.4018 Z-1.3982
G1 X-28.6085
G0 Z3.0
G0 X28.882 Y35.3982
G0 Z0.0018
G1 F300.0 Z-1.3982
G1 F800.0 X18.5982
G1 X18.3982 Z-1.6
G1 X10.3982
G1 X10.1982 Z-1.3982
G1 X-0.6018
G1 X-0.8018 Z-1.6
G1 X-18.6018
G1 X-18.8018 Z-1.3982
G1 X-29.0084
G0 Z3.0
G0 X29.2863 Y34.9982
G0 Z0.0018
G1 F300.0 Z-1.3982
G1 F800.0 X18.9982
G1 X18.7982 Z-1.6
G1 X10.7982
G1 X10.5982 Z-1.3982
G1 X-1.4018
G1 X-1.6018 Z-1.6
G1 X-19.0018
G1 X-19.2018 Z-1.3982
G1 X-29.4084
G0 Z3.0
G0 X29.6905 Y34.5982
G0 Z0.0018
G1 F300.0 Z-1.3982
G1 F800.0 X19.3982
G1 X19.1982 Z-1.6
G1 X10.9982
G1 X10.7982 Z-1.3982
G1 X-2.0018
G1 X-2.2018 Z-1.6
G1 X-19.4018
G1 X-19.6018 Z-1.3982
G1 X-29.8084
G0 Z3.0
G0 X30.0947 Y34.1982
G0 Z0.0018
G1 F300.0 Z-1.3982
G1 F800.0 X19.7982
G1 X19.5982 Z-1.6
G1 X11.1982
G1 X10.9982 Z-1.3982
G1 X-2.6018
G1 X-2.8018 Z-1.6
G1 X-19.8018
G1 X-20.0018 Z-1.3982
G1 X-30.2083
G0 Z3.0
G0 X30.4989 Y33.7982
G0 Z0.0018
G1 F300.0 Z-1.3982
G1 F800.0 X30.3982
G1 X20.1982
G1 X19.9982 Z-1.6
G1 X11.3982
G1 X11.1982 Z-1.3982
G1 X-3.0018
G1 X-3.2018 Z-1.6
G1 X-20.0018
G1 X-20.2018 Z-1.3982
G1 X-30.6083
G0 Z3.0
G0 X30.9032 Y33.3982
G0 Z0.0018
G1 F300.0 Z-1.3982
G1 F800.0 X30.7982
G1 X20.5982
G1 X20.3982 Z-1.6
G1 X11.5982
G1 X11.3982 Z-1.3982
G1 X-3.4018
G1 X-3.6018 Z-1.6
G1 X-20.4018
G1 X-20.6018 Z-1.3982
G1 X-31.0083
G0 Z3.0
G0 X31.3074 Y32.9982
G0 Z0.0018
G1 F300.0 Z-1.3982
G1 F800.0 X31.1982
G1 X20.9982
G1 X20.7982 Z-1.6
G1 X11.7982
G1 X11.5982 Z-1.3982
G1 X-3.8018
G1 X-4.0018 Z-1.6
G1 X-10.2018
G1 X-10.4018 Z-1.3982
G1 X-11.0018
G1 X-11.2018 Z-1.6
G1 X-20.8018
G1 X-21.0018 Z-1.3982
G1 X-31.4083
G0 Z3.0
G0 X31.7116 Y32.5982
G0 Z0.0018
G1 F300.0 Z-1.3982
G1 F800.0 X31.5982
G1 X21.3982
G1 X21.1982 Z-1.6
G1 X11.9982
G1 X11.7982 Z-1.3982
G1 X-4.4018
G1 X-4.6018 Z-1.6
G1 X-8.8018
G1 X-9.0018 Z-1.3982
G1 X-11.2018
G1 X-11.4018 Z-1.6
G1 X-21.2018
G1 X-21.4018 Z-1.3982
G1 X-31.8082
G0 Z3.0
G0 X32.1158 Y32.1982
G0 Z0.0018
G1 F300.0 Z-1.3982
G1 F800.0 X31.9982
G1 X21.7982
G1 X21.5982 Z-1.6
G1 X11.9982
G1 X11.7982 Z-1.3982
G1 X-4.8018
G1 X-5.0018 Z-1.6
G1 X-8.0018
G1 X-8.2018 Z-1.3982
G1 X-11.4018
G1 X-11.6018 Z-1.6
G1 X-21.6018
G1 X-21.8018 Z-1.3982
G1 X-32.2082
G0 Z3.0
G0 X32.52 Y31.7982
G0 Z0.0018
G1 F300.0 Z-1.3982
G1 F800.0 X32.3982
G1 X22.1982
G1 X21.9982 Z-1.6
G1 X11.9982
G1 X11.7982 Z-1.3982
G1 X-5.2018
G1 X-5.4018 Z-1.6
G1 X-7.8018
G1 X-8.0018 Z-1.3982
G1 X-11.4018
G1 X-11.6018 Z-1.6
G1 X-22.0018
G1 X-22.2018 Z-1.3982
G1 X-32.6082
G0 Z3.0
G0 X32.9243 Y31.3982
G0 Z0.0018
G1 F300.0 Z-1.3982
G1 F800.0 X32.7982
G1 X22.5982
G1 X22.3982 Z-1.6
G1 X12.1982
G1 X11.9982 Z-1.3982
G1 X-5.8018
G1 X-6.0018 Z-1.6
G1 X-7.4018
G1 X-7.6018 Z-1.3982
G1 X-11.2018
G1 X-11.4018 Z-1.6
G1 X-22.4018
G1 X-22.6018 Z-1.3982
G1 X-33.0082
G0 Z3.0
G0 X33.3285 Y30.9982
G0 Z0.0018
G1 F300.0 Z-1.3982
G1 F800.0 X33.1982
G1 X22.9982
G1 X22.7982 Z-1.6
G1 X12.1982
G1 X11.9982 Z-1.3982
G1 X-6.2018
G1 X-6.4018 Z-1.6
G1 X-7.2018
G1 X-7.4018 Z-1.3982
G1 X-11.0018
G1 X-11.2018 Z-1.6
G1 X-22.8018
G1 X-23.0018 Z-1.3982
G1 X-33.4081
G0 Z3.0
G0 X33.7327 Y30.5982
G0 Z0.0018
G1 F300.0 Z-1.3982
G1 F800.0 X33.5982
G1 X23.3982
G1 X23.1982 Z-1.6
G1 X11.9982
G1 X11.7982 Z-1.3982
G1 X7.5982
G1 X7.3982 Z-1.6
G1 X6.1982
G1 X5.9982 Z-1.3982
G1 X-6.6018
G1 X-6.8018 Z-1.6
G1 X-7.0018
G1 X-7.2018 Z-1.3982
G1 X-10.8018
G1 X-11.0018 Z-1.6
G1 X-23.2018
G1 X-23.4018 Z-1.3982
G1 X-33.8081
G0 Z3.0
G0 X34.1369 Y30.1982
G0 Z0.0018
G1 F300.0 Z-1.3982
G1 F800.0 X33.9982
G1 X23.7982
G1 X23.5982 Z-1.6
G1 X11.9982
G1 X11.7982 Z-1.3982
G1 X8.3982
G1 X8.1982 Z-1.6
G1 X6.9982
G1 X6.7982 Z-1.3982
G1 X-10.6018
G1 X-10.8018 Z-1.6
G1 X-23.6018
G1 X-23.8018 Z-1.3982
G1 X-34.2081
G0 Z3.0
G0 X34.5412 Y29.7982
G0 Z0.0018
G1 F300.0 Z-1.3982
G1 F800.0 X34.3982
G1 X24.1982
G1 X23.9982 Z-1.6
G1 X11.7982
G1 X11.5982 Z-1.3982
G1 X8.3982
G1 X8.1982 Z-1.6
G1 X7.5982
G1 X7.3982 Z-1.3982
G1 X-10.4018
G1 X-10.6018 Z-1.6
G1 X-24.0018
G1 X-24.2018 Z-1.3982
G1 X-34.6081
G0 Z3.0
G0 X34.9454 Y29.3982
G0 Z0.0018
G1 F300.0 Z-1.3982
G1 F800.0 X34.7982
G1 X24.5982
G1 X24.3982 Z-1.6
G1 X11.5982
G1 X11.3982 Z-1.3982
G1 X-15.2018
G1 X-15.4018 Z-1.6
G1 X-24.4018
G1 X-24.6018 Z-1.3982
G1 X-35.008
G0 Z3.0
G0 X35.3496 Y28.9982
G0 Z0.0018
G1 F300.0 Z-1.3982
G1 F800.0 X35.1982
G1 X24.9982
G1 X24.7982 Z-1.6
G1 X11.3982
G1 X11.1982 Z-1.3982
G1 X-16.8018
G1 X-17.0018 Z-1.6
G1 X-24.8018
G1 X-25.0018 Z-1.3982
G1 X-35.408
G0 Z3.0
G0 X35.7538 Y28.5982
G0 Z0.0018
G1 F300.0 Z-1.3982
G1 F800.0 X35.5982
G1 X25.3982
G1 X25.1982 Z-1.6
G1 X10.9982
G1 X10.7982 Z-1.3982
G1 X-18.0018
G1 X-18.2018 Z-1.6
G1 X-25.2018
G1 X-25.4018 Z-1.3982
G1 X-35.808
G0 Z3.0
G0 X36.158 Y28.1982
G0 Z0.0018
G1 F300.0 Z-1.3982
G1 F800.0 X35.9982
G1 X25.7982
G1 X25.5982 Z-1.6
G1 X10.7982
G1 X10.5982 Z-1.3982
G1 X-18.8018
G1 X-19.0018 Z-1.6
G1 X-25.6018
G1 X-25.8018 Z-1.3982
G1 X-36.2079
G0 Z3.0
G0 X36.5623 Y27.7982
G0 Z0.0018
G1 F300.0 Z-1.3982
G1 F800.0 X36.3982
G1 X26.1982
G1 X25.9982 Z-1.6
G1 X10.7982
G1 X10.5982 Z-1.3982
G1 X-19.4018
G1 X-19.6018 Z-1.6
G1 X-26.0018
G1 X-26.2018 Z-1.3982
G1 X-36.6079
G0 Z3.0
G0 X36.9665 Y27.3982
G0 Z0.0018
G1 F300.0 Z-1.3982
G1 F800.0 X36.7982
G1 X26.5982
G1 X26.3982 Z-1.6
G1 X11.1982
G1 X10.9982 Z-1.3982
G1 X-19.8018
G1 X-20.0018 Z-1.6
G1 X-26.4018
G1 X-26.6018 Z-1.3982
G1 X-37.0079
G0 Z3.0
G0 X37.3707 Y26.9982
G0 Z0.0018
G1 F300.0 Z-1.3982
G1 F800.0 X37.1982
G1 X26.9982
G1 X26.7982 Z-1.6
G1 X11.5982
G1 X11.3982 Z-1.3982
G1 X-20.0018
G1 X-20.2018 Z-1.6
G1 X-26.8018
G1 X-27.0018 Z-1.3982
G1 X-37.4079
G0 Z3.0
G0 X37.7749 Y26.5982
G0 Z0.0018
G1 F300.0 Z-1.3982
G1 F800.0 X37.5982
G1 X27.3982
G1 X27.1982 Z-1.6
G1 X11.7982
G1 X11.5982 Z-1.3982
G1 X-20.4018
G1 X-20.6018 Z-1.6
G1 X-27.2018
G1 X-27.4018 Z-1.3982
G1 X-37.8078
G0 Z3.0
G0 X38.1792 Y26.1982
G0 Z0.0018
G1 F300.0 Z-1.3982
G1 F800.0 X37.9982
G1 X27.7982
G1 X27.5982 Z-1.6
G1 X12.1982
G1 X11.9982 Z-1.3982
G1 X-20.6018
G1 X-20.8018 Z-1.6
G1 X-27.6018
G1 X-27.8018 Z-1.3982
G1 X-38.2078
G0 Z3.0
G0 X38.5834 Y25.7982
G0 Z0.0018
G1 F300.0 Z-1.3982
G1 F800.0 X38.3982
G1 X28.1982
G1 X27.9982 Z-1.6
G1 X12.3982
G1 X12.1982 Z-1.3982
G1 X-20.8018
G1 X-21.0018 Z-1.6
G1 X-28.0018
G1 X-28.2018 Z-1.3982
G1 X-38.6078
G0 Z3.0
G0 X38.9876 Y25.3982
G0 Z0.0018
G1 F300.0 Z-1.3982
G1 F800.0 X38.7982
G1 X28.5982
G1 X28.3982 Z-1.6
G1 X12.5982
G1 X12.3982 Z-1.3982
G1 X-20.8018
G1 X-21.0018 Z-1.6
G1 X-28.4018
G1 X-28.6018 Z-1.3982
G1 X-39.0078
G0 Z3.0
G0 X39.3918 Y24.9982
G0 Z0.0018
G1 F300.0 Z-1.3982
G1 F800.0 X39.1982
G1 X28.9982
G1 X28.7982 Z-1.6
G1 X12.5982
G1 X12.3982 Z-1.3982
G1 X-20.8018
G1 X-21.0018 Z-1.6
G1 X-28.8018
G1 X-29.0018 Z-1.3982
G1 X-39.4077
G0 Z3.0
G0 X39.7961 Y24.5982
G0 Z0.0018
G1 F300.0 Z-1.3982
G1 F800.0 X39.5982
G1 X29.3982
G1 X29.1982 Z-1.6
G1 X12.5982
G1 X12.3982 Z-1.3982
G1 X-20.8018
G1 X-21.0018 Z-1.6
G1 X-29.0018
G1 X-29.2018 Z-1.3982
G1 X-39.8077
G0 Z3.0
G0 X40.2003 Y24.1982
G0 Z0.0018
G1 F300.0 Z-1.3982
G1 F800.0 X29.7982
G1 X29.5982 Z-1.6
G1 X12.5982
G1 X12.3982 Z-1.3982
G1 X4.9982
G1 X4.7982 Z-1.6
G1 X4.5982 Z-1.3982
G1 X-20.8018
G1 X-21.0018 Z-1.6
G1 X-28.8018
G1 X-29.0018 Z-1.3982
G1 X-40.2077
G0 Z3.0
G0 X40.6045 Y23.7982
G0 Z0.0018
G1 F300.0 Z-1.3982
G1 F800.0 X30.1982
G1 X29.9982 Z-1.6
G1 X12.5982
G1 X12.3982 Z-1.3982
G1 X6.3982
G1 X6.1982 Z-1.6
G1 X2.7982
G1 X2.5982 Z-1.3982
G1 X-20.6018
G1 X-20.8018 Z-1.6
G1 X-27.4018
G1 X-27.6018 Z-1.3982
G1 X-40.6076
G0 Z3.0
G0 X41.0087 Y23.3982
G0 Z0.0018
G1 F300.0 Z-1.3982
G1 F800.0 X30.5982
G1 X30.3982 Z-1.6
G1 X12.5982
G1 X12.3982 Z-1.3982
G1 X7.3982
G1 X7.1982 Z-1.6
G1 X3.3982
G1 X3.1982 Z-1.3982
G1 X-20.4018
G1 X-20.6018 Z-1.6
G1 X-26.2018
G1 X-26.4018 Z-1.3982
G1 X-41.0076
G0 Z3.0
G0 X41.4129 Y22.9982
G0 Z0.0018
G1 F300.0 Z-1.3982
G1 F800.0 X30.9982
G1 X30.7982 Z-1.6
G1 X12.5982
G1 X12.3982 Z-1.3982
G1 X7.9982
G1 X7.7982 Z-1.6
G1 X3.5982
G1 X3.3982 Z-1.3982
G1 X-20.4018
G1 X-20.6018 Z-1.6
G1 X-25.2018
G1 X-25.4018 Z-1.3982
G1 X-41.4076
G0 Z3.0
G0 X41.8172 Y22.5982
G0 Z0.0018
G1 F300.0 Z-1.3982
G1 F800.0 X31.3982
G1 X31.1982 Z-1.6
G1 X12.5982
G1 X12.3982 Z-1.3982
G1 X8.5982
G1 X8.3982 Z-1.6
G1 X3.7982
G1 X3.5982 Z-1.3982
G1 X-20.6018
G1 X-20.8018 Z-1.6
G1 X-24.8018
G1 X-25.0018 Z-1.3982
G1 X-41.8076
G0 Z3.0
G0 X42.2214 Y22.1982
G0 Z0.0018
G1 F300.0 Z-1.3982
G1 F800.0 X31.7982
G1 X31.5982 Z-1.6
G1 X12.5982
G1 X12.3982 Z-1.3982
G1 X8.7982
G1 X8.5982 Z-1.6
G1 X3.7982
G1 X3.5982 Z-1.3982
G1 X-20.6018
G1 X-20.8018 Z-1.6
G1 X-24.2018
G1 X-24.4018 Z-1.3982
G1 X-42.2075
G0 Z3.0
G0 X42.6256 Y21.7982
G0 Z0.0018
G1 F300.0 Z-1.3982
G1 F800.0 X32.1982
G1 X31.9982 Z-1.6
G1 X12.3982
G1 X12.1982 Z-1.3982
G1 X9.1982
G1 X8.9982 Z-1.6
G1 X3.5982
G1 X3.3982 Z-1.3982
G1 X-20.6018
G1 X-20.8018 Z-1.6
G1 X-23.6018
G1 X-23.8018 Z-1.3982
G1 X-42.6075
G0 Z3.0
G0 X43.0298 Y21.3982
G0 Z0.0018
G1 F300.0 Z-1.3982
G1 F800.0 X32.5982
G1 X32.3982 Z-1.6
G1 X12.1982
G1 X11.9982 Z-1.3982
G1 X9.1982
G1 X8.9982 Z-1.6
G1 X3.3982
G1 X3.1982 Z-1.3982
G1 X-20.6018
G1 X-20.8018 Z-1.6
G1 X-23.0018
G1 X-23.2018 Z-1.3982
G1 X-43.0075
G0 Z3.0
G0 X43.4341 Y20.9982
G0 Z0.0018
G1 F300.0 Z-1.3982
G1 F800.0 X32.9982
G1 X32.7982 Z-1.6
G1 X11.9982
G1 X11.7982 Z-1.3982
G1 X9.1982
G1 X8.9982 Z-1.6
G1 X4.3982
G1 X4.1982 Z-1.3982
G1 X-20.4018
G1 X-20.6018 Z-1.6
G1 X-22.4018
G1 X-22.6018 Z-1.3982
G1 X-43.4075
G0 Z3.0
G0 X43.8383 Y20.5982
G0 Z0.0018
G1 F300.0 Z-1.3982
G1 F800.0 X33.3982
G1 X33.1982 Z-1.6
G1 X11.7982
G1 X11.5982 Z-1.3982
G1 X9.1982
G1 X8.9982 Z-1.6
G1 X4.5982
G1 X4.3982 Z-1.3982
G1 X-20.2018
G1 X-20.4018 Z-1.6
G1 X-21.8018
G1 X-22.0018 Z-1.3982
G1 X-43.8074
G0 Z3.0
G0 X44.2425 Y20.1982
G0 Z0.0018
G1 F300.0 Z-1.3982
G1 F800.0 X33.7982
G1 X33.5982 Z-1.6
G1 X11.5982
G1 X11.3982 Z-1.3982
G1 X9.1982
G1 X8.9982 Z-1.6
G1 X4.7982
G1 X4.5982 Z-1.3982
G1 X-13.8018
G1 X-14.0018 Z-1.6
G1 X-16.6018
G1 X-16.8018 Z-1.3982
G1 X-20.0018
G1 X-20.2018 Z-1.6
G1 X-21.0018
G1 X-21.2018 Z-1.3982
G1 X-44.2074
G0 Z3.0
G0 X44.6467 Y19.7982
G0 Z0.0018
G1 F300.0 Z-1.3982
G1 F800.0 X34.1982
G1 X33.9982 Z-1.6
G1 X11.3982
G1 X11.1982 Z-1.3982
G1 X9.1982
G1 X8.9982 Z-1.6
G1 X4.7982
G1 X4.5982 Z-1.3982
G1 X-12.8018
G1 X-13.0018 Z-1.6
G1 X-20.4018
G1 X-20.6018 Z-1.3982
G1 X-33.4018
G1 X-33.6018 Z-1.6
G1 X-33.8018
G1 X-34.0018 Z-1.3982
G1 X-44.6074
G0 Z3.0
G0 X45.051 Y19.3982
G0 Z0.0018
G1 F300.0 Z-1.3982
G1 F800.0 X34.5982
G1 X34.3982 Z-1.6
G1 X10.9982
G1 X10.7982 Z-1.3982
G1 X9.1982
G1 X8.9982 Z-1.6
G1 X4.5982
G1 X4.3982 Z-1.3982
G1 X-11.8018
G1 X-12.0018 Z-1.6
G1 X-19.8018
G1 X-20.0018 Z-1.3982
G1 X-33.2018
G1 X-33.4018 Z-1.6
G1 X-34.4018
G1 X-34.6018 Z-1.3982
G1 X-45.0073
G0 Z3.0
G0 X45.432 Y18.9982
G0 Z0.0018
G1 F300.0 Z-1.3982
G1 F800.0 X34.9982
G1 X34.7982 Z-1.6
G1 X10.7982
G1 X10.5982 Z-1.3982
G1 X9.3982
G1 X9.1982 Z-1.6
G1 X4.7982
G1 X4.5982 Z-1.3982
G1 X-12.8018
G1 X-13.0018 Z-1.6
G1 X-19.2018
G1 X-19.4018 Z-1.3982
G1 X-32.6018
G1 X-32.8018 Z-1.6
G1 X-34.8018
G1 X-35.0018 Z-1.3982
G1 X-45.4006
G0 Z3.0
G0 X45.5018 Y18.5982
G0 Z0.0018
G1 F300.0 Z-1.3982
G1 F800.0 X45.3982
G1 X35.3982
G1 X35.1982 Z-1.6
G1 X10.3982
G1 X10.1982 Z-1.3982
G1 X9.5982
G1 X9.3982 Z-1.6
G1 X4.9982
G1 X4.7982 Z-1.3982
G1 X-14.0018
G1 X-14.2018 Z-1.6
G1 X-18.4018
G1 X-18.6018 Z-1.3982
G1 X-31.2018
G1 X-31.4018 Z-1.6
G1 X-35.2018
G1 X-35.4018 Z-1.3982
G1 X-45.5018
G0 Z3.0
G0 X45.5018 Y18.1982
G0 Z0.0018
G1 F300.0 Z-1.3982
G1 F800.0 X45.3982
G1 X35.7982
G1 X35.5982 Z-1.6
G1 X5.1982
G1 X4.9982 Z-1.3982
G1 X-15.0018
G1 X-15.2018 Z-1.6
G1 X-17.8018
G1 X-18.0018 Z-1.3982
G1 X-29.0018
G1 X-29.2018 Z-1.6
G1 X-35.6018
G1 X-35.8018 Z-1.3982
G1 X-45.5018
G0 Z3.0
G0 X45.5018 Y17.7982
G0 Z0.0018
G1 F300.0 Z-1.3982
G1 F800.0 X45.3982
G1 X36.1982
G1 X35.9982 Z-1.6
G1 X5.1982
G1 X4.9982 Z-1.3982
G1 X-15.6018
G1 X-15.8018 Z-1.6
G1 X-17.2018
G1 X-17.4018 Z-1.3982
G1 X-27.6018
G1 X-27.8018 Z-1.6
G1 X-36.0018
G1 X-36.2018 Z-1.3982
G1 X-45.5018
G0 Z3.0
G0 X45.5018 Y17.3982
G0 Z0.0018
G1 F300.0 Z-1.3982
G1 F800.0 X45.3982
G1 X36.5982
G1 X36.3982 Z-1.6
G1 X4.9982
G1 X4.7982 Z-1.3982
G1 X-15.8018
G1 X-16.0018 Z-1.6
G1 X-16.4018
G1 X-16.6018 Z-1.3982
G1 X-26.8018
G1 X-27.0018 Z-1.6
G1 X-36.4018
G1 X-36.6018 Z-1.3982
G1 X-45.5018
G0 Z3.0
G0 X45.5018 Y16.9982
G0 Z0.0018
G1 F300.0 Z-1.3982
G1 F800.0 X45.3982
G1 X36.9982
G1 X36.7982 Z-1.6
G1 X4.7982
G1 X4.5982 Z-1.3982
G1 X-26.2018
G1 X-26.4018 Z-1.6
G1 X-36.8018
G1 X-37.0018 Z-1.3982
G1 X-45.5018
G0 Z3.0
G0 X45.5018 Y16.5982
G0 Z0.0018
G1 F300.0 Z-1.3982
G1 F800.0 X45.3982
G1 X37.3982
G1 X37.1982 Z-1.6
G1 X4.5982
G1 X4.3982 Z-1.3982
G1 X-25.6018
G1 X-25.8018 Z-1.6
G1 X-37.2018
G1 X-37.4018 Z-1.3982
G1 X-40.8018
G1 X-41.0018 Z-1.6
G1 X-41.2018 Z-1.3982
G1 X-45.5018
G0 Z3.0
G0 X45.5018 Y16.1982
G0 Z0.0018
G1 F300.0 Z-1.3982
G1 F800.0 X45.3982
G1 X37.7982
G1 X37.5982 Z-1.6
G1 X3.9982
G1 X3.7982 Z-1.3982
G1 X-24.8018
G1 X-25.0018 Z-1.6
G1 X-37.8018
G1 X-38.0018 Z-1.3982
G1 X-40.8018
G1 X-41.0018 Z-1.6
G1 X-41.2018 Z-1.3982
G1 X-45.5018
G0 Z3.0
G0 X45.5018 Y15.7982
G0 Z0.0018
G1 F300.0 Z-1.3982
G1 F800.0 X45.3982
G1 X38.1982
G1 X37.9982 Z-1.6
G1 X4.7982
G1 X4.5982 Z-1.3982
G1 X-24.2018
G1 X-24.4018 Z-1.6
G1 X-38.2018
G1 X-38.4018 Z-1.3982
G1 X-40.8018
G1 X-41.0018 Z-1.6
G1 X-41.2018 Z-1.3982
G1 X-45.5018
G0 Z3.0
G0 X45.5018 Y15.3982
G0 Z0.0018
G1 F300.0 Z-1.3982
G1 F800.0 X45.3982
G1 X38.3982
G1 X38.1982 Z-1.6
G1 X5.5982
G1 X5.3982 Z-1.3982
G1 X-23.6018
G1 X-23.8018 Z-1.6
G1 X-38.2018
G1 X-38.4018 Z-1.3982
G1 X-40.8018
G1 X-41.0018 Z-1.6
G1 X-41.2018 Z-1.3982
G1 X-45.5018
G0 Z3.0
G0 X45.5018 Y14.9982
G0 Z0.0018
G1 F300.0 Z-1.3982
G1 F800.0 X45.3982
G1 X38.3982
G1 X38.1982 Z-1.6
G1 X5.7982
G1 X5.5982 Z-1.3982
G1 X-23.0018
G1 X-23.2018 Z-1.6
G1 X-38.2018
G1 X-38.4018 Z-1.3982
G1 X-40.8018
G1 X-41.0018 Z-1.6
G1 X-41.2018 Z-1.3982
G1 X-45.5018
G0 Z3.0
G0 X45.5018 Y14.5982
G0 Z0.0018
G1 F300.0 Z-1.3982
G1 F800.0 X45.3982
G1 X38.3982
G1 X38.1982 Z-1.6
G1 X5.9982
G1 X5.7982 Z-1.3982
G1 X-22.2018
G1 X-22.4018 Z-1.6
G1 X-38.2018
G1 X-38.4018 Z-1.3982
G1 X-40.8018
G1 X-41.0018 Z-1.6
G1 X-41.2018 Z-1.3982
G1 X-45.5018
G0 Z3.0
G0 X45.5018 Y14.1982
G0 Z0.0018
G1 F300.0 Z-1.3982
G1 F800.0 X45.3982
G1 X38.3982
G1 X38.1982 Z-1.6
G1 X5.9982
G1 X5.7982 Z-1.3982
G1 X-21.6018
G1 X-21.8018 Z-1.6
G1 X-38.2018
G1 X-38.4018 Z-1.3982
G1 X-40.8018
G1 X-41.0018 Z-1.6
G1 X-41.2018 Z-1.3982
G1 X-45.5018
G0 Z3.0
G0 X45.5018 Y13.7982
G0 Z0.0018
G1 F300.0 Z-1.3982
G1 F800.0 X45.3982
G1 X38.3982
G1 X38.1982 Z-1.6
G1 X35.9982
G1 X35.7982 Z-1.3964
G1 X30.1982
G1 X29.9982 Z-1.6
G1 X27.7982
G1 X27.5982 Z-1.3964
G1 X25.3982
G1 X25.1982 Z-1.6
G1 X20.1982
G1 X19.9982 Z-1.3964
G1 X16.9982
G1 X16.7982 Z-1.6
G1 X12.1982
G1 X11.9982 Z-1.3964
G1 X8.7982
G1 X8.5982 Z-1.6
G1 X5.7982
G1 X5.5982 Z-1.3982
G1 X-21.0018
G1 X-21.2018 Z-1.6
G1 X-38.2018
G1 X-38.4018 Z-1.3982
G1 X-40.8018
G1 X-41.0018 Z-1.6
G1 X-41.2018 Z-1.3982
G1 X-45.5018
G0 Z3.0
G0 X45.5018 Y13.3982
G0 Z0.0018
G1 F300.0 Z-1.3982
G1 F800.0 X45.3982
G1 X38.3982
G1 X38.1982 Z-1.6
G1 X36.1982
G1 X35.9982 Z-1.3964
G1 X29.9982
G1 X29.7982 Z-1.6
G1 X27.9982
G1 X27.7982 Z-1.3964
G1 X25.1982
G1 X24.9982 Z-1.6
G1 X20.7982
G1 X20.5982 Z-1.3964
G1 X16.3982
G1 X16.1982 Z-1.6
G1 X12.9982
G1 X12.7982 Z-1.3964
G1 X8.1982
G1 X7.9982 Z-1.6
G1 X5.5982
G1 X5.3982 Z-1.3982
G1 X-23.8018
G1 X-24.0018 Z-1.6
G1 X-38.2018
G1 X-38.4018 Z-1.3982
G1 X-40.8018
G1 X-41.0018 Z-1.6
G1 X-41.2018 Z-1.3982
G1 X-45.5018
G0 Z3.0
G0 X45.5018 Y12.9982
G0 Z0.0018
G1 F300.0 Z-1.3982
G1 F800.0 X45.3982
G1 X38.3982
G1 X38.1982 Z-1.6
G1 X36.3982
G1 X36.1982 Z-1.3964
G1 X29.7982
G1 X29.5982 Z-1.6
G1 X28.1982
G1 X27.9982 Z-1.3964
G1 X24.7982
G1 X24.5982 Z-1.6
G1 X21.1982
G1 X20.9982 Z-1.3964
G1 X15.9982
G1 X15.7982 Z-1.6
G1 X13.3982
G1 X13.1982 Z-1.3964
G1 X7.7982
G1 X7.5982 Z-1.6
G1 X4.3982
G1 X4.1982 Z-1.3982
G1 X-24.2018
G1 X-24.4018 Z-1.6
G1 X-38.2018
G1 X-38.4018 Z-1.3982
G1 X-40.8018
G1 X-41.0018 Z-1.6
G1 X-41.2018 Z-1.3982
G1 X-45.5018
G0 Z3.0
G0 X45.5018 Y12.5982
G0 Z0.0018
G1 F300.0 Z-1.3982
G1 F800.0 X45.3982
G1 X38.3982
G1 X38.1982 Z-1.6
G1 X36.3982
G1 X36.1982 Z-1.3964
G1 X29.7982
G1 X29.5982 Z-1.6
G1 X28.1982
G1 X27.9982 Z-1.3964
G1 X24.1982
G1 X23.9982 Z-1.6
G1 X21.3982
G1 X21.1982 Z-1.3964
G1 X15.7982
G1 X15.5982 Z-1.6
G1 X13.5982
G1 X13.3982 Z-1.3964
G1 X7.5982
G1 X7.3982 Z-1.6
G1 X4.9982
G1 X4.7982 Z-1.3982
G1 X-24.4018
G1 X-24.6018 Z-1.6
G1 X-38.2018
G1 X-38.4018 Z-1.3982
G1 X-40.8018
G1 X-41.0018 Z-1.6
G1 X-41.2018 Z-1.3982
G1 X-45.5018
G0 Z3.0
G0 X45.5018 Y12.1982
G0 Z0.0018
G1 F300.0 Z-1.3982
G1 F800.0 X45.3982
G1 X38.3982
G1 X38.1982 Z-1.6
G1 X36.3982
G1 X36.1982 Z-1.3964
G1 X29.7982
G1 X29.5982 Z-1.6
G1 X28.1982
G1 X27.9982 Z-1.3964
G1 X23.3982
G1 X23.1982 Z-1.6
G1 X21.5982
G1 X21.3982 Z-1.3964
G1 X15.5982
G1 X15.3982 Z-1.6
G1 X13.7982
G1 X13.5982 Z-1.3964
G1 X7.3982
G1 X7.1982 Z-1.6
G1 X5.5982
G1 X5.3982 Z-1.3982
G1 X-24.6018
G1 X-24.8018 Z-1.6
G1 X-38.2018
G1 X-38.4018 Z-1.3982
G1 X-40.8018
G1 X-41.0018 Z-1.6
G1 X-41.2018 Z-1.3982
G1 X-45.5018
G0 Z3.0
G0 X45.5018 Y11.7982
G0 Z0.0018
G1 F300.0 Z-1.3982
G1 F800.0 X45.3982
G1 X38.3982
G1 X38.1982 Z-1.6
G1 X36.3982
G1 X36.1982 Z-1.3964
G1 X29.5982
G1 X29.3982 Z-1.6
G1 X28.1982
G1 X27.9982 Z-1.3964
G1 X22.9982
G1 X22.7982 Z-1.6
G1 X21.7982
G1 X21.5982 Z-1.3964
G1 X15.3982
G1 X15.1982 Z-1.6
G1 X13.9982
G1 X13.7982 Z-1.3964
G1 X7.1982
G1 X6.9982 Z-1.6
G1 X5.9982
G1 X5.7982 Z-1.3982
G1 X-24.8018
G1 X-25.0018 Z-1.6
G1 X-38.2018
G1 X-38.4018 Z-1.3982
G1 X-40.8018
G1 X-41.0018 Z-1.6
G1 X-41.2018 Z-1.3982
G1 X-45.5018
G0 Z3.0
G0 X45.5018 Y11.3982
G0 Z0.0018
G1 F300.0 Z-1.3982
G1 F800.0 X45.3982
G1 X38.3982
G1 X38.1982 Z-1.6
G1 X36.3982
G1 X36.1982 Z-1.3964
G1 X29.5982
G1 X29.3982 Z-1.6
G1 X28.1982
G1 X27.9982 Z-1.3964
G1 X22.7982
G1 X22.5982 Z-1.6
G1 X21.9982
G1 X21.7982 Z-1.3964
G1 X15.1982
G1 X14.9982 Z-1.6
G1 X13.9982
G1 X13.7982 Z-1.3964
G1 X6.9982
G1 X6.7982 Z-1.6
G1 X6.1982
G1 X5.9982 Z-1.3982
G1 X-25.0018
G1 X-25.2018 Z-1.6
G1 X-38.2018
G1 X-38.4018 Z-1.3982
G1 X-40.8018
G1 X-41.0018 Z-1.6
G1 X-41.2018 Z-1.3982
G1 X-45.5018
G0 Z3.0
G0 X45.5018 Y10.9982
G0 Z0.0018
G1 F300.0 Z-1.3982
G1 F800.0 X45.3982
G1 X38.3982
G1 X38.1982 Z-1.6
G1 X36.1982
G1 X35.9982 Z-1.3964
G1 X29.5982
G1 X29.3982 Z-1.6
G1 X28.1982
G1 X27.9982 Z-1.3964
G1 X22.5982
G1 X22.3982 Z-1.6
G1 X21.9982
G1 X21.7982 Z-1.3964
G1 X14.9982
G1 X14.7982 Z-1.6
G1 X14.1982
G1 X13.9982 Z-1.3964
G1 X6.9982
G1 X6.7982 Z-1.6
G1 X6.3982
G1 X6.1982 Z-1.3982
G1 X-25.2018
G1 X-25.4018 Z-1.6
G1 X-38.2018
G1 X-38.4018 Z-1.3982
G1 X-40.8018
G1 X-41.0018 Z-1.6
G1 X-41.2018 Z-1.3982
G1 X-45.5018
G0 Z3.0
G0 X45.5018 Y10.5982
G0 Z0.0018
G1 F300.0 Z-1.3982
G1 F800.0 X45.3982
G1 X38.3982
G1 X38.1982 Z-1.6
G1 X35.9982
G1 X35.7982 Z-1.3964
G1 X29.3982
G1 X29.1982 Z-1.6
G1 X28.1982
G1 X27.9982 Z-1.3964
G1 X22.5982
G1 X22.3982 Z-1.6
G1 X22.1982
G1 X21.9982 Z-1.3964
G1 X18.5982
G1 X18.3982 Z-1.6
G1 X18.1982 Z-1.3964
G1 X14.9982
G1 X14.7982 Z-1.6
G1 X14.1982
G1 X13.9982 Z-1.3964
G1 X6.9982
G1 X6.7982 Z-1.6
G1 X6.1982
G1 X5.9982 Z-1.3982
G1 X-25.4018
G1 X-25.6018 Z-1.6
G1 X-38.2018
G1 X-38.4018 Z-1.3982
G1 X-40.8018
G1 X-41.0018 Z-1.6
G1 X-41.2018 Z-1.3982
G1 X-45.5018
G0 Z3.0
G0 X45.5018 Y10.1982
G0 Z0.0018
G1 F300.0 Z-1.3982
G1 F800.0 X45.3982
G1 X38.3982
G1 X38.1982 Z-1.6
G1 X35.9982
G1 X35.7982 Z-1.3964
G1 X29.3982
G1 X29.1982 Z-1.6
G1 X28.1982
G1 X27.9982 Z-1.3964
G1 X22.5982
G1 X22.3982 Z-1.6
G1 X22.1982
G1 X21.9982 Z-1.3964
G1 X18.9982
G1 X18.7982 Z-1.6
G1 X18.1982
G1 X17.9982 Z-1.3964
G1 X14.9982
G1 X14.7982 Z-1.6
G1 X13.9982
G1 X13.7982 Z-1.3964
G1 X7.1982
G1 X6.9982 Z-1.6
G1 X5.9982
G1 X5.7982 Z-1.3982
G1 X-25.6018
G1 X-25.8018 Z-1.6
G1 X-38.2018
G1 X-38.4018 Z-1.3982
G1 X-40.8018
G1 X-41.0018 Z-1.6
G1 X-41.2018 Z-1.3982
G1 X-45.5018
G0 Z3.0
G0 X45.5018 Y9.7982
G0 Z0.0018
G1 F300.0 Z-1.3982
G1 F800.0 X45.3982
G1 X38.3982
G1 X38.1982 Z-1.6
G1 X36.1982
G1 X35.9982 Z-1.3964
G1 X29.3982
G1 X29.1982 Z-1.6
G1 X28.1982
G1 X27.9982 Z-1.3964
G1 X22.5982
G1 X22.3982 Z-1.6
G1 X22.1982
G1 X21.9982 Z-1.3964
G1 X18.9982
G1 X18.7982 Z-1.6
G1 X18.1982
G1 X17.9982 Z-1.3964
G1 X14.9982
G1 X14.7982 Z-1.6
G1 X13.9982
G1 X13.7982 Z-1.3964
G1 X7.3982
G1 X7.1982 Z-1.6
G1 X5.5982
G1 X5.3982 Z-1.3982
G1 X-26.0018
G1 X-26.2018 Z-1.6
G1 X-38.2018
G1 X-38.4018 Z-1.3982
G1 X-40.8018
G1 X-41.0018 Z-1.6
G1 X-41.2018 Z-1.3982
G1 X-45.5018
G0 Z3.0
G0 X45.5018 Y9.3982
G0 Z0.0018
G1 F300.0 Z-1.3982
G1 F800.0 X45.3982
G1 X38.3982
G1 X38.1982 Z-1.6
G1 X36.3982
G1 X36.1982 Z-1.3964
G1 X29.1982
G1 X28.9982 Z-1.6
G1 X28.1982
G1 X27.9982 Z-1.3964
G1 X22.5982
G1 X22.3982 Z-1.6
G1 X22.1982
G1 X21.9982 Z-1.3964
G1 X18.9982
G1 X18.7982 Z-1.6
G1 X18.1982
G1 X17.9982 Z-1.3964
G1 X14.9982
G1 X14.7982 Z-1.6
G1 X13.7982
G1 X13.5982 Z-1.3964
G1 X8.9982
G1 X8.7982 Z-1.6
G1 X3.5982
G1 X3.3982 Z-1.3982
G1 X-26.2018
G1 X-26.4018 Z-1.6
G1 X-38.2018
G1 X-38.4018 Z-1.3982
G1 X-40.8018
G1 X-41.0018 Z-1.6
G1 X-41.2018 Z-1.3982
G1 X-45.5018
G0 Z3.0
G0 X45.5018 Y8.9982
G0 Z0.0018
G1 F300.0 Z-1.3982
G1 F800.0 X45.3982
G1 X38.3982
G1 X38.1982 Z-1.6
G1 X36.5982
G1 X36.3982 Z-1.3964
G1 X29.1982
G1 X28.9982 Z-1.6
G1 X28.1982
G1 X27.9982 Z-1.3964
G1 X22.7982
G1 X22.5982 Z-1.6
G1 X22.1982
G1 X21.9982 Z-1.3964
G1 X18.9982
G1 X18.7982 Z-1.6
G1 X18.1982
G1 X17.9982 Z-1.3964
G1 X14.9982
G1 X14.7982 Z-1.6
G1 X13.5982
G1 X13.3982 Z-1.3964
G1 X8.5982
G1 X8.3982 Z-1.6
G1 X3.5982
G1 X3.3982 Z-1.3982
G1 X-26.4018
G1 X-26.6018 Z-1.6
G1 X-38.2018
G1 X-38.4018 Z-1.3982
G1 X-40.8018
G1 X-41.0018 Z-1.6
G1 X-41.2018 Z-1.3982
G1 X-45.5018
G0 Z3.0
G0 X45.5018 Y8.5982
G0 Z0.0018
G1 F300.0 Z-1.3982
G1 F800.0 X45.3982
G1 X38.3982
G1 X38.1982 Z-1.6
G1 X36.5982
G1 X36.3982 Z-1.3964
G1 X29.3982
G1 X29.1982 Z-1.6
G1 X28.1982
G1 X27.9982 Z-1.3964
G1 X24.7982
G1 X24.5982 Z-1.6
G1 X24.1982
G1 X23.9982 Z-1.3964
G1 X22.9982
G1 X22.7982 Z-1.6
G1 X22.1982
G1 X21.9982 Z-1.3964
G1 X18.9982
G1 X18.7982 Z-1.6
G1 X18.1982
G1 X17.9982 Z-1.3964
G1 X14.9982
G1 X14.7982 Z-1.6
G1 X13.3982
G1 X13.1982 Z-1.3964
G1 X8.1982
G1 X7.9982 Z-1.6
G1 X3.3982
G1 X3.1982 Z-1.3982
G1 X-26.4018
G1 X-26.6018 Z-1.6
G1 X-38.2018
G1 X-38.4018 Z-1.3982
G1 X-40.8018
G1 X-41.0018 Z-1.6
G1 X-41.2018 Z-1.3982
G1 X-45.5018
G0 Z3.0
G0 X45.5018 Y8.1982
G0 Z0.0018
G1 F300.0 Z-1.3982
G1 F800.0 X45.3982
G1 X38.3982
G1 X38.1982 Z-1.6
G1 X36.5982
G1 X36.3982 Z-1.3964
G1 X32.9982
G1 X32.7982 Z-1.6
G1 X32.5982 Z-1.3964
G1 X29.3982
G1 X29.1982 Z-1.6
G1 X28.1982
G1 X27.9982 Z-1.3964
G1 X24.7982
G1 X24.5982 Z-1.6
G1 X22.1982
G1 X21.9982 Z-1.3964
G1 X18.7982
G1 X18.5982 Z-1.6
G1 X18.1982
G1 X17.9982 Z-1.3964
G1 X14.9982
G1 X14.7982 Z-1.6
G1 X12.9982
G1 X12.7982 Z-1.3964
G1 X7.7982
G1 X7.5982 Z-1.6
G1 X3.3982
G1 X3.1982 Z-1.3982
G1 X-26.6018
G1 X-26.8018 Z-1.6
G1 X-38.2018
G1 X-38.4018 Z-1.3982
G1 X-40.8018
G1 X-41.0018 Z-1.6
G1 X-41.2018 Z-1.3982
G1 X-45.5018
G0 Z3.0
G0 X45.5018 Y7.7982
G0 Z0.0018
G1 F300.0 Z-1.3982
G1 F800.0 X45.3982
G1 X38.3982
G1 X38.1982 Z-1.6
G1 X36.5982
G1 X36.3982 Z-1.3964
G1 X33.1982
G1 X32.9982 Z-1.6
G1 X32.5982
G1 X32.3982 Z-1.3964
G1 X29.1982
G1 X28.9982 Z-1.6
G1 X28.1982
G1 X27.9982 Z-1.3964
G1 X24.7982
G1 X24.5982 Z-1.6
G1 X22.1982
G1 X21.9982 Z-1.3964
G1 X14.9982
G1 X14.7982 Z-1.6
G1 X13.7982
G1 X13.5982 Z-1.3964
G1 X7.5982
G1 X7.3982 Z-1.6
G1 X3.1982
G1 X2.9982 Z-1.3982
G1 X-26.8018
G1 X-27.0018 Z-1.6
G1 X-38.2018
G1 X-38.4018 Z-1.3982
G1 X-40.8018
G1 X-41.0018 Z-1.6
G1 X-41.2018 Z-1.3982
G1 X-45.5018
G0 Z3.0
G0 X45.5018 Y7.3982
G0 Z0.0018
G1 F300.0 Z-1.3982
G1 F800.0 X45.3982
G1 X38.3982
G1 X38.1982 Z-1.6
G1 X36.5982
G1 X36.3982 Z-1.3964
G1 X28.9982
G1 X28.7982 Z-1.6
G1 X28.1982
G1 X27.9982 Z-1.3964
G1 X24.7982
G1 X24.5982 Z-1.6
G1 X21.9982
G1 X21.7982 Z-1.3964
G1 X14.9982
G1 X14.7982 Z-1.6
G1 X13.9982
G1 X13.7982 Z-1.3964
G1 X7.3982
G1 X7.1982 Z-1.6
G1 X3.1982
G1 X2.9982 Z-1.3982
G1 X-19.6018
G1 X-19.8018 Z-1.6
G1 X-21.0018
G1 X-21.2018 Z-1.3982
G1 X-27.0018
G1 X-27.2018 Z-1.6
G1 X-38.2018
G1 X-38.4018 Z-1.3982
G1 X-40.8018
G1 X-41.0018 Z-1.6
G1 X-41.2018 Z-1.3982
G1 X-45.5018
G0 Z3.0
G0 X45.5018 Y6.9982
G0 Z0.0018
G1 F300.0 Z-1.3982
G1 F800.0 X45.3982
G1 X38.3982
G1 X38.1982 Z-1.6
G1 X36.5982
G1 X36.3982 Z-1.3964
G1 X28.9982
G1 X28.7982 Z-1.6
G1 X28.1982
G1 X27.9982 Z-1.3964
G1 X24.7982
G1 X24.5982 Z-1.6
G1 X21.9982
G1 X21.7982 Z-1.3964
G1 X15.1982
G1 X14.9982 Z-1.6
G1 X14.1982
G1 X13.9982 Z-1.3964
G1 X7.1982
G1 X6.9982 Z-1.6
G1 X2.9982
G1 X2.7982 Z-1.3982
G1 X-18.8018
G1 X-19.0018 Z-1.6
G1 X-21.4018
G1 X-21.6018 Z-1.3982
G1 X-27.0018
G1 X-27.2018 Z-1.6
G1 X-38.2018
G1 X-38.4018 Z-1.3982
G1 X-40.8018
G1 X-41.0018 Z-1.6
G1 X-41.2018 Z-1.3982
G1 X-45.5018
G0 Z3.0
G0 X45.5018 Y6.5982
G0 Z0.0018
G1 F300.0 Z-1.3982
G1 F800.0 X45.3982
G1 X38.3982
G1 X38.1982 Z-1.6
G1 X36.3982
G1 X36.1982 Z-1.3964
G1 X29.1982
G1 X28.9982 Z-1.6
G1 X28.1982
G1 X27.9982 Z-1.3964
G1 X24.7982
G1 X24.5982 Z-1.6
G1 X21.7982
G1 X21.5982 Z-1.3964
G1 X15.3982
G1 X15.1982 Z-1.6
G1 X14.1982
G1 X13.9982 Z-1.3964
G1 X6.9982
G1 X6.7982 Z-1.6
G1 X2.9982
G1 X2.7982 Z-1.3982
G1 X-18.4018
G1 X-18.6018 Z-1.6
G1 X-21.8018
G1 X-22.0018 Z-1.3982
G1 X-27.2018
G1 X-27.4018 Z-1.6
G1 X-38.2018
G1 X-38.4018 Z-1.3982
G1 X-40.8018
G1 X-41.0018 Z-1.6
G1 X-41.2018 Z-1.3982
G1 X-45.5018
G0 Z3.0
G0 X45.5018 Y6.1982
G0 Z0.0018
G1 F300.0 Z-1.3982
G1 F800.0 X45.3982
G1 X38.3982
G1 X38.1982 Z-1.6
G1 X36.1982
G1 X35.9982 Z-1.3964
G1 X29.3982
G1 X29.1982 Z-1.6
G1 X28.1982
G1 X27.9982 Z-1.3964
G1 X24.7982
G1 X24.5982 Z-1.6
G1 X21.5982
G1 X21.3982 Z-1.3964
G1 X15.5982
G1 X15.3982 Z-1.6
G1 X14.1982
G1 X13.9982 Z-1.3964
G1 X6.7982
G1 X6.5982 Z-1.6
G1 X2.7982
G1 X2.5982 Z-1.3982
G1 X-17.8018
G1 X-18.0018 Z-1.6
G1 X-21.8018
G1 X-22.0018 Z-1.3982
G1 X-27.2018
G1 X-27.4018 Z-1.6
G1 X-38.2018
G1 X-38.4018 Z-1.3982
G1 X-40.8018
G1 X-41.0018 Z-1.6
G1 X-41.2018 Z-1.3982
G1 X-45.5018
G0 Z3.0
G0 X45.5018 Y5.7982
G0 Z0.0018
G1 F300.0 Z-1.3982
G1 F800.0 X45.3982
G1 X38.3982
G1 X38.1982 Z-1.6
G1 X35.9982
G1 X35.7982 Z-1.3964
G1 X29.5982
G1 X29.3982 Z-1.6
G1 X28.1982
G1 X27.9982 Z-1.3964
G1 X24.7982
G1 X24.5982 Z-1.6
G1 X21.3982
G1 X21.1982 Z-1.3964
G1 X15.7982
G1 X15.5982 Z-1.6
G1 X14.1982
G1 X13.9982 Z-1.3964
G1 X6.7982
G1 X6.5982 Z-1.6
G1 X2.7982
G1 X2.5982 Z-1.3982
G1 X-17.6018
G1 X-17.8018 Z-1.6
G1 X-22.0018
G1 X-22.2018 Z-1.3982
G1 X-27.4018
G1 X-27.6018 Z-1.6
G1 X-38.2018
G1 X-38.4018 Z-1.3982
G1 X-40.8018
G1 X-41.0018 Z-1.6
G1 X-41.2018 Z-1.3982
G1 X-45.5018
G0 Z3.0
G0 X45.5018 Y5.3982
G0 Z0.0018
G1 F300.0 Z-1.3982
G1 F800.0 X45.3982
G1 X38.3982
G1 X38.1982 Z-1.6
G1 X35.5982
G1 X35.3982 Z-1.3964
G1 X29.9982
G1 X29.7982 Z-1.6
G1 X28.1982
G1 X27.9982 Z-1.3964
G1 X24.7982
G1 X24.5982 Z-1.6
G1 X21.1982
G1 X20.9982 Z-1.3964
G1 X15.9982
G1 X15.7982 Z-1.6
G1 X14.1982
G1 X13.9982 Z-1.3964
G1 X6.7982
G1 X6.5982 Z-1.6
G1 X2.7982
G1 X2.5982 Z-1.3982
G1 X-17.4018
G1 X-17.6018 Z-1.6
G1 X-22.0018
G1 X-22.2018 Z-1.3982
G1 X-27.4018
G1 X-27.6018 Z-1.6
G1 X-38.2018
G1 X-38.4018 Z-1.3982
G1 X-40.8018
G1 X-41.0018 Z-1.6
G1 X-41.2018 Z-1.3982
G1 X-45.5018
G0 Z3.0
G0 X45.5018 Y4.9982
G0 Z0.0018
G1 F300.0 Z-1.3982
G1 F800.0 X45.3982
G1 X38.3982
G1 X38.1982 Z-1.6
G1 X35.1982
G1 X34.9982 Z-1.3964
G1 X30.3982
G1 X30.1982 Z-1.6
G1 X27.9982
G1 X27.7982 Z-1.3964
G1 X24.9982
G1 X24.7982 Z-1.6
G1 X20.7982
G1 X20.5982 Z-1.3964
G1 X16.3982
G1 X16.1982 Z-1.6
G1 X13.9982
G1 X13.7982 Z-1.3964
G1 X6.9982
G1 X6.7982 Z-1.6
G1 X2.7982
G1 X2.5982 Z-1.3982
G1 X-17.0018
G1 X-17.2018 Z-1.6
G1 X-22.0018
G1 X-22.2018 Z-1.3982
G1 X-27.4018
G1 X-27.6018 Z-1.6
G1 X-38.2018
G1 X-38.4018 Z-1.3982
G1 X-40.8018
G1 X-41.0018 Z-1.6
G1 X-41.2018 Z-1.3982
G1 X-45.5018
G0 Z3.0
G0 X45.5018 Y4.5982
G0 Z0.0018
G1 F300.0 Z-1.3982
G1 F800.0 X45.3982
G1 X38.3982
G1 X38.1982 Z-1.6
G1 X34.3982
G1 X34.1982 Z-1.3964
G1 X31.1982
G1 X30.9982 Z-1.6
G1 X27.7982
G1 X27.5982 Z-1.3964
G1 X25.1982
G1 X24.9982 Z-1.6
G1 X20.1982
G1 X19.9982 Z-1.3964
G1 X16.9982
G1 X16.7982 Z-1.6
G1 X13.7982
G1 X13.5982 Z-1.3964
G1 X7.1982
G1 X6.9982 Z-1.6
G1 X2.7982
G1 X2.5982 Z-1.3982
G1 X-16.8018
G1 X-17.0018 Z-1.6
G1 X-22.0018
G1 X-22.2018 Z-1.3982
G1 X-27.2018
G1 X-27.4018 Z-1.6
G1 X-38.2018
G1 X-38.4018 Z-1.3982
G1 X-40.8018
G1 X-41.0018 Z-1.6
G1 X-41.2018 Z-1.3982
G1 X-45.5018
G0 Z3.0
G0 X45.5018 Y4.1982
G0 Z0.0018
G1 F300.0 Z-1.3982
G1 F800.0 X45.3982
G1 X38.3982
G1 X38.1982 Z-1.6
G1 X2.9982
G1 X2.7982 Z-1.3982
G1 X-16.6018
G1 X-16.8018 Z-1.6
G1 X-21.8018
G1 X-22.0018 Z-1.3982
G1 X-27.0018
G1 X-27.2018 Z-1.6
G1 X-38.2018
G1 X-38.4018 Z-1.3982
G1 X-40.8018
G1 X-41.0018 Z-1.6
G1 X-41.2018 Z-1.3982
G1 X-45.5018
G0 Z3.0
G0 X45.5018 Y3.7982
G0 Z0.0018
G1 F300.0 Z-1.3982
G1 F800.0 X45.3982
G1 X38.3982
G1 X38.1982 Z-1.6
G1 X3.1982
G1 X2.9982 Z-1.3982
G1 X-16.4018
G1 X-16.6018 Z-1.6
G1 X-21.6018
G1 X-21.8018 Z-1.3982
G1 X-27.0018
G1 X-27.2018 Z-1.6
G1 X-38.2018
G1 X-38.4018 Z-1.3982
G1 X-40.8018
G1 X-41.0018 Z-1.6
G1 X-41.2018 Z-1.3982
G1 X-45.5018
G0 Z3.0
G0 X45.5018 Y3.3982
G0 Z0.0018
G1 F300.0 Z-1.3982
G1 F800.0 X45.3982
G1 X38.3982
G1 X38.1982 Z-1.6
G1 X3.3982
G1 X3.1982 Z-1.3982
G1 X-16.2018
G1 X-16.4018 Z-1.6
G1 X-21.4018
G1 X-21.6018 Z-1.3982
G1 X-26.8018
G1 X-27.0018 Z-1.6
G1 X-38.2018
G1 X-38.4018 Z-1.3982
G1 X-40.8018
G1 X-41.0018 Z-1.6
G1 X-41.2018 Z-1.3982
G1 X-45.5018
G0 Z3.0
G0 X45.5018 Y2.9982
G0 Z0.0018
G1 F300.0 Z-1.3982
G1 F800.0 X45.3982
G1 X38.3982
G1 X38.1982 Z-1.6
G1 X3.7982
G1 X3.5982 Z-1.3982
G1 X-16.0018
G1 X-16.2018 Z-1.6
G1 X-21.2018
G1 X-21.4018 Z-1.3982
G1 X-26.8018
G1 X-27.0018 Z-1.6
G1 X-38.2018
G1 X-38.4018 Z-1.3982
G1 X-40.8018
G1 X-41.0018 Z-1.6
G1 X-41.2018 Z-1.3982
G1 X-45.5018
G0 Z3.0
G0 X45.5018 Y2.5982
G0 Z0.0018
G1 F300.0 Z-1.3982
G1 F800.0 X45.3982
G1 X38.3982
G1 X38.1982 Z-1.6
G1 X4.1982
G1 X3.9982 Z-1.3982
G1 X-15.8018
G1 X-16.0018 Z-1.6
G1 X-21.0018
G1 X-21.2018 Z-1.3982
G1 X-26.6018
G1 X-26.8018 Z-1.6
G1 X-38.2018
G1 X-38.4018 Z-1.3982
G1 X-40.8018
G1 X-41.0018 Z-1.6
G1 X-41.2018 Z-1.3982
G1 X-45.5018
G0 Z3.0
G0 X45.5018 Y2.1982
G0 Z0.0018
G1 F300.0 Z-1.3982
G1 F800.0 X45.3982
G1 X38.3982
G1 X38.1982 Z-1.6
G1 X4.9982
G1 X4.7982 Z-1.3982
G1 X-15.6018
G1 X-15.8018 Z-1.6
G1 X-21.0018
G1 X-21.2018 Z-1.3982
G1 X-26.4018
G1 X-26.6018 Z-1.6
G1 X-38.2018
G1 X-38.4018 Z-1.3982
G1 X-40.8018
G1 X-41.0018 Z-1.6
G1 X-41.2018 Z-1.3982
G1 X-45.5018
G0 Z3.0
G0 X45.5018 Y1.7982
G0 Z0.0018
G1 F300.0 Z-1.3982
G1 F800.0 X45.3982
G1 X38.3982
G1 X38.1982 Z-1.6
G1 X6.1982
G1 X5.9982 Z-1.3982
G1 X-15.4018
G1 X-15.6018 Z-1.6
G1 X-20.8018
G1 X-21.0018 Z-1.3982
G1 X-26.4018
G1 X-26.6018 Z-1.6
G1 X-38.2018
G1 X-38.4018 Z-1.3982
G1 X-40.8018
G1 X-41.0018 Z-1.6
G1 X-41.2018 Z-1.3982
G1 X-45.5018
G0 Z3.0
G0 X45.5018 Y1.3982
G0 Z0.0018
G1 F300.0 Z-1.3982
G1 F800.0 X45.3982
G1 X38.3982
G1 X38.1982 Z-1.6
G1 X7.3982
G1 X7.1982 Z-1.3982
G1 X-15.4018
G1 X-15.6018 Z-1.6
G1 X-20.8018
G1 X-21.0018 Z-1.3982
G1 X-26.2018
G1 X-26.4018 Z-1.6
G1 X-38.2018
G1 X-38.4018 Z-1.3982
G1 X-40.8018
G1 X-41.0018 Z-1.6
G1 X-41.2018 Z-1.3982
G1 X-45.5018
G0 Z3.0
G0 X45.5018 Y0.9982
G0 Z0.0018
G1 F300.0 Z-1.3982
G1 F800.0 X45.3982
G1 X38.3982
G1 X38.1982 Z-1.6
G1 X8.9982
G1 X8.7982 Z-1.3982
G1 X-15.2018
G1 X-15.4018 Z-1.6
G1 X-21.0018
G1 X-21.2018 Z-1.3982
G1 X-26.2018
G1 X-26.4018 Z-1.6
G1 X-38.2018
G1 X-38.4018 Z-1.3982
G1 X-40.8018
G1 X-41.0018 Z-1.6
G1 X-41.2018 Z-1.3982
G1 X-45.5018
G0 Z3.0
G0 X45.5018 Y0.5982
G0 Z0.0018
G1 F300.0 Z-1.3982
G1 F800.0 X45.3982
G1 X38.3982
G1 X38.1982 Z-1.6
G1 X10.7982
G1 X10.5982 Z-1.3982
G1 X-15.0018
G1 X-15.2018 Z-1.6
G1 X-21.2018
G1 X-21.4018 Z-1.3982
G1 X-26.2018
G1 X-26.4018 Z-1.6
G1 X-38.2018
G1 X-38.4018 Z-1.3982
G1 X-40.8018
G1 X-41.0018 Z-1.6
G1 X-41.2018 Z-1.3982
G1 X-45.5018
G0 Z3.0
G0 X45.5018 Y0.1982
G0 Z0.0018
G1 F300.0 Z-1.3982
G1 F800.0 X45.3982
G1 X38.3982
G1 X38.1982 Z-1.6
G1 X12.3982
G1 X12.1982 Z-1.3982
G1 X-14.8018
G1 X-15.0018 Z-1.6
G1 X-22.0018
G1 X-22.2018 Z-1.3982
G1 X-26.0018
G1 X-26.2018 Z-1.6
G1 X-38.2018
G1 X-38.4018 Z-1.3982
G1 X-40.8018
G1 X-41.0018 Z-1.6
G1 X-41.2018 Z-1.3982
G1 X-45.5018
G0 Z3.0
G0 X45.5018 Y-0.2018
G0 Z0.0018
G1 F300.0 Z-1.3982
G1 F800.0 X45.3982
G1 X38.3982
G1 X38.1982 Z-1.6
G1 X24.5982
G1 X24.3982 Z-1.3982
G1 X19.7982
G1 X19.5982 Z-1.6
G1 X14.1982
G1 X13.9982 Z-1.3982
G1 X-14.6018
G1 X-14.8018 Z-1.6
G1 X-23.2018
G1 X-23.4018 Z-1.3982
G1 X-25.8018
G1 X-26.0018 Z-1.6
G1 X-38.2018
G1 X-38.4018 Z-1.3982
G1 X-40.8018
G1 X-41.0018 Z-1.6
G1 X-41.2018 Z-1.3982
G1 X-45.5018
G0 Z3.0
G0 X45.5018 Y-0.6018
G0 Z0.0018
G1 F300.0 Z-1.3982
G1 F800.0 X45.3982
G1 X38.3982
G1 X38.1982 Z-1.6
G1 X25.3982
G1 X25.1982 Z-1.3982
G1 X19.1982
G1 X18.9982 Z-1.6
G1 X14.9982
G1 X14.7982 Z-1.3982
G1 X-14.4018
G1 X-14.6018 Z-1.6
G1 X-24.4018
G1 X-24.6018 Z-1.3982
G1 X-25.6018
G1 X-25.8018 Z-1.6
G1 X-38.2018
G1 X-38.4018 Z-1.3982
G1 X-40.8018
G1 X-41.0018 Z-1.6
G1 X-41.2018 Z-1.3982
G1 X-45.5018
G0 Z3.0
G0 X45.5018 Y-1.0018
G0 Z0.0018
G1 F300.0 Z-1.3982
G1 F800.0 X45.3982
G1 X38.3982
G1 X38.1982 Z-1.6
G1 X25.7982
G1 X25.5982 Z-1.3982
G1 X18.9982
G1 X18.7982 Z-1.6
G1 X15.7982
G1 X15.5982 Z-1.3982
G1 X-14.2018
G1 X-14.4018 Z-1.6
G1 X-20.6018
G1 X-20.8018 Z-1.3982
G1 X-22.6018
G1 X-22.8018 Z-1.6
G1 X-38.2018
G1 X-38.4018 Z-1.3982
G1 X-40.8018
G1 X-41.0018 Z-1.6
G1 X-41.2018 Z-1.3982
G1 X-45.5018
G0 Z3.0
G0 X45.5018 Y-1.4018
G0 Z0.0018
G1 F300.0 Z-1.3982
G1 F800.0 X45.3982
G1 X38.3982
G1 X38.1982 Z-1.6
G1 X25.9982
G1 X25.7982 Z-1.3982
G1 X18.5982
G1 X18.3982 Z-1.6
G1 X16.1982
G1 X15.9982 Z-1.3982
G1 X-14.2018
G1 X-14.4018 Z-1.6
G1 X-20.0018
G1 X-20.2018 Z-1.3982
G1 X-22.8018
G1 X-23.0018 Z-1.6
G1 X-38.2018
G1 X-38.4018 Z-1.3982
G1 X-40.8018
G1 X-41.0018 Z-1.6
G1 X-41.2018 Z-1.3982
G1 X-45.5018
G0 Z3.0
G0 X45.5018 Y-1.8018
G0 Z0.0018
G1 F300.0 Z-1.3982
G1 F800.0 X45.3982
G1 X38.3982
G1 X38.1982 Z-1.6
G1 X26.1982
G1 X25.9982 Z-1.3982
G1 X18.3982
G1 X18.1982 Z-1.6
G1 X16.7982
G1 X16.5982 Z-1.3982
G1 X-14.0018
G1 X-14.2018 Z-1.6
G1 X-19.6018
G1 X-19.8018 Z-1.3982
G1 X-23.0018
G1 X-23.2018 Z-1.6
G1 X-38.2018
G1 X-38.4018 Z-1.3982
G1 X-40.8018
G1 X-41.0018 Z-1.6
G1 X-41.2018 Z-1.3982
G1 X-45.5018
G0 Z3.0
G0 X45.5018 Y-2.2018
G0 Z0.0018
G1 F300.0 Z-1.3982
G1 F800.0 X45.3982
G1 X38.3982
G1 X38.1982 Z-1.6
G1 X26.1982
G1 X25.9982 Z-1.3982
G1 X18.1982
G1 X17.9982 Z-1.6
G1 X17.1982
G1 X16.9982 Z-1.3982
G1 X-13.8018
G1 X-14.0018 Z-1.6
G1 X-19.4018
G1 X-19.6018 Z-1.3982
G1 X-23.4018
G1 X-23.6018 Z-1.6
G1 X-27.8018
G1 X-28.0018 Z-1.3982
G1 X-28.8018
G1 X-29.0018 Z-1.6
G1 X-38.2018
G1 X-38.4018 Z-1.3982
G1 X-40.8018
G1 X-41.0018 Z-1.6
G1 X-41.2018 Z-1.3982
G1 X-45.5018
G0 Z3.0
G0 X45.5018 Y-2.6018
G0 Z0.0018
G1 F300.0 Z-1.3982
G1 F800.0 X45.3982
G1 X38.3982
G1 X38.1982 Z-1.6
G1 X25.9982
G1 X25.7982 Z-1.3982
G1 X17.9982
G1 X17.7982 Z-1.6
G1 X17.5982
G1 X17.3982 Z-1.3982
G1 X-13.6018
G1 X-13.8018 Z-1.6
G1 X-19.2018
G1 X-19.4018 Z-1.3982
G1 X-23.8018
G1 X-24.0018 Z-1.6
G1 X-27.2018
G1 X-27.4018 Z-1.3982
G1 X-29.2018
G1 X-29.4018 Z-1.6
G1 X-38.2018
G1 X-38.4018 Z-1.3982
G1 X-40.8018
G1 X-41.0018 Z-1.6
G1 X-41.2018 Z-1.3982
G1 X-45.5018
G0 Z3.0
G0 X45.5018 Y-3.0018
G0 Z0.0018
G1 F300.0 Z-1.3982
G1 F800.0 X45.3982
G1 X38.3982
G1 X38.1982 Z-1.6
G1 X25.7982
G1 X25.5982 Z-1.3982
G1 X-13.4018
G1 X-13.6018 Z-1.6
G1 X-19.0018
G1 X-19.2018 Z-1.3982
G1 X-24.2018
G1 X-24.4018 Z-1.6
G1 X-27.0018
G1 X-27.2018 Z-1.3982
G1 X-29.4018
G1 X-29.6018 Z-1.6
G1 X-38.2018
G1 X-38.4018 Z-1.3982
G1 X-40.8018
G1 X-41.0018 Z-1.6
G1 X-41.2018 Z-1.3982
G1 X-45.5018
G0 Z3.0
G0 X45.5018 Y-3.4018
G0 Z0.0018
G1 F300.0 Z-1.3982
G1 F800.0 X45.3982
G1 X38.3982
G1 X38.1982 Z-1.6
G1 X23.5982
G1 X23.3982 Z-1.3982
G1 X-13.2018
G1 X-13.4018 Z-1.6
G1 X-19.0018
G1 X-19.2018 Z-1.3982
G1 X-24.6018
G1 X-24.8018 Z-1.6
G1 X-26.6018
G1 X-26.8018 Z-1.3982
G1 X-29.6018
G1 X-29.8018 Z-1.6
G1 X-38.2018
G1 X-38.4018 Z-1.3982
G1 X-40.8018
G1 X-41.0018 Z-1.6
G1 X-41.2018 Z-1.3982
G1 X-45.5018
G0 Z3.0
G0 X45.5018 Y-3.8018
G0 Z0.0018
G1 F300.0 Z-1.3982
G1 F800.0 X45.3982
G1 X38.3982
G1 X38.1982 Z-1.6
G1 X23.3982
G1 X23.1982 Z-1.3982
G1 X-13.0018
G1 X-13.2018 Z-1.6
G1 X-19.2018
G1 X-19.4018 Z-1.3982
G1 X-25.0018
G1 X-25.2018 Z-1.6
G1 X-26.2018
G1 X-26.4018 Z-1.3982
G1 X-29.8018
G1 X-30.0018 Z-1.6
G1 X-38.2018
G1 X-38.4018 Z-1.3982
G1 X-40.8018
G1 X-41.0018 Z-1.6
G1 X-41.2018 Z-1.3982
G1 X-45.5018
G0 Z3.0
G0 X45.5018 Y-4.2018
G0 Z0.0018
G1 F300.0 Z-1.3982
G1 F800.0 X45.3982
G1 X38.3982
G1 X38.1982 Z-1.6
G1 X23.1982
G1 X22.9982 Z-1.3982
G1 X-12.8018
G1 X-13.0018 Z-1.6
G1 X-19.4018
G1 X-19.6018 Z-1.3982
G1 X-25.4018
G1 X-25.6018 Z-1.6
G1 X-26.0018
G1 X-26.2018 Z-1.3982
G1 X-29.8018
G1 X-30.0018 Z-1.6
G1 X-38.2018
G1 X-38.4018 Z-1.3982
G1 X-40.8018
G1 X-41.0018 Z-1.6
G1 X-41.2018 Z-1.3982
G1 X-45.5018
G0 Z3.0
G0 X45.5018 Y-4.6018
G0 Z0.0018
G1 F300.0 Z-1.3982
G1 F800.0 X45.3982
G1 X38.3982
G1 X38.1982 Z-1.6
G1 X22.9982
G1 X22.7982 Z-1.3982
G1 X-12.6018
G1 X-12.8018 Z-1.6
G1 X-16.4018
G1 X-16.6018 Z-1.3982
G1 X-17.8018
G1 X-18.0018 Z-1.6
G1 X-19.8018
G1 X-20.0018 Z-1.3982
G1 X-29.8018
G1 X-30.0018 Z-1.6
G1 X-38.2018
G1 X-38.4018 Z-1.3982
G1 X-40.8018
G1 X-41.0018 Z-1.6
G1 X-41.2018 Z-1.3982
G1 X-45.5018
G0 Z3.0
G0 X45.5018 Y-5.0018
