( Made using CamBam - http://www.cambam.co.uk )
( s 4/6/2015 5:49:14 PM )
( T3 : 0.0 )
G21 G90 G64 G40
G0 Z3.0
( T3 : 0.0 )
T3 M6
( 3DSurface1 )
G17
M3 S1000
G0 X-12.5 Y-12.1
G0 Z1.0
G1 F300.0 Z-0.4
G1 F800.0 X12.3
G1 X12.5
G0 Z3.0
G0 Y-11.9
G0 Z0.6
G1 F300.0 Z-0.8
G1 F800.0 X12.3
G1 X-12.5
G0 Z3.0
G0 Y-12.1
G0 Z0.2
G1 F300.0 Z-1.2
G1 F800.0 X12.3
G1 X12.5
G0 Z3.0
G0 Y-11.9
G0 Z-0.2
G1 F300.0 Z-1.6
G1 F800.0 X12.3
G1 X-12.5
G0 Z3.0
G0 Y-12.1
G0 Z-0.6
G1 F300.0 Z-2.0
G1 F800.0 X12.3
G1 X12.5
G0 Z3.0
G0 Y-11.9
G0 Z-0.6
G1 F300.0 Z-2.0
G1 F800.0 X12.3
G1 X-12.5
G0 Z3.0
G0 Y-12.1
G0 Z-1.0
G1 F300.0 Z-2.0
G1 F800.0 X12.3
G1 X12.5
G0 Z3.0
G0 Y-11.9
G0 Z-1.0
G1 F300.0 Z-2.0
G1 F800.0 X12.3
G1 X-12.5
G0 Z3.0
G0 Y-12.1
G0 Z-1.0
G1 F300.0 Z-2.0
G1 F800.0 X12.3
G1 X12.5
G0 Z3.0
G0 Y-11.9
G0 Z-1.0
G1 F300.0 Z-2.0
G1 F800.0 X12.3
G1 X-12.5
G0 Z3.0
G0 Y-12.1
G0 Z-1.0
G1 F300.0 Z-2.0
G1 F800.0 X12.3
G1 X12.5
G0 Z3.0
G0 Y-11.9
G0 Z-1.0
G1 F300.0 Z-2.0
G1 F800.0 X12.3
G1 X-12.5
G0 Z3.0
G0 Y-12.1
G0 Z-1.0
G1 F300.0 Z-2.0
G1 F800.0 X12.3
G1 X12.5
G0 Z3.0
G0 Y-11.9
G0 Z-1.0
G1 F300.0 Z-2.0
G1 F800.0 X12.3
G1 X-12.5
G0 Z3.0
G0 Y-12.1
G0 Z-1.0
G1 F300.0 Z-2.0
G1 F800.0 X12.3
G1 X12.5
G0 Z3.0
G0 Y-11.9
G0 Z-1.0
G1 F300.0 Z-2.0
G1 F800.0 X12.3
G1 X-12.5
G0 Z3.0
G0 Y-12.1
G0 Z-1.0
G1 F300.0 Z-2.0
G1 F800.0 X12.3
G1 X12.5
G0 Z3.0
G0 Y-11.9
G0 Z-1.0
G1 F300.0 Z-2.0
G1 F800.0 X12.3
G1 X-12.5
G0 Z3.0
G0 Y-12.1
G0 Z-1.0
G1 F300.0 Z-2.0
G1 F800.0 X12.3
G1 X12.5
G0 Z3.0
G0 Y-11.9
G0 Z-1.0
G1 F300.0 Z-2.0
G1 F800.0 X12.3
G1 X-12.5
G0 Z3.0
G0 Y-12.1
G0 Z-1.0
G1 F300.0 Z-2.0
G1 F800.0 X12.3
G1 X12.5
G0 Z3.0
G0 Y-11.9
G0 Z-1.0
G1 F300.0 Z-2.0
G1 F800.0 X12.3
G1 X-12.5
G0 Z3.0
G0 Y-12.1
G0 Z-1.0
G1 F300.0 Z-2.0
G1 F800.0 X12.3
G1 X12.5
G0 Z3.0
G0 Y-11.9
G0 Z-1.0
G1 F300.0 Z-2.0
G1 F800.0 X12.3
G1 X-12.5
G0 Z3.0
G0 Y-12.1
G0 Z-1.0
G1 F300.0 Z-2.0
G1 F800.0 X12.3
G1 X12.5
G0 Z3.0
G0 Y-11.9
G0 Z-1.0
G1 F300.0 Z-2.0
G1 F800.0 X12.3
G1 X-12.5
G0 Z3.0
G0 Y-12.1
G0 Z-1.0
G1 F300.0 Z-2.0
G1 F800.0 X12.3
G1 X12.5
G0 Z3.0
G0 Y-11.9
G0 Z-1.0
G1 F300.0 Z-2.0
G1 F800.0 X12.3
G1 X-12.5
G0 Z3.0
G0 Y-12.1
G0 Z-1.0
G1 F300.0 Z-2.0
G1 F800.0 X12.3
G1 X12.5
G0 Z3.0
G0 Y-11.9
G0 Z-1.0
G1 F300.0 Z-2.0
G1 F800.0 X12.3
G1 X-12.5
G0 Z3.0
G0 X12.5 Y-11.5
G0 Z-0.6
G1 F300.0 Z-2.0
G1 F800.0 X12.3
G1 X-12.5
G0 Z3.0
G0 X12.5 Y-11.1
G0 Z-0.6
G1 F300.0 Z-2.0
G1 F800.0 X12.3
G1 X-12.5
G0 Z3.0
G0 X12.5 Y-10.7
G0 Z-0.6
G1 F300.0 Z-2.0
G1 F800.0 X12.3
G1 X-12.5
G0 Z3.0
G0 X12.5 Y-10.3
G0 Z-0.6
G1 F300.0 Z-2.0
G1 F800.0 X12.3
G1 X-12.5
G0 Z3.0
G0 X12.5 Y-9.9
G0 Z-0.6
G1 F300.0 Z-2.0
G1 F800.0 X12.3
G1 X-12.5
G0 Z3.0
G0 X12.5 Y-9.5
G0 Z-0.6
G1 F300.0 Z-2.0
G1 F800.0 X12.3
G1 X-12.5
G0 Z3.0
G0 X12.5 Y-9.1
G0 Z-0.6
G1 F300.0 Z-2.0
G1 F800.0 X12.3
G1 X-12.5
G0 Z3.0
G0 X12.5 Y-8.7
G0 Z-0.6
G1 F300.0 Z-2.0
G1 F800.0 X12.3
G1 X-12.5
G0 Z3.0
G0 X12.5 Y-8.3
G0 Z-0.6
G1 F300.0 Z-2.0
G1 F800.0 X12.3
G1 X-12.5
G0 Z3.0
G0 X12.5 Y-7.9
G0 Z-0.6
G1 F300.0 Z-2.0
G1 F800.0 X12.3
G1 X-12.5
G0 Z3.0
G0 X12.5 Y-7.5
G0 Z-0.6
G1 F300.0 Z-2.0
G1 F800.0 X12.3
G1 X-12.5
G0 Z3.0
G0 X12.5 Y-7.1
G0 Z-0.6
G1 F300.0 Z-2.0
G1 F800.0 X12.3
G1 X-12.5
G0 Z3.0
G0 X12.5 Y-6.7
G0 Z-0.6
G1 F300.0 Z-2.0
G1 F800.0 X12.3
G1 X-12.5
G0 Z3.0
G0 X12.5 Y-6.3
G0 Z-0.6
G1 F300.0 Z-2.0
G1 F800.0 X12.3
G1 X-12.5
G0 Z3.0
G0 X12.5 Y-5.9
G0 Z-0.6
G1 F300.0 Z-2.0
G1 F800.0 X12.3
G1 X2.7
G1 X2.5 Z0.0
G1 X-4.1
G1 X-4.3 Z-2.0
G1 X-12.5
G0 Z3.0
G0 X12.5 Y-5.5
G0 Z-0.6
G1 F300.0 Z-2.0
G1 F800.0 X12.3
G1 X3.5
G1 X3.3 Z0.0
G1 X-4.5
G1 X-4.7 Z-2.0
G1 X-12.5
G0 Z3.0
G0 X12.5 Y-5.1
G0 Z-0.6
G1 F300.0 Z-2.0
G1 F800.0 X12.3
G1 X3.9
G1 X3.7 Z0.0
G1 X-4.7
G1 X-4.9 Z-2.0
G1 X-12.5
G0 Z3.0
G0 X12.5 Y-4.7
G0 Z-0.6
G1 F300.0 Z-2.0
G1 F800.0 X12.3
G1 X4.3
G1 X4.1 Z0.0
G1 X-4.7
G1 X-4.9 Z-2.0
G1 X-12.5
G0 Z3.0
G0 X12.5 Y-4.3
G0 Z-0.6
G1 F300.0 Z-2.0
G1 F800.0 X12.3
G1 X4.5
G1 X4.3 Z0.0
G1 X-4.7
G1 X-4.9 Z-2.0
G1 X-12.5
G0 Z3.0
G0 X12.5 Y-3.9
G0 Z-0.6
G1 F300.0 Z-2.0
G1 F800.0 X12.3
G1 X4.5
G1 X4.3 Z0.0
G1 X-4.7
G1 X-4.9 Z-2.0
G1 X-12.5
G0 Z3.0
G0 X12.5 Y-3.5
G0 Z-0.6
G1 F300.0 Z-2.0
G1 F800.0 X12.3
G1 X4.5
G1 X4.3 Z0.0
G1 X-4.5
G1 X-4.7 Z-2.0
G1 X-12.5
G0 Z3.0
G0 X12.5 Y-3.1
G0 Z-0.6
G1 F300.0 Z-2.0
G1 F800.0 X12.3
G1 X4.5
G1 X4.3 Z0.0
G1 X2.1
G1 X1.9 Z-2.0
G1 X-12.5
G0 Z3.0
G0 X12.5 Y-2.7
G0 Z-0.6
G1 F300.0 Z-2.0
G1 F800.0 X12.3
G1 X4.5
G1 X4.3 Z0.0
G1 X2.1
G1 X1.9 Z-2.0
G1 X-12.5
G0 Z3.0
G0 X12.5 Y-2.3
G0 Z-0.6
G1 F300.0 Z-2.0
G1 F800.0 X12.3
G1 X4.5
G1 X4.3 Z0.0
G1 X2.1
G1 X1.9 Z-2.0
G1 X-12.5
G0 Z3.0
G0 X12.5 Y-1.9
G0 Z-0.6
G1 F300.0 Z-2.0
G1 F800.0 X12.3
G1 X4.5
G1 X4.3 Z0.0
G1 X2.1
G1 X1.9 Z-2.0
G1 X-12.3
G1 X-12.5 Z-12.0
G0 Z3.0
G0 X12.5 Y-1.5
G0 Z-0.6
G1 F300.0 Z-2.0
G1 F800.0 X12.3
G1 X4.5
G1 X4.3 Z0.0
G1 X2.1
G1 X1.9 Z-2.0
G1 X-12.5
G0 Z3.0
G0 X12.5 Y-1.1
G0 Z-0.6
G1 F300.0 Z-2.0
G1 F800.0 X12.3
G1 X4.5
G1 X4.3 Z0.0
G1 X-2.7
G1 X-2.9 Z-2.0
G1 X-12.5
G0 Z3.0
G0 X12.5 Y-0.7
G0 Z-0.6
G1 F300.0 Z-2.0
G1 F800.0 X12.3
G1 X4.5
G1 X4.3 Z0.0
G1 X-3.7
G1 X-3.9 Z-2.0
G1 X-12.5
G0 Z3.0
G0 X12.5 Y-0.3
G0 Z-0.6
G1 F300.0 Z-2.0
G1 F800.0 X12.3
G1 X4.5
G1 X4.3 Z0.0
G1 X-4.1
G1 X-4.3 Z-2.0
G1 X-12.5
G0 Z3.0
G0 X12.5 Y0.1
G0 Z-0.6
G1 F300.0 Z-2.0
G1 F800.0 X12.3
G1 X4.3
G1 X4.1 Z0.0
G1 X-4.3
G1 X-4.5 Z-2.0
G1 X-12.5
G0 Z3.0
G0 X12.5 Y0.5
G0 Z-0.6
G1 F300.0 Z-2.0
G1 F800.0 X12.3
G1 X4.1
G1 X3.9 Z0.0
G1 X-4.5
G1 X-4.7 Z-2.0
G1 X-12.5
G0 Z3.0
G0 X12.5 Y0.9
G0 Z-0.6
G1 F300.0 Z-2.0
G1 F800.0 X12.3
G1 X3.7
G1 X3.5 Z0.0
G1 X-4.7
G1 X-4.9 Z-2.0
G1 X-12.5
G0 Z3.0
G0 X12.5 Y1.3
G0 Z-0.6
G1 F300.0 Z-2.0
G1 F800.0 X12.3
G1 X3.3
G1 X3.1 Z0.0
G1 X-4.7
G1 X-4.9 Z-2.0
G1 X-12.5
G0 Z3.0
G0 X12.5 Y1.7
G0 Z-0.6
G1 F300.0 Z-2.0
G1 F800.0 X12.3
G1 X-2.3
G1 X-2.5 Z0.0
G1 X-4.7
G1 X-4.9 Z-2.0
G1 X-12.5
G0 Z3.0
G0 X12.5 Y2.1
G0 Z-0.6
G1 F300.0 Z-2.0
G1 F800.0 X12.3
G1 X-2.3
G1 X-2.5 Z0.0
G1 X-4.7
G1 X-4.9 Z-2.0
G1 X-12.5
G0 Z3.0
G0 X12.5 Y2.5
G0 Z-0.6
G1 F300.0 Z-2.0
G1 F800.0 X12.3
G1 X-2.3
G1 X-2.5 Z0.0
G1 X-4.7
G1 X-4.9 Z-2.0
G1 X-12.5
G0 Z3.0
G0 X12.5 Y2.9
G0 Z-0.6
G1 F300.0 Z-2.0
G1 F800.0 X12.3
G1 X-2.3
G1 X-2.5 Z0.0
G1 X-4.7
G1 X-4.9 Z-2.0
G1 X-12.5
G0 Z3.0
G0 X12.5 Y3.3
G0 Z-0.6
G1 F300.0 Z-2.0
G1 F800.0 X12.3
G1 X-2.3
G1 X-2.5 Z0.0
G1 X-4.7
G1 X-4.9 Z-2.0
G1 X-12.5
G0 Z3.0
G0 X12.5 Y3.7
G0 Z-0.6
G1 F300.0 Z-2.0
G1 F800.0 X12.3
G1 X-2.3
G1 X-2.5 Z0.0
G1 X-4.7
G1 X-4.9 Z-2.0
G1 X-12.5
G0 Z3.0
G0 X12.5 Y4.1
G0 Z-0.6
G1 F300.0 Z-2.0
G1 F800.0 X12.3
G1 X4.3
G1 X4.1 Z0.0
G1 X-4.7
G1 X-4.9 Z-2.0
G1 X-12.5
G0 Z3.0
G0 X12.5 Y4.5
G0 Z-0.6
G1 F300.0 Z-2.0
G1 F800.0 X12.3
G1 X4.5
G1 X4.3 Z0.0
G1 X-4.7
G1 X-4.9 Z-2.0
G1 X-12.5
G0 Z3.0
G0 X12.5 Y4.9
G0 Z-0.6
G1 F300.0 Z-2.0
G1 F800.0 X12.3
G1 X4.5
G1 X4.3 Z0.0
G1 X-4.5
G1 X-4.7 Z-2.0
G1 X-12.5
G0 Z3.0
G0 X12.5 Y5.3
G0 Z-0.6
G1 F300.0 Z-2.0
G1 F800.0 X12.3
G1 X4.5
G1 X4.3 Z0.0
G1 X-4.3
G1 X-4.5 Z-2.0
G1 X-12.5
G0 Z3.0
G0 X12.5 Y5.7
G0 Z-0.6
G1 F300.0 Z-2.0
G1 F800.0 X12.3
G1 X4.5
G1 X4.3 Z0.0
G1 X-4.1
G1 X-4.3 Z-2.0
G1 X-12.5
G0 Z3.0
G0 X12.5 Y6.1
G0 Z-0.6
G1 F300.0 Z-2.0
G1 F800.0 X12.3
G1 X4.5
G1 X4.3 Z0.0
G1 X-3.7
G1 X-3.9 Z-2.0
G1 X-12.5
G0 Z3.0
G0 X12.5 Y6.5
G0 Z-0.6
G1 F300.0 Z-2.0
G1 F800.0 X12.3
G1 X4.1
G1 X3.9 Z0.0
G1 X-2.9
G1 X-3.1 Z-2.0
G1 X-12.5
G0 Z3.0
G0 X12.5 Y6.9
G0 Z-0.6
G1 F300.0 Z-2.0
G1 F800.0 X12.3
G1 X-12.5
G0 Z3.0
G0 X12.5 Y7.3
G0 Z-0.6
G1 F300.0 Z-2.0
G1 F800.0 X12.3
G1 X-12.5
G0 Z3.0
G0 X12.5 Y7.7
G0 Z-0.6
G1 F300.0 Z-2.0
G1 F800.0 X12.3
G1 X-12.5
G0 Z3.0
G0 X12.5 Y8.1
G0 Z-0.6
G1 F300.0 Z-2.0
G1 F800.0 X12.3
G1 X-12.5
G0 Z3.0
G0 X12.5 Y8.5
G0 Z-0.6
G1 F300.0 Z-2.0
G1 F800.0 X12.3
G1 X-12.5
G0 Z3.0
G0 X12.5 Y8.9
G0 Z-0.6
G1 F300.0 Z-2.0
G1 F800.0 X12.3
G1 X-12.5
G0 Z3.0
G0 X12.5 Y9.3
G0 Z-0.6
G1 F300.0 Z-2.0
G1 F800.0 X12.3
G1 X-12.5
G0 Z3.0
G0 X12.5 Y9.7
G0 Z-0.6
G1 F300.0 Z-2.0
G1 F800.0 X12.3
G1 X-12.5
G0 Z3.0
G0 X12.5 Y10.1
G0 Z-0.6
G1 F300.0 Z-2.0
G1 F800.0 X12.3
G1 X-12.5
G0 Z3.0
G0 X12.5 Y10.5
G0 Z-0.6
G1 F300.0 Z-2.0
G1 F800.0 X12.3
G1 X-12.5
G0 Z3.0
G0 X12.5 Y10.9
G0 Z-0.6
G1 F300.0 Z-2.0
G1 F800.0 X12.3
G1 X-12.5
G0 Z3.0
G0 X12.5 Y11.3
G0 Z-0.6
G1 F300.0 Z-2.0
G1 F800.0 X12.3
G1 X-12.5
G0 Z3.0
G0 X12.5 Y11.7
G0 Z-0.6
G1 F300.0 Z-2.0
G1 F800.0 X12.3
G1 X-12.5
G0 Z3.0
G0 X12.5 Y12.1
G0 Z-0.6
G1 F300.0 Z-2.0
G1 F800.0 X12.3
G1 X-12.5
G0 Z3.0
G0 X12.5 Y-12.3
G0 Z-0.6
G1 F300.0 Z-2.0
G1 F800.0 X12.3
G1 X-12.5
G0 Z3.0
G0 Y-11.7
G0 Z-0.6
G1 F300.0 Z-2.0
G1 F800.0 X12.3
G1 X12.5
G0 Z3.0
G0 X-12.5 Y-11.3
G0 Z-0.6
G1 F300.0 Z-2.0
G1 F800.0 X12.3
G1 X12.5
G0 Z3.0
G0 X-12.5 Y-10.9
G0 Z-0.6
G1 F300.0 Z-2.0
G1 F800.0 X12.3
G1 X12.5
G0 Z3.0
G0 X-12.5 Y-10.5
G0 Z-0.6
G1 F300.0 Z-2.0
G1 F800.0 X12.3
G1 X12.5
G0 Z3.0
G0 X-12.5 Y-10.1
G0 Z-0.6
G1 F300.0 Z-2.0
G1 F800.0 X12.3
G1 X12.5
G0 Z3.0
G0 X-12.5 Y-9.7
G0 Z-0.6
G1 F300.0 Z-2.0
G1 F800.0 X12.3
G1 X12.5
G0 Z3.0
G0 X-12.5 Y-9.3
G0 Z-0.6
G1 F300.0 Z-2.0
G1 F800.0 X12.3
G1 X12.5
G0 Z3.0
G0 X-12.5 Y-8.9
G0 Z-0.6
G1 F300.0 Z-2.0
G1 F800.0 X12.3
G1 X12.5 Z-11.6
G0 Z3.0
G0 X-12.5 Y-8.5
G0 Z-0.6
G1 F300.0 Z-2.0
G1 F800.0 X12.3
G1 X12.5
G0 Z3.0
G0 X-12.5 Y-8.1
G0 Z-0.6
G1 F300.0 Z-2.0
G1 F800.0 X12.3
G1 X12.5
G0 Z3.0
G0 X-12.5 Y-7.7
G0 Z-0.6
G1 F300.0 Z-2.0
G1 F800.0 X12.3
G1 X12.5
G0 Z3.0
G0 X-12.5 Y-7.3
G0 Z-0.6
G1 F300.0 Z-2.0
G1 F800.0 X12.3
G1 X12.5
G0 Z3.0
G0 X-12.5 Y-6.9
G0 Z-0.6
G1 F300.0 Z-2.0
G1 F800.0 X12.3
G1 X12.5
G0 Z3.0
G0 X-12.5 Y-6.5
G0 Z-0.6
G1 F300.0 Z-2.0
G1 F800.0 X12.3
G1 X12.5
G0 Z3.0
G0 X-12.5 Y-6.1
G0 Z-0.6
G1 F300.0 Z-2.0
G1 F800.0 X12.3
G1 X12.5
G0 Z3.0
G0 X-12.5 Y-5.7
G0 Z-0.6
G1 F300.0 Z-2.0
G1 F800.0 X-4.5
G1 X-4.3 Z0.0
G1 X2.9
G1 X3.1 Z-2.0
G1 X12.3
G1 X12.5
G0 Z3.0
G0 X-12.5 Y-5.3
G0 Z-0.6
G1 F300.0 Z-2.0
G1 F800.0 X-4.9
G1 X-4.7 Z0.0
G1 X3.5
G1 X3.7 Z-2.0
G1 X12.3
G1 X12.5
G0 Z3.0
G0 X-12.5 Y-4.9
G0 Z-0.6
G1 F300.0 Z-2.0
G1 F800.0 X-4.9
G1 X-4.7 Z0.0
G1 X3.9
G1 X4.1 Z-2.0
G1 X12.3
G1 X12.5
G0 Z3.0
G0 X-12.5 Y-4.5
G0 Z-0.6
G1 F300.0 Z-2.0
G1 F800.0 X-4.9
G1 X-4.7 Z0.0
G1 X4.1
G1 X4.3 Z-2.0
G1 X12.3
G1 X12.5
G0 Z3.0
G0 X-12.5 Y-4.1
G0 Z-0.6
G1 F300.0 Z-2.0
G1 F800.0 X-4.9
G1 X-4.7 Z0.0
G1 X4.3
G1 X4.5 Z-2.0
G1 X12.3
G1 X12.5
G0 Z3.0
G0 X-12.5 Y-3.7
G0 Z-0.6
G1 F300.0 Z-2.0
G1 F800.0 X-4.7
G1 X-4.5 Z0.0
G1 X4.3
G1 X4.5 Z-2.0
G1 X12.3
G1 X12.5
G0 Z3.0
G0 X-12.5 Y-3.3
G0 Z-0.6
G1 F300.0 Z-2.0
G1 F800.0 X-4.3
G1 X-4.1 Z0.0
G1 X4.3
G1 X4.5 Z-2.0
G1 X12.3
G1 X12.5
G0 Z3.0
G0 X-12.5 Y-2.9
G0 Z-0.6
G1 F300.0 Z-2.0
G1 F800.0 X1.9
G1 X2.1 Z0.0
G1 X4.3
G1 X4.5 Z-2.0
G1 X12.3
G1 X12.5
G0 Z3.0
G0 X-12.5 Y-2.5
G0 Z-0.6
G1 F300.0 Z-2.0
G1 F800.0 X1.9
G1 X2.1 Z0.0
G1 X4.3
G1 X4.5 Z-2.0
G1 X12.3
G1 X12.5
G0 Z3.0
G0 X-12.5 Y-2.1
G0 Z-0.6
G1 F300.0 Z-2.0
G1 F800.0 X1.9
G1 X2.1 Z0.0
G1 X4.3
G1 X4.5 Z-2.0
G1 X12.3
G1 X12.5
G0 Z3.0
G0 X-12.5 Y-1.7
G0 Z-0.6
G1 F300.0 Z-2.0
G1 F800.0 X1.9
G1 X2.1 Z0.0
G1 X4.3
G1 X4.5 Z-2.0
G1 X12.3
G1 X12.5
G0 Z3.0
G0 X-12.5 Y-1.3
G0 Z-0.6
G1 F300.0 Z-2.0
G1 F800.0 X1.9
G1 X2.1 Z0.0
G1 X4.3
G1 X4.5 Z-2.0
G1 X12.3
G1 X12.5 Z-11.6
G0 Z3.0
G0 X-12.5 Y-0.9
G0 Z-0.6
G1 F300.0 Z-2.0
G1 F800.0 X-3.5
G1 X-3.3 Z0.0
G1 X4.3
G1 X4.5 Z-2.0
G1 X12.3
G1 X12.5
G0 Z3.0
G0 X-12.5 Y-0.5
G0 Z-0.6
G1 F300.0 Z-2.0
G1 F800.0 X-4.1
G1 X-3.9 Z0.0
G1 X4.3
G1 X4.5 Z-2.0
G1 X12.3
G1 X12.5
G0 Z3.0
G0 X-12.5 Y-0.1
G0 Z-0.6
G1 F300.0 Z-2.0
G1 F800.0 X-4.5
G1 X-4.3 Z0.0
G1 X4.3
G1 X4.5 Z-2.0
G1 X12.3
G1 X12.5
G0 Z3.0
G0 X-12.5 Y0.3
G0 Z-0.6
G1 F300.0 Z-2.0
G1 F800.0 X-4.7
G1 X-4.5 Z0.0
G1 X4.1
G1 X4.3 Z-2.0
G1 X12.3
G1 X12.5
G0 Z3.0
G0 X-12.5 Y0.7
G0 Z-0.6
G1 F300.0 Z-2.0
G1 F800.0 X-4.9
G1 X-4.7 Z0.0
G1 X3.7
G1 X3.9 Z-2.0
G1 X12.3
G1 X12.5
G0 Z3.0
G0 X-12.5 Y1.1
G0 Z-0.6
G1 F300.0 Z-2.0
G1 F800.0 X-4.9
G1 X-4.7 Z0.0
G1 X3.3
G1 X3.5 Z-2.0
G1 X12.3
G1 X12.5
G0 Z3.0
G0 X-12.5 Y1.5
G0 Z-0.6
G1 F300.0 Z-2.0
G1 F800.0 X-4.9
G1 X-4.7 Z0.0
G1 X2.7
G1 X2.9 Z-2.0
G1 X12.3
G1 X12.5
G0 Z3.0
G0 X-12.5 Y1.9
G0 Z-0.6
G1 F300.0 Z-2.0
G1 F800.0 X-4.9
G1 X-4.7 Z0.0
G1 X-2.5
G1 X-2.3 Z-2.0
G1 X12.3
G1 X12.5
G0 Z3.0
G0 X-12.5 Y2.3
G0 Z-0.6
G1 F300.0 Z-2.0
G1 F800.0 X-4.9
G1 X-4.7 Z0.0
G1 X-2.5
G1 X-2.3 Z-2.0
G1 X12.3
G1 X12.5
G0 Z3.0
G0 X-12.5 Y2.7
G0 Z-0.6
G1 F300.0 Z-2.0
G1 F800.0 X-4.9
G1 X-4.7 Z0.0
G1 X-2.5
G1 X-2.3 Z-2.0
G1 X12.3
G1 X12.5
G0 Z3.0
G0 X-12.5 Y3.1
G0 Z-0.6
G1 F300.0 Z-2.0
G1 F800.0 X-4.9
G1 X-4.7 Z0.0
G1 X-2.5
G1 X-2.3 Z-2.0
G1 X12.3
G1 X12.5
G0 Z3.0
G0 X-12.5 Y3.5
G0 Z-0.6
G1 F300.0 Z-2.0
G1 F800.0 X-4.9
G1 X-4.7 Z0.0
G1 X-2.5
G1 X-2.3 Z-2.0
G1 X12.3
G1 X12.5
G0 Z3.0
G0 X-12.5 Y3.9
G0 Z-0.6
G1 F300.0 Z-2.0
G1 F800.0 X-4.9
G1 X-4.7 Z0.0
G1 X3.7
G1 X3.9 Z-2.0
G1 X12.3
G1 X12.5
G0 Z3.0
G0 X-12.5 Y4.3
G0 Z-0.6
G1 F300.0 Z-2.0
G1 F800.0 X-4.9
G1 X-4.7 Z0.0
G1 X4.1
G1 X4.3 Z-2.0
G1 X12.3
G1 X12.5
G0 Z3.0
G0 X-12.5 Y4.7
G0 Z-0.6
G1 F300.0 Z-2.0
G1 F800.0 X-4.9
G1 X-4.7 Z0.0
G1 X4.3
G1 X4.5 Z-2.0
G1 X12.3
G1 X12.5
G0 Z3.0
G0 X-12.5 Y5.1
G0 Z-0.6
G1 F300.0 Z-2.0
G1 F800.0 X-4.7
G1 X-4.5 Z0.0
G1 X4.3
G1 X4.5 Z-2.0
G1 X12.3
G1 X12.5
G0 Z3.0
G0 X-12.5 Y5.5
G0 Z-0.6
G1 F300.0 Z-2.0
G1 F800.0 X-4.5
G1 X-4.3 Z0.0
G1 X4.3
G1 X4.5 Z-2.0
G1 X12.3
G1 X12.5
G0 Z3.0
G0 X-12.5 Y5.9
G0 Z-0.6
G1 F300.0 Z-2.0
G1 F800.0 X-4.1
G1 X-3.9 Z0.0
G1 X4.3
G1 X4.5 Z-2.0
G1 X12.3
G1 X12.5
G0 Z3.0
G0 X-12.5 Y6.3
G0 Z-0.6
G1 F300.0 Z-2.0
G1 F800.0 X-3.5
G1 X-3.3 Z0.0
G1 X4.1
G1 X4.3 Z-2.0
G1 X12.3
G1 X12.5
G0 Z3.0
G0 X-12.5 Y6.7
G0 Z-0.6
G1 F300.0 Z-2.0
G1 F800.0 X12.3
G1 X12.5
G0 Z3.0
G0 X-12.5 Y7.1
G0 Z-0.6
G1 F300.0 Z-2.0
G1 F800.0 X12.3
G1 X12.5 Z-11.6
G0 Z3.0
G0 X-12.5 Y7.5
G0 Z-0.6
G1 F300.0 Z-2.0
G1 F800.0 X12.3
G1 X12.5
G0 Z3.0
G0 X-12.5 Y7.9
G0 Z-0.6
G1 F300.0 Z-2.0
G1 F800.0 X12.3
G1 X12.5
G0 Z3.0
G0 X-12.5 Y8.3
G0 Z-0.6
G1 F300.0 Z-2.0
G1 F800.0 X12.3
G1 X12.5
G0 Z3.0
G0 X-12.5 Y8.7
G0 Z-0.6
G1 F300.0 Z-2.0
G1 F800.0 X12.3
G1 X12.5
G0 Z3.0
G0 X-12.5 Y9.1
G0 Z-0.6
G1 F300.0 Z-2.0
G1 F800.0 X12.3
G1 X12.5
G0 Z3.0
G0 X-12.5 Y9.5
G0 Z-0.6
G1 F300.0 Z-2.0
G1 F800.0 X12.3
G1 X12.5
G0 Z3.0
G0 X-12.5 Y9.9
G0 Z-0.6
G1 F300.0 Z-2.0
G1 F800.0 X12.3
G1 X12.5
G0 Z3.0
G0 X-12.5 Y10.3
G0 Z-0.6
G1 F300.0 Z-2.0
G1 F800.0 X12.3
G1 X12.5
G0 Z3.0
G0 X-12.5 Y10.7
G0 Z-0.6
G1 F300.0 Z-2.0
G1 F800.0 X12.3
G1 X12.5
G0 Z3.0
G0 X-12.5 Y11.1
G0 Z-0.6
G1 F300.0 Z-2.0
G1 F800.0 X12.3
G1 X12.5
G0 Z3.0
G0 X-12.5 Y11.5
G0 Z-0.6
G1 F300.0 Z-2.0
G1 F800.0 X12.3
G1 X12.5
G0 Z3.0
G0 X-12.5 Y11.9
G0 Z-0.6
G1 F300.0 Z-2.0
G1 F800.0 X12.3
G1 X12.5
G0 Z3.0
G0 Y12.1
G0 Z-1.0
G1 F300.0 Z-2.0
G1 F800.0 X12.3
G1 X-12.5
G0 Z3.0
G0 X12.5 Y11.7
G0 Z-1.0
G1 F300.0 Z-2.0
G1 F800.0 X12.3
G1 X-12.5
G0 Z3.0
G0 X12.5 Y11.3
G0 Z-1.0
G1 F300.0 Z-2.0
G1 F800.0 X12.3
G1 X-12.5
G0 Z3.0
G0 X12.5 Y10.9
G0 Z-1.0
G1 F300.0 Z-2.0
G1 F800.0 X12.3
G1 X-12.5
G0 Z3.0
G0 X12.5 Y10.5
G0 Z-1.0
G1 F300.0 Z-2.0
G1 F800.0 X12.3
G1 X-12.5
G0 Z3.0
G0 X12.5 Y10.1
G0 Z-1.0
G1 F300.0 Z-2.0
G1 F800.0 X12.3
G1 X-12.5
G0 Z3.0
G0 X12.5 Y9.7
G0 Z-1.0
G1 F300.0 Z-2.0
G1 F800.0 X12.3
G1 X-12.5
G0 Z3.0
G0 X12.5 Y9.3
G0 Z-1.0
G1 F300.0 Z-2.0
G1 F800.0 X12.3
G1 X-12.5
G0 Z3.0
G0 X12.5 Y8.9
G0 Z-1.0
G1 F300.0 Z-2.0
G1 F800.0 X12.3
G1 X-12.5
G0 Z3.0
G0 X12.5 Y8.5
G0 Z-1.0
G1 F300.0 Z-2.0
G1 F800.0 X12.3
G1 X-12.5
G0 Z3.0
G0 X12.5 Y8.1
G0 Z-1.0
G1 F300.0 Z-2.0
G1 F800.0 X12.3
G1 X-12.5
G0 Z3.0
G0 X12.5 Y7.7
G0 Z-1.0
G1 F300.0 Z-2.0
G1 F800.0 X12.3
G1 X-12.5
G0 Z3.0
G0 X12.5 Y7.3
G0 Z-1.0
G1 F300.0 Z-2.0
G1 F800.0 X12.3
G1 X-12.5
G0 Z3.0
G0 X12.5 Y6.9
G0 Z-1.0
G1 F300.0 Z-2.0
G1 F800.0 X12.3
G1 X-12.5
G0 Z3.0
G0 X12.5 Y6.5
G0 Z-1.0
G1 F300.0 Z-2.0
G1 F800.0 X12.3
G1 X4.1
G1 X3.9 Z0.0
G1 X-2.9
G1 X-3.1 Z-2.0
G1 X-12.5
G0 Z3.0
G0 X12.5 Y6.1
G0 Z-1.0
G1 F300.0 Z-2.0
G1 F800.0 X12.3
G1 X4.5
G1 X4.3 Z0.0
G1 X-3.7
G1 X-3.9 Z-2.0
G1 X-12.5
G0 Z3.0
G0 X12.5 Y5.7
G0 Z-1.0
G1 F300.0 Z-2.0
G1 F800.0 X12.3
G1 X4.5
G1 X4.3 Z0.0
G1 X-4.1
G1 X-4.3 Z-2.0
G1 X-12.5
G0 Z3.0
G0 X12.5 Y5.3
G0 Z-1.0
G1 F300.0 Z-2.0
G1 F800.0 X12.3
G1 X4.5
G1 X4.3 Z0.0
G1 X-4.3
G1 X-4.5 Z-2.0
G1 X-12.5
G0 Z3.0
G0 X12.5 Y4.9
G0 Z-1.0
G1 F300.0 Z-2.0
G1 F800.0 X12.3
G1 X4.5
G1 X4.3 Z0.0
G1 X-4.5
G1 X-4.7 Z-2.0
G1 X-12.5
G0 Z3.0
G0 X12.5 Y4.5
G0 Z-1.0
G1 F300.0 Z-2.0
G1 F800.0 X12.3
G1 X4.5
G1 X4.3 Z0.0
G1 X-4.7
G1 X-4.9 Z-2.0
G1 X-12.5
G0 Z3.0
G0 X12.5 Y4.1
G0 Z-1.0
G1 F300.0 Z-2.0
G1 F800.0 X12.3
G1 X4.3
G1 X4.1 Z0.0
G1 X-4.7
G1 X-4.9 Z-2.0
G1 X-12.5
G0 Z3.0
G0 X12.5 Y3.7
G0 Z-1.0
G1 F300.0 Z-2.0
G1 F800.0 X12.3
G1 X-2.3
G1 X-2.5 Z0.0
G1 X-4.7
G1 X-4.9 Z-2.0
G1 X-12.5
G0 Z3.0
G0 X12.5 Y3.3
G0 Z-1.0
G1 F300.0 Z-2.0
G1 F800.0 X12.3
G1 X-2.3
G1 X-2.5 Z0.0
G1 X-4.7
G1 X-4.9 Z-2.0
G1 X-12.5
G0 Z3.0
G0 X12.5 Y2.9
G0 Z-1.0
G1 F300.0 Z-2.0
G1 F800.0 X12.3
G1 X-2.3
G1 X-2.5 Z0.0
G1 X-4.7
G1 X-4.9 Z-2.0
G1 X-12.5
G0 Z3.0
G0 X12.5 Y2.5
G0 Z-1.0
G1 F300.0 Z-2.0
G1 F800.0 X12.3
G1 X-2.3
G1 X-2.5 Z0.0
G1 X-4.7
G1 X-4.9 Z-2.0
G1 X-12.5
G0 Z3.0
G0 X12.5 Y2.1
G0 Z-1.0
G1 F300.0 Z-2.0
G1 F800.0 X12.3
G1 X-2.3
G1 X-2.5 Z0.0
G1 X-4.7
G1 X-4.9 Z-2.0
G1 X-12.5
G0 Z3.0
G0 X12.5 Y1.7
G0 Z-1.0
G1 F300.0 Z-2.0
G1 F800.0 X12.3
G1 X-2.3
G1 X-2.5 Z0.0
G1 X-4.7
G1 X-4.9 Z-2.0
G1 X-12.5
G0 Z3.0
G0 X12.5 Y1.3
G0 Z-1.0
G1 F300.0 Z-2.0
G1 F800.0 X12.3
G1 X3.3
G1 X3.1 Z0.0
G1 X-4.7
G1 X-4.9 Z-2.0
G1 X-12.5
G0 Z3.0
G0 X12.5 Y0.9
G0 Z-1.0
G1 F300.0 Z-2.0
G1 F800.0 X12.3
G1 X3.7
G1 X3.5 Z0.0
G1 X-4.7
G1 X-4.9 Z-2.0
G1 X-12.5
G0 Z3.0
G0 X12.5 Y0.5
G0 Z-1.0
G1 F300.0 Z-2.0
G1 F800.0 X12.3
G1 X4.1
G1 X3.9 Z0.0
G1 X-4.5
G1 X-4.7 Z-2.0
G1 X-12.5
G0 Z3.0
G0 X12.5 Y0.1
G0 Z-1.0
G1 F300.0 Z-2.0
G1 F800.0 X12.3
G1 X4.3
G1 X4.1 Z0.0
G1 X-4.3
G1 X-4.5 Z-2.0
G1 X-12.5
G0 Z3.0
G0 X12.5 Y-0.3
G0 Z-1.0
G1 F300.0 Z-2.0
G1 F800.0 X12.3
G1 X4.5
G1 X4.3 Z0.0
G1 X-4.1
G1 X-4.3 Z-2.0
G1 X-12.5
G0 Z3.0
G0 X12.5 Y-0.7
G0 Z-1.0
G1 F300.0 Z-2.0
G1 F800.0 X12.3
G1 X4.5
G1 X4.3 Z0.0
G1 X-3.7
G1 X-3.9 Z-2.0
G1 X-12.5
G0 Z3.0
G0 X12.5 Y-1.1
G0 Z-1.0
G1 F300.0 Z-2.0
G1 F800.0 X12.3
G1 X4.5
G1 X4.3 Z0.0
G1 X-2.7
G1 X-2.9 Z-2.0
G1 X-12.5
G0 Z3.0
G0 X12.5 Y-1.5
G0 Z-1.0
G1 F300.0 Z-2.0
G1 F800.0 X12.3
G1 X4.5
G1 X4.3 Z0.0
G1 X2.1
G1 X1.9 Z-2.0
G1 X-12.5
G0 Z3.0
G0 X12.5 Y-1.9
G0 Z-1.0
G1 F300.0 Z-2.0
G1 F800.0 X12.3
G1 X4.5
G1 X4.3 Z0.0
G1 X2.1
G1 X1.9 Z-2.0
G1 X-12.3
G1 X-12.5 Z-11.2
G0 Z3.0
G0 X12.5 Y-2.3
G0 Z-1.0
G1 F300.0 Z-2.0
G1 F800.0 X12.3
G1 X4.5
G1 X4.3 Z0.0
G1 X2.1
G1 X1.9 Z-2.0
G1 X-12.5
G0 Z3.0
G0 X12.5 Y-2.7
G0 Z-1.0
G1 F300.0 Z-2.0
G1 F800.0 X12.3
G1 X4.5
G1 X4.3 Z0.0
G1 X2.1
G1 X1.9 Z-2.0
G1 X-12.5
G0 Z3.0
G0 X12.5 Y-3.1
G0 Z-1.0
G1 F300.0 Z-2.0
G1 F800.0 X12.3
G1 X4.5
G1 X4.3 Z0.0
G1 X2.1
G1 X1.9 Z-2.0
G1 X-12.5
G0 Z3.0
G0 X12.5 Y-3.5
G0 Z-1.0
G1 F300.0 Z-2.0
G1 F800.0 X12.3
G1 X4.5
G1 X4.3 Z0.0
G1 X-4.5
G1 X-4.7 Z-2.0
G1 X-12.5
G0 Z3.0
G0 X12.5 Y-3.9
G0 Z-1.0
G1 F300.0 Z-2.0
G1 F800.0 X12.3
G1 X4.5
G1 X4.3 Z0.0
G1 X-4.7
G1 X-4.9 Z-2.0
G1 X-12.5
G0 Z3.0
G0 X12.5 Y-4.3
G0 Z-1.0
G1 F300.0 Z-2.0
G1 F800.0 X12.3
G1 X4.5
G1 X4.3 Z0.0
G1 X-4.7
G1 X-4.9 Z-2.0
G1 X-12.5
G0 Z3.0
G0 X12.5 Y-4.7
G0 Z-1.0
G1 F300.0 Z-2.0
G1 F800.0 X12.3
G1 X4.3
G1 X4.1 Z0.0
G1 X-4.7
G1 X-4.9 Z-2.0
G1 X-12.5
G0 Z3.0
G0 X12.5 Y-5.1
G0 Z-1.0
G1 F300.0 Z-2.0
G1 F800.0 X12.3
G1 X3.9
G1 X3.7 Z0.0
G1 X-4.7
G1 X-4.9 Z-2.0
G1 X-12.5
G0 Z3.0
G0 X12.5 Y-5.5
G0 Z-1.0
G1 F300.0 Z-2.0
G1 F800.0 X12.3
G1 X3.5
G1 X3.3 Z0.0
G1 X-4.5
G1 X-4.7 Z-2.0
G1 X-12.5
G0 Z3.0
G0 X12.5 Y-5.9
G0 Z-1.0
G1 F300.0 Z-2.0
G1 F800.0 X12.3
G1 X2.7
G1 X2.5 Z0.0
G1 X-4.1
G1 X-4.3 Z-2.0
G1 X-12.5
G0 Z3.0
G0 X12.5 Y-6.3
G0 Z-1.0
G1 F300.0 Z-2.0
G1 F800.0 X12.3
G1 X-12.5
G0 Z3.0
G0 X12.5 Y-6.7
G0 Z-1.0
G1 F300.0 Z-2.0
G1 F800.0 X12.3
G1 X-12.5
G0 Z3.0
G0 X12.5 Y-7.1
G0 Z-1.0
G1 F300.0 Z-2.0
G1 F800.0 X12.3
G1 X-12.5
G0 Z3.0
G0 X12.5 Y-7.5
G0 Z-1.0
G1 F300.0 Z-2.0
G1 F800.0 X12.3
G1 X-12.5
G0 Z3.0
G0 X12.5 Y-7.9
G0 Z-1.0
G1 F300.0 Z-2.0
G1 F800.0 X12.3
G1 X-12.5
G0 Z3.0
G0 X12.5 Y-8.3
G0 Z-1.0
G1 F300.0 Z-2.0
G1 F800.0 X12.3
G1 X-12.5
G0 Z3.0
G0 X12.5 Y-8.7
G0 Z-1.0
G1 F300.0 Z-2.0
G1 F800.0 X12.3
G1 X-12.5
G0 Z3.0
G0 X12.5 Y-9.1
G0 Z-1.0
G1 F300.0 Z-2.0
G1 F800.0 X12.3
G1 X-12.5
G0 Z3.0
G0 X12.5 Y-9.5
G0 Z-1.0
G1 F300.0 Z-2.0
G1 F800.0 X12.3
G1 X-12.5
G0 Z3.0
G0 X12.5 Y-9.9
G0 Z-1.0
G1 F300.0 Z-2.0
G1 F800.0 X12.3
G1 X-12.5
G0 Z3.0
G0 X12.5 Y-10.3
G0 Z-1.0
G1 F300.0 Z-2.0
G1 F800.0 X12.3
G1 X-12.5
G0 Z3.0
G0 X12.5 Y-10.7
G0 Z-1.0
G1 F300.0 Z-2.0
G1 F800.0 X12.3
G1 X-12.5
G0 Z3.0
G0 X12.5 Y-11.1
G0 Z-1.0
G1 F300.0 Z-2.0
G1 F800.0 X12.3
G1 X-12.5
G0 Z3.0
G0 X12.5 Y-11.5
G0 Z-1.0
G1 F300.0 Z-2.0
G1 F800.0 X12.3
G1 X-12.5
G0 Z3.0
G0 X12.5 Y-12.3
G0 Z-1.0
G1 F300.0 Z-2.0
G1 F800.0 X12.3
G1 X-12.5
G0 Z3.0
G0 Y-11.7
G0 Z-1.0
G1 F300.0 Z-2.0
G1 F800.0 X12.3
G1 X12.5
G0 Z3.0
G0 X-12.5 Y-11.3
G0 Z-1.0
G1 F300.0 Z-2.0
G1 F800.0 X12.3
G1 X12.5
G0 Z3.0
G0 X-12.5 Y-10.9
G0 Z-1.0
G1 F300.0 Z-2.0
G1 F800.0 X12.3
G1 X12.5
G0 Z3.0
G0 X-12.5 Y-10.5
G0 Z-1.0
G1 F300.0 Z-2.0
G1 F800.0 X12.3
G1 X12.5
G0 Z3.0
G0 X-12.5 Y-10.1
G0 Z-1.0
G1 F300.0 Z-2.0
G1 F800.0 X12.3
G1 X12.5
G0 Z3.0
G0 X-12.5 Y-9.7
G0 Z-1.0
G1 F300.0 Z-2.0
G1 F800.0 X12.3
G1 X12.5
G0 Z3.0
G0 X-12.5 Y-9.3
G0 Z-1.0
G1 F300.0 Z-2.0
G1 F800.0 X12.3
G1 X12.5
G0 Z3.0
G0 X-12.5 Y-8.9
G0 Z-1.0
G1 F300.0 Z-2.0
G1 F800.0 X12.3
G1 X12.5 Z-10.8
G0 Z3.0
G0 X-12.5 Y-8.5
G0 Z-1.0
G1 F300.0 Z-2.0
G1 F800.0 X12.3
G1 X12.5
G0 Z3.0
G0 X-12.5 Y-8.1
G0 Z-1.0
G1 F300.0 Z-2.0
G1 F800.0 X12.3
G1 X12.5
G0 Z3.0
G0 X-12.5 Y-7.7
G0 Z-1.0
G1 F300.0 Z-2.0
G1 F800.0 X12.3
G1 X12.5
G0 Z3.0
G0 X-12.5 Y-7.3
G0 Z-1.0
G1 F300.0 Z-2.0
G1 F800.0 X12.3
G1 X12.5
G0 Z3.0
G0 X-12.5 Y-6.9
G0 Z-1.0
G1 F300.0 Z-2.0
G1 F800.0 X12.3
G1 X12.5
G0 Z3.0
G0 X-12.5 Y-6.5
G0 Z-1.0
G1 F300.0 Z-2.0
G1 F800.0 X12.3
G1 X12.5
G0 Z3.0
G0 X-12.5 Y-6.1
G0 Z-1.0
G1 F300.0 Z-2.0
G1 F800.0 X12.3
G1 X12.5
G0 Z3.0
G0 X-12.5 Y-5.7
G0 Z-1.0
G1 F300.0 Z-2.0
G1 F800.0 X-4.5
G1 X-4.3 Z0.0
G1 X2.9
G1 X3.1 Z-2.0
G1 X12.3
G1 X12.5
G0 Z3.0
G0 X-12.5 Y-5.3
G0 Z-1.0
G1 F300.0 Z-2.0
G1 F800.0 X-4.9
G1 X-4.7 Z0.0
G1 X3.5
G1 X3.7 Z-2.0
G1 X12.3
G1 X12.5
G0 Z3.0
G0 X-12.5 Y-4.9
G0 Z-1.0
G1 F300.0 Z-2.0
G1 F800.0 X-4.9
G1 X-4.7 Z0.0
G1 X3.9
G1 X4.1 Z-2.0
G1 X12.3
G1 X12.5
G0 Z3.0
G0 X-12.5 Y-4.5
G0 Z-1.0
G1 F300.0 Z-2.0
G1 F800.0 X-4.9
G1 X-4.7 Z0.0
G1 X4.1
G1 X4.3 Z-2.0
G1 X12.3
G1 X12.5
G0 Z3.0
G0 X-12.5 Y-4.1
G0 Z-1.0
G1 F300.0 Z-2.0
G1 F800.0 X-4.9
G1 X-4.7 Z0.0
G1 X4.3
G1 X4.5 Z-2.0
G1 X12.3
G1 X12.5
G0 Z3.0
G0 X-12.5 Y-3.7
G0 Z-1.0
G1 F300.0 Z-2.0
G1 F800.0 X-4.7
G1 X-4.5 Z0.0
G1 X4.3
G1 X4.5 Z-2.0
G1 X12.3
G1 X12.5
G0 Z3.0
G0 X-12.5 Y-3.3
G0 Z-1.0
G1 F300.0 Z-2.0
G1 F800.0 X-4.3
G1 X-4.1 Z0.0
G1 X4.3
G1 X4.5 Z-2.0
G1 X12.3
G1 X12.5
G0 Z3.0
G0 X-12.5 Y-2.9
G0 Z-1.0
G1 F300.0 Z-2.0
G1 F800.0 X1.9
G1 X2.1 Z0.0
G1 X4.3
G1 X4.5 Z-2.0
G1 X12.3
G1 X12.5
G0 Z3.0
G0 X-12.5 Y-2.5
G0 Z-1.0
G1 F300.0 Z-2.0
G1 F800.0 X1.9
G1 X2.1 Z0.0
G1 X4.3
G1 X4.5 Z-2.0
G1 X12.3
G1 X12.5
G0 Z3.0
G0 X-12.5 Y-2.1
G0 Z-1.0
G1 F300.0 Z-2.0
G1 F800.0 X1.9
G1 X2.1 Z0.0
G1 X4.3
G1 X4.5 Z-2.0
G1 X12.3
G1 X12.5
G0 Z3.0
G0 X-12.5 Y-1.7
G0 Z-1.0
G1 F300.0 Z-2.0
G1 F800.0 X1.9
G1 X2.1 Z0.0
G1 X4.3
G1 X4.5 Z-2.0
G1 X12.3
G1 X12.5
G0 Z3.0
G0 X-12.5 Y-1.3
G0 Z-1.0
G1 F300.0 Z-2.0
G1 F800.0 X1.9
G1 X2.1 Z0.0
G1 X4.3
G1 X4.5 Z-2.0
G1 X12.3
G1 X12.5 Z-10.8
G0 Z3.0
G0 X-12.5 Y-0.9
G0 Z-1.0
G1 F300.0 Z-2.0
G1 F800.0 X-3.5
G1 X-3.3 Z0.0
G1 X4.3
G1 X4.5 Z-2.0
G1 X12.3
G1 X12.5
G0 Z3.0
G0 X-12.5 Y-0.5
G0 Z-1.0
G1 F300.0 Z-2.0
G1 F800.0 X-4.1
G1 X-3.9 Z0.0
G1 X4.3
G1 X4.5 Z-2.0
G1 X12.3
G1 X12.5
G0 Z3.0
G0 X-12.5 Y-0.1
G0 Z-1.0
G1 F300.0 Z-2.0
G1 F800.0 X-4.5
G1 X-4.3 Z0.0
G1 X4.3
G1 X4.5 Z-2.0
G1 X12.3
G1 X12.5
G0 Z3.0
G0 X-12.5 Y0.3
G0 Z-1.0
G1 F300.0 Z-2.0
G1 F800.0 X-4.7
G1 X-4.5 Z0.0
G1 X4.1
G1 X4.3 Z-2.0
G1 X12.3
G1 X12.5
G0 Z3.0
G0 X-12.5 Y0.7
G0 Z-1.0
G1 F300.0 Z-2.0
G1 F800.0 X-4.9
G1 X-4.7 Z0.0
G1 X3.7
G1 X3.9 Z-2.0
G1 X12.3
G1 X12.5
G0 Z3.0
G0 X-12.5 Y1.1
G0 Z-1.0
G1 F300.0 Z-2.0
G1 F800.0 X-4.9
G1 X-4.7 Z0.0
G1 X3.3
G1 X3.5 Z-2.0
G1 X12.3
G1 X12.5
G0 Z3.0
G0 X-12.5 Y1.5
G0 Z-1.0
G1 F300.0 Z-2.0
G1 F800.0 X-4.9
G1 X-4.7 Z0.0
G1 X2.7
G1 X2.9 Z-2.0
G1 X12.3
G1 X12.5
G0 Z3.0
G0 X-12.5 Y1.9
G0 Z-1.0
G1 F300.0 Z-2.0
G1 F800.0 X-4.9
G1 X-4.7 Z0.0
G1 X-2.5
G1 X-2.3 Z-2.0
G1 X12.3
G1 X12.5
G0 Z3.0
G0 X-12.5 Y2.3
G0 Z-1.0
G1 F300.0 Z-2.0
G1 F800.0 X-4.9
G1 X-4.7 Z0.0
G1 X-2.5
G1 X-2.3 Z-2.0
G1 X12.3
G1 X12.5
G0 Z3.0
G0 X-12.5 Y2.7
G0 Z-1.0
G1 F300.0 Z-2.0
G1 F800.0 X-4.9
G1 X-4.7 Z0.0
G1 X-2.5
G1 X-2.3 Z-2.0
G1 X12.3
G1 X12.5
G0 Z3.0
G0 X-12.5 Y3.1
G0 Z-1.0
G1 F300.0 Z-2.0
G1 F800.0 X-4.9
G1 X-4.7 Z0.0
G1 X-2.5
G1 X-2.3 Z-2.0
G1 X12.3
G1 X12.5
G0 Z3.0
G0 X-12.5 Y3.5
G0 Z-1.0
G1 F300.0 Z-2.0
G1 F800.0 X-4.9
G1 X-4.7 Z0.0
G1 X-2.5
G1 X-2.3 Z-2.0
G1 X12.3
G1 X12.5
G0 Z3.0
G0 X-12.5 Y3.9
G0 Z-1.0
G1 F300.0 Z-2.0
G1 F800.0 X-4.9
G1 X-4.7 Z0.0
G1 X3.7
G1 X3.9 Z-2.0
G1 X12.3
G1 X12.5
G0 Z3.0
G0 X-12.5 Y4.3
G0 Z-1.0
G1 F300.0 Z-2.0
G1 F800.0 X-4.9
G1 X-4.7 Z0.0
G1 X4.1
G1 X4.3 Z-2.0
G1 X12.3
G1 X12.5
G0 Z3.0
G0 X-12.5 Y4.7
G0 Z-1.0
G1 F300.0 Z-2.0
G1 F800.0 X-4.9
G1 X-4.7 Z0.0
G1 X4.3
G1 X4.5 Z-2.0
G1 X12.3
G1 X12.5
G0 Z3.0
G0 X-12.5 Y5.1
G0 Z-1.0
G1 F300.0 Z-2.0
G1 F800.0 X-4.7
G1 X-4.5 Z0.0
G1 X4.3
G1 X4.5 Z-2.0
G1 X12.3
G1 X12.5
G0 Z3.0
G0 X-12.5 Y5.5
G0 Z-1.0
G1 F300.0 Z-2.0
G1 F800.0 X-4.5
G1 X-4.3 Z0.0
G1 X4.3
G1 X4.5 Z-2.0
G1 X12.3
G1 X12.5
G0 Z3.0
G0 X-12.5 Y5.9
G0 Z-1.0
G1 F300.0 Z-2.0
G1 F800.0 X-4.1
G1 X-3.9 Z0.0
G1 X4.3
G1 X4.5 Z-2.0
G1 X12.3
G1 X12.5
G0 Z3.0
G0 X-12.5 Y6.3
G0 Z-1.0
G1 F300.0 Z-2.0
G1 F800.0 X-3.5
G1 X-3.3 Z0.0
G1 X4.1
G1 X4.3 Z-2.0
G1 X12.3
G1 X12.5
G0 Z3.0
G0 X-12.5 Y6.7
G0 Z-1.0
G1 F300.0 Z-2.0
G1 F800.0 X12.3
G1 X12.5
G0 Z3.0
G0 X-12.5 Y7.1
G0 Z-1.0
G1 F300.0 Z-2.0
G1 F800.0 X12.3
G1 X12.5 Z-10.8
G0 Z3.0
G0 X-12.5 Y7.5
G0 Z-1.0
G1 F300.0 Z-2.0
G1 F800.0 X12.3
G1 X12.5
G0 Z3.0
G0 X-12.5 Y7.9
G0 Z-1.0
G1 F300.0 Z-2.0
G1 F800.0 X12.3
G1 X12.5
G0 Z3.0
G0 X-12.5 Y8.3
G0 Z-1.0
G1 F300.0 Z-2.0
G1 F800.0 X12.3
G1 X12.5
G0 Z3.0
G0 X-12.5 Y8.7
G0 Z-1.0
G1 F300.0 Z-2.0
G1 F800.0 X12.3
G1 X12.5
G0 Z3.0
G0 X-12.5 Y9.1
G0 Z-1.0
G1 F300.0 Z-2.0
G1 F800.0 X12.3
G1 X12.5
G0 Z3.0
G0 X-12.5 Y9.5
G0 Z-1.0
G1 F300.0 Z-2.0
G1 F800.0 X12.3
G1 X12.5
G0 Z3.0
G0 X-12.5 Y9.9
G0 Z-1.0
G1 F300.0 Z-2.0
G1 F800.0 X12.3
G1 X12.5
G0 Z3.0
G0 X-12.5 Y10.3
G0 Z-1.0
G1 F300.0 Z-2.0
G1 F800.0 X12.3
G1 X12.5
G0 Z3.0
G0 X-12.5 Y10.7
G0 Z-1.0
G1 F300.0 Z-2.0
G1 F800.0 X12.3
G1 X12.5
G0 Z3.0
G0 X-12.5 Y11.1
G0 Z-1.0
G1 F300.0 Z-2.0
G1 F800.0 X12.3
G1 X12.5
G0 Z3.0
G0 X-12.5 Y11.5
G0 Z-1.0
G1 F300.0 Z-2.0
G1 F800.0 X12.3
G1 X12.5
G0 Z3.0
G0 X-12.5 Y11.9
G0 Z-1.0
G1 F300.0 Z-2.0
G1 F800.0 X12.3
G1 X12.5
G0 Z3.0
G0 Y12.1
G0 Z-1.0
G1 F300.0 Z-2.0
G1 F800.0 X12.3
G1 X-12.5
G0 Z3.0
G0 X12.5 Y11.7
G0 Z-1.0
G1 F300.0 Z-2.0
G1 F800.0 X12.3
G1 X-12.5
G0 Z3.0
G0 X12.5 Y11.3
G0 Z-1.0
G1 F300.0 Z-2.0
G1 F800.0 X12.3
G1 X-12.5
G0 Z3.0
G0 X12.5 Y10.9
G0 Z-1.0
G1 F300.0 Z-2.0
G1 F800.0 X12.3
G1 X-12.5
G0 Z3.0
G0 X12.5 Y10.5
G0 Z-1.0
G1 F300.0 Z-2.0
G1 F800.0 X12.3
G1 X-12.5
G0 Z3.0
G0 X12.5 Y10.1
G0 Z-1.0
G1 F300.0 Z-2.0
G1 F800.0 X12.3
G1 X-12.5
G0 Z3.0
G0 X12.5 Y9.7
G0 Z-1.0
G1 F300.0 Z-2.0
G1 F800.0 X12.3
G1 X-12.5
G0 Z3.0
G0 X12.5 Y9.3
G0 Z-1.0
G1 F300.0 Z-2.0
G1 F800.0 X12.3
G1 X-12.5
G0 Z3.0
G0 X12.5 Y8.9
G0 Z-1.0
G1 F300.0 Z-2.0
G1 F800.0 X12.3
G1 X-12.5
G0 Z3.0
G0 X12.5 Y8.5
G0 Z-1.0
G1 F300.0 Z-2.0
G1 F800.0 X12.3
G1 X-12.5
G0 Z3.0
G0 X12.5 Y8.1
G0 Z-1.0
G1 F300.0 Z-2.0
G1 F800.0 X12.3
G1 X-12.5
G0 Z3.0
G0 X12.5 Y7.7
G0 Z-1.0
G1 F300.0 Z-2.0
G1 F800.0 X12.3
G1 X-12.5
G0 Z3.0
G0 X12.5 Y7.3
G0 Z-1.0
G1 F300.0 Z-2.0
G1 F800.0 X12.3
G1 X-12.5
G0 Z3.0
G0 X12.5 Y6.9
G0 Z-1.0
G1 F300.0 Z-2.0
G1 F800.0 X12.3
G1 X-12.5
G0 Z3.0
G0 X12.5 Y6.5
G0 Z-1.0
G1 F300.0 Z-2.0
G1 F800.0 X12.3
G1 X4.1
G1 X3.9 Z0.0
G1 X-2.9
G1 X-3.1 Z-2.0
G1 X-12.5
G0 Z3.0
G0 X12.5 Y6.1
G0 Z-1.0
G1 F300.0 Z-2.0
G1 F800.0 X12.3
G1 X4.5
G1 X4.3 Z0.0
G1 X-3.7
G1 X-3.9 Z-2.0
G1 X-12.5
G0 Z3.0
G0 X12.5 Y5.7
G0 Z-1.0
G1 F300.0 Z-2.0
G1 F800.0 X12.3
G1 X4.5
G1 X4.3 Z0.0
G1 X-4.1
G1 X-4.3 Z-2.0
G1 X-12.5
G0 Z3.0
G0 X12.5 Y5.3
G0 Z-1.0
G1 F300.0 Z-2.0
G1 F800.0 X12.3
G1 X4.5
G1 X4.3 Z0.0
G1 X-4.3
G1 X-4.5 Z-2.0
G1 X-12.5
G0 Z3.0
G0 X12.5 Y4.9
G0 Z-1.0
G1 F300.0 Z-2.0
G1 F800.0 X12.3
G1 X4.5
G1 X4.3 Z0.0
G1 X-4.5
G1 X-4.7 Z-2.0
G1 X-12.5
G0 Z3.0
G0 X12.5 Y4.5
G0 Z-1.0
G1 F300.0 Z-2.0
G1 F800.0 X12.3
G1 X4.5
G1 X4.3 Z0.0
G1 X-4.7
G1 X-4.9 Z-2.0
G1 X-12.5
G0 Z3.0
G0 X12.5 Y4.1
G0 Z-1.0
G1 F300.0 Z-2.0
G1 F800.0 X12.3
G1 X4.3
G1 X4.1 Z0.0
G1 X-4.7
G1 X-4.9 Z-2.0
G1 X-12.5
G0 Z3.0
G0 X12.5 Y3.7
G0 Z-1.0
G1 F300.0 Z-2.0
G1 F800.0 X12.3
G1 X-2.3
G1 X-2.5 Z0.0
G1 X-4.7
G1 X-4.9 Z-2.0
G1 X-12.5
G0 Z3.0
G0 X12.5 Y3.3
G0 Z-1.0
G1 F300.0 Z-2.0
G1 F800.0 X12.3
G1 X-2.3
G1 X-2.5 Z0.0
G1 X-4.7
G1 X-4.9 Z-2.0
G1 X-12.5
G0 Z3.0
G0 X12.5 Y2.9
G0 Z-1.0
G1 F300.0 Z-2.0
G1 F800.0 X12.3
G1 X-2.3
G1 X-2.5 Z0.0
G1 X-4.7
G1 X-4.9 Z-2.0
G1 X-12.5
G0 Z3.0
G0 X12.5 Y2.5
G0 Z-1.0
G1 F300.0 Z-2.0
G1 F800.0 X12.3
G1 X-2.3
G1 X-2.5 Z0.0
G1 X-4.7
G1 X-4.9 Z-2.0
G1 X-12.5
G0 Z3.0
G0 X12.5 Y2.1
G0 Z-1.0
G1 F300.0 Z-2.0
G1 F800.0 X12.3
G1 X-2.3
G1 X-2.5 Z0.0
G1 X-4.7
G1 X-4.9 Z-2.0
G1 X-12.5
G0 Z3.0
G0 X12.5 Y1.7
G0 Z-1.0
G1 F300.0 Z-2.0
G1 F800.0 X12.3
G1 X-2.3
G1 X-2.5 Z0.0
G1 X-4.7
G1 X-4.9 Z-2.0
G1 X-12.5
G0 Z3.0
G0 X12.5 Y1.3
G0 Z-1.0
G1 F300.0 Z-2.0
G1 F800.0 X12.3
G1 X3.3
G1 X3.1 Z0.0
G1 X-4.7
G1 X-4.9 Z-2.0
G1 X-12.5
G0 Z3.0
G0 X12.5 Y0.9
G0 Z-1.0
G1 F300.0 Z-2.0
G1 F800.0 X12.3
G1 X3.7
G1 X3.5 Z0.0
G1 X-4.7
G1 X-4.9 Z-2.0
G1 X-12.5
G0 Z3.0
G0 X12.5 Y0.5
G0 Z-1.0
G1 F300.0 Z-2.0
G1 F800.0 X12.3
G1 X4.1
G1 X3.9 Z0.0
G1 X-4.5
G1 X-4.7 Z-2.0
G1 X-12.5
G0 Z3.0
G0 X12.5 Y0.1
G0 Z-1.0
G1 F300.0 Z-2.0
G1 F800.0 X12.3
G1 X4.3
G1 X4.1 Z0.0
G1 X-4.3
G1 X-4.5 Z-2.0
G1 X-12.5
G0 Z3.0
G0 X12.5 Y-0.3
G0 Z-1.0
G1 F300.0 Z-2.0
G1 F800.0 X12.3
G1 X4.5
G1 X4.3 Z0.0
G1 X-4.1
G1 X-4.3 Z-2.0
G1 X-12.5
G0 Z3.0
G0 X12.5 Y-0.7
G0 Z-1.0
G1 F300.0 Z-2.0
G1 F800.0 X12.3
G1 X4.5
G1 X4.3 Z0.0
G1 X-3.7
G1 X-3.9 Z-2.0
G1 X-12.5
G0 Z3.0
G0 X12.5 Y-1.1
G0 Z-1.0
G1 F300.0 Z-2.0
G1 F800.0 X12.3
G1 X4.5
G1 X4.3 Z0.0
G1 X-2.7
G1 X-2.9 Z-2.0
G1 X-12.5
G0 Z3.0
G0 X12.5 Y-1.5
G0 Z-1.0
G1 F300.0 Z-2.0
G1 F800.0 X12.3
G1 X4.5
G1 X4.3 Z0.0
G1 X2.1
G1 X1.9 Z-2.0
G1 X-12.5
G0 Z3.0
G0 X12.5 Y-1.9
G0 Z-1.0
G1 F300.0 Z-2.0
G1 F800.0 X12.3
G1 X4.5
G1 X4.3 Z0.0
G1 X2.1
G1 X1.9 Z-2.0
G1 X-12.3
G1 X-12.5 Z-10.4
G0 Z3.0
G0 X12.5 Y-2.3
G0 Z-1.0
G1 F300.0 Z-2.0
G1 F800.0 X12.3
G1 X4.5
G1 X4.3 Z0.0
G1 X2.1
G1 X1.9 Z-2.0
G1 X-12.5
G0 Z3.0
G0 X12.5 Y-2.7
G0 Z-1.0
G1 F300.0 Z-2.0
G1 F800.0 X12.3
G1 X4.5
G1 X4.3 Z0.0
G1 X2.1
G1 X1.9 Z-2.0
G1 X-12.5
G0 Z3.0
G0 X12.5 Y-3.1
G0 Z-1.0
G1 F300.0 Z-2.0
G1 F800.0 X12.3
G1 X4.5
G1 X4.3 Z0.0
G1 X2.1
G1 X1.9 Z-2.0
G1 X-12.5
G0 Z3.0
G0 X12.5 Y-3.5
G0 Z-1.0
G1 F300.0 Z-2.0
G1 F800.0 X12.3
G1 X4.5
G1 X4.3 Z0.0
G1 X-4.5
G1 X-4.7 Z-2.0
G1 X-12.5
G0 Z3.0
G0 X12.5 Y-3.9
G0 Z-1.0
G1 F300.0 Z-2.0
G1 F800.0 X12.3
G1 X4.5
G1 X4.3 Z0.0
G1 X-4.7
G1 X-4.9 Z-2.0
G1 X-12.5
G0 Z3.0
G0 X12.5 Y-4.3
G0 Z-1.0
G1 F300.0 Z-2.0
G1 F800.0 X12.3
G1 X4.5
G1 X4.3 Z0.0
G1 X-4.7
G1 X-4.9 Z-2.0
G1 X-12.5
G0 Z3.0
G0 X12.5 Y-4.7
G0 Z-1.0
G1 F300.0 Z-2.0
G1 F800.0 X12.3
G1 X4.3
G1 X4.1 Z0.0
G1 X-4.7
G1 X-4.9 Z-2.0
G1 X-12.5
G0 Z3.0
G0 X12.5 Y-5.1
G0 Z-1.0
G1 F300.0 Z-2.0
G1 F800.0 X12.3
G1 X3.9
G1 X3.7 Z0.0
G1 X-4.7
G1 X-4.9 Z-2.0
G1 X-12.5
G0 Z3.0
G0 X12.5 Y-5.5
G0 Z-1.0
G1 F300.0 Z-2.0
G1 F800.0 X12.3
G1 X3.5
G1 X3.3 Z0.0
G1 X-4.5
G1 X-4.7 Z-2.0
G1 X-12.5
G0 Z3.0
G0 X12.5 Y-5.9
G0 Z-1.0
G1 F300.0 Z-2.0
G1 F800.0 X12.3
G1 X2.7
G1 X2.5 Z0.0
G1 X-4.1
G1 X-4.3 Z-2.0
G1 X-12.5
G0 Z3.0
G0 X12.5 Y-6.3
G0 Z-1.0
G1 F300.0 Z-2.0
G1 F800.0 X12.3
G1 X-12.5
G0 Z3.0
G0 X12.5 Y-6.7
G0 Z-1.0
G1 F300.0 Z-2.0
G1 F800.0 X12.3
G1 X-12.5
G0 Z3.0
G0 X12.5 Y-7.1
G0 Z-1.0
G1 F300.0 Z-2.0
G1 F800.0 X12.3
G1 X-12.5
G0 Z3.0
G0 X12.5 Y-7.5
G0 Z-1.0
G1 F300.0 Z-2.0
G1 F800.0 X12.3
G1 X-12.5
G0 Z3.0
G0 X12.5 Y-7.9
G0 Z-1.0
G1 F300.0 Z-2.0
G1 F800.0 X12.3
G1 X-12.5
G0 Z3.0
G0 X12.5 Y-8.3
G0 Z-1.0
G1 F300.0 Z-2.0
G1 F800.0 X12.3
G1 X-12.5
G0 Z3.0
G0 X12.5 Y-8.7
G0 Z-1.0
G1 F300.0 Z-2.0
G1 F800.0 X12.3
G1 X-12.5
G0 Z3.0
G0 X12.5 Y-9.1
G0 Z-1.0
G1 F300.0 Z-2.0
G1 F800.0 X12.3
G1 X-12.5
G0 Z3.0
G0 X12.5 Y-9.5
G0 Z-1.0
G1 F300.0 Z-2.0
G1 F800.0 X12.3
G1 X-12.5
G0 Z3.0
G0 X12.5 Y-9.9
G0 Z-1.0
G1 F300.0 Z-2.0
G1 F800.0 X12.3
G1 X-12.5
G0 Z3.0
G0 X12.5 Y-10.3
G0 Z-1.0
G1 F300.0 Z-2.0
G1 F800.0 X12.3
G1 X-12.5
G0 Z3.0
G0 X12.5 Y-10.7
G0 Z-1.0
G1 F300.0 Z-2.0
G1 F800.0 X12.3
G1 X-12.5
G0 Z3.0
G0 X12.5 Y-11.1
G0 Z-1.0
G1 F300.0 Z-2.0
G1 F800.0 X12.3
G1 X-12.5
G0 Z3.0
G0 X12.5 Y-11.5
G0 Z-1.0
G1 F300.0 Z-2.0
G1 F800.0 X12.3
G1 X-12.5
G0 Z3.0
G0 X12.5 Y-12.3
G0 Z-1.0
G1 F300.0 Z-2.0
G1 F800.0 X12.3
G1 X-12.5
G0 Z3.0
G0 Y-11.7
G0 Z-1.0
G1 F300.0 Z-2.0
G1 F800.0 X12.3
G1 X12.5
G0 Z3.0
G0 X-12.5 Y-11.3
G0 Z-1.0
G1 F300.0 Z-2.0
G1 F800.0 X12.3
G1 X12.5
G0 Z3.0
G0 X-12.5 Y-10.9
G0 Z-1.0
G1 F300.0 Z-2.0
G1 F800.0 X12.3
G1 X12.5
G0 Z3.0
G0 X-12.5 Y-10.5
G0 Z-1.0
G1 F300.0 Z-2.0
G1 F800.0 X12.3
G1 X12.5
G0 Z3.0
G0 X-12.5 Y-10.1
G0 Z-1.0
G1 F300.0 Z-2.0
G1 F800.0 X12.3
G1 X12.5
G0 Z3.0
G0 X-12.5 Y-9.7
G0 Z-1.0
G1 F300.0 Z-2.0
G1 F800.0 X12.3
G1 X12.5
G0 Z3.0
G0 X-12.5 Y-9.3
G0 Z-1.0
G1 F300.0 Z-2.0
G1 F800.0 X12.3
G1 X12.5
G0 Z3.0
G0 X-12.5 Y-8.9
G0 Z-1.0
G1 F300.0 Z-2.0
G1 F800.0 X12.3
G1 X12.5 Z-10.0
G0 Z3.0
G0 X-12.5 Y-8.5
G0 Z-1.0
G1 F300.0 Z-2.0
G1 F800.0 X12.3
G1 X12.5
G0 Z3.0
G0 X-12.5 Y-8.1
G0 Z-1.0
G1 F300.0 Z-2.0
G1 F800.0 X12.3
G1 X12.5
G0 Z3.0
G0 X-12.5 Y-7.7
G0 Z-1.0
G1 F300.0 Z-2.0
G1 F800.0 X12.3
G1 X12.5
G0 Z3.0
G0 X-12.5 Y-7.3
G0 Z-1.0
G1 F300.0 Z-2.0
G1 F800.0 X12.3
G1 X12.5
G0 Z3.0
G0 X-12.5 Y-6.9
G0 Z-1.0
G1 F300.0 Z-2.0
G1 F800.0 X12.3
G1 X12.5
G0 Z3.0
G0 X-12.5 Y-6.5
G0 Z-1.0
G1 F300.0 Z-2.0
G1 F800.0 X12.3
G1 X12.5
G0 Z3.0
G0 X-12.5 Y-6.1
G0 Z-1.0
G1 F300.0 Z-2.0
G1 F800.0 X12.3
G1 X12.5
G0 Z3.0
G0 X-12.5 Y-5.7
G0 Z-1.0
G1 F300.0 Z-2.0
G1 F800.0 X-4.5
G1 X-4.3 Z0.0
G1 X2.9
G1 X3.1 Z-2.0
G1 X12.3
G1 X12.5
G0 Z3.0
G0 X-12.5 Y-5.3
G0 Z-1.0
G1 F300.0 Z-2.0
G1 F800.0 X-4.9
G1 X-4.7 Z0.0
G1 X3.5
G1 X3.7 Z-2.0
G1 X12.3
G1 X12.5
G0 Z3.0
G0 X-12.5 Y-4.9
G0 Z-1.0
G1 F300.0 Z-2.0
G1 F800.0 X-4.9
G1 X-4.7 Z0.0
G1 X3.9
G1 X4.1 Z-2.0
G1 X12.3
G1 X12.5
G0 Z3.0
G0 X-12.5 Y-4.5
G0 Z-1.0
G1 F300.0 Z-2.0
G1 F800.0 X-4.9
G1 X-4.7 Z0.0
G1 X4.1
G1 X4.3 Z-2.0
G1 X12.3
G1 X12.5
G0 Z3.0
G0 X-12.5 Y-4.1
G0 Z-1.0
G1 F300.0 Z-2.0
G1 F800.0 X-4.9
G1 X-4.7 Z0.0
G1 X4.3
G1 X4.5 Z-2.0
G1 X12.3
G1 X12.5
G0 Z3.0
G0 X-12.5 Y-3.7
G0 Z-1.0
G1 F300.0 Z-2.0
G1 F800.0 X-4.7
G1 X-4.5 Z0.0
G1 X4.3
G1 X4.5 Z-2.0
G1 X12.3
G1 X12.5
G0 Z3.0
G0 X-12.5 Y-3.3
G0 Z-1.0
G1 F300.0 Z-2.0
G1 F800.0 X-4.3
G1 X-4.1 Z0.0
G1 X4.3
G1 X4.5 Z-2.0
G1 X12.3
G1 X12.5
G0 Z3.0
G0 X-12.5 Y-2.9
G0 Z-1.0
G1 F300.0 Z-2.0
G1 F800.0 X1.9
G1 X2.1 Z0.0
G1 X4.3
G1 X4.5 Z-2.0
G1 X12.3
G1 X12.5
G0 Z3.0
G0 X-12.5 Y-2.5
G0 Z-1.0
G1 F300.0 Z-2.0
G1 F800.0 X1.9
G1 X2.1 Z0.0
G1 X4.3
G1 X4.5 Z-2.0
G1 X12.3
G1 X12.5
G0 Z3.0
G0 X-12.5 Y-2.1
G0 Z-1.0
G1 F300.0 Z-2.0
G1 F800.0 X1.9
G1 X2.1 Z0.0
G1 X4.3
G1 X4.5 Z-2.0
G1 X12.3
G1 X12.5
G0 Z3.0
G0 X-12.5 Y-1.7
G0 Z-1.0
G1 F300.0 Z-2.0
G1 F800.0 X1.9
G1 X2.1 Z0.0
G1 X4.3
G1 X4.5 Z-2.0
G1 X12.3
G1 X12.5
G0 Z3.0
G0 X-12.5 Y-1.3
G0 Z-1.0
G1 F300.0 Z-2.0
G1 F800.0 X1.9
G1 X2.1 Z0.0
G1 X4.3
G1 X4.5 Z-2.0
G1 X12.3
G1 X12.5 Z-10.0
G0 Z3.0
G0 X-12.5 Y-0.9
G0 Z-1.0
G1 F300.0 Z-2.0
G1 F800.0 X-3.5
G1 X-3.3 Z0.0
G1 X4.3
G1 X4.5 Z-2.0
G1 X12.3
G1 X12.5
G0 Z3.0
G0 X-12.5 Y-0.5
G0 Z-1.0
G1 F300.0 Z-2.0
G1 F800.0 X-4.1
G1 X-3.9 Z0.0
G1 X4.3
G1 X4.5 Z-2.0
G1 X12.3
G1 X12.5
G0 Z3.0
G0 X-12.5 Y-0.1
G0 Z-1.0
G1 F300.0 Z-2.0
G1 F800.0 X-4.5
G1 X-4.3 Z0.0
G1 X4.3
G1 X4.5 Z-2.0
G1 X12.3
G1 X12.5
G0 Z3.0
G0 X-12.5 Y0.3
G0 Z-1.0
G1 F300.0 Z-2.0
G1 F800.0 X-4.7
G1 X-4.5 Z0.0
G1 X4.1
G1 X4.3 Z-2.0
G1 X12.3
G1 X12.5
G0 Z3.0
G0 X-12.5 Y0.7
G0 Z-1.0
G1 F300.0 Z-2.0
G1 F800.0 X-4.9
G1 X-4.7 Z0.0
G1 X3.7
G1 X3.9 Z-2.0
G1 X12.3
G1 X12.5
G0 Z3.0
G0 X-12.5 Y1.1
G0 Z-1.0
G1 F300.0 Z-2.0
G1 F800.0 X-4.9
G1 X-4.7 Z0.0
G1 X3.3
G1 X3.5 Z-2.0
G1 X12.3
G1 X12.5
G0 Z3.0
G0 X-12.5 Y1.5
G0 Z-1.0
G1 F300.0 Z-2.0
G1 F800.0 X-4.9
G1 X-4.7 Z0.0
G1 X2.7
G1 X2.9 Z-2.0
G1 X12.3
G1 X12.5
G0 Z3.0
G0 X-12.5 Y1.9
G0 Z-1.0
G1 F300.0 Z-2.0
G1 F800.0 X-4.9
G1 X-4.7 Z0.0
G1 X-2.5
G1 X-2.3 Z-2.0
G1 X12.3
G1 X12.5
G0 Z3.0
G0 X-12.5 Y2.3
G0 Z-1.0
G1 F300.0 Z-2.0
G1 F800.0 X-4.9
G1 X-4.7 Z0.0
G1 X-2.5
G1 X-2.3 Z-2.0
G1 X12.3
G1 X12.5
G0 Z3.0
G0 X-12.5 Y2.7
G0 Z-1.0
G1 F300.0 Z-2.0
G1 F800.0 X-4.9
G1 X-4.7 Z0.0
G1 X-2.5
G1 X-2.3 Z-2.0
G1 X12.3
G1 X12.5
G0 Z3.0
G0 X-12.5 Y3.1
G0 Z-1.0
G1 F300.0 Z-2.0
G1 F800.0 X-4.9
G1 X-4.7 Z0.0
G1 X-2.5
G1 X-2.3 Z-2.0
G1 X12.3
G1 X12.5
G0 Z3.0
G0 X-12.5 Y3.5
G0 Z-1.0
G1 F300.0 Z-2.0
G1 F800.0 X-4.9
G1 X-4.7 Z0.0
G1 X-2.5
G1 X-2.3 Z-2.0
G1 X12.3
G1 X12.5
G0 Z3.0
G0 X-12.5 Y3.9
G0 Z-1.0
G1 F300.0 Z-2.0
G1 F800.0 X-4.9
G1 X-4.7 Z0.0
G1 X3.7
G1 X3.9 Z-2.0
G1 X12.3
G1 X12.5
G0 Z3.0
G0 X-12.5 Y4.3
G0 Z-1.0
G1 F300.0 Z-2.0
G1 F800.0 X-4.9
G1 X-4.7 Z0.0
G1 X4.1
G1 X4.3 Z-2.0
G1 X12.3
G1 X12.5
G0 Z3.0
G0 X-12.5 Y4.7
G0 Z-1.0
G1 F300.0 Z-2.0
G1 F800.0 X-4.9
G1 X-4.7 Z0.0
G1 X4.3
G1 X4.5 Z-2.0
G1 X12.3
G1 X12.5
G0 Z3.0
G0 X-12.5 Y5.1
G0 Z-1.0
G1 F300.0 Z-2.0
G1 F800.0 X-4.7
G1 X-4.5 Z0.0
G1 X4.3
G1 X4.5 Z-2.0
G1 X12.3
G1 X12.5
G0 Z3.0
G0 X-12.5 Y5.5
G0 Z-1.0
G1 F300.0 Z-2.0
G1 F800.0 X-4.5
G1 X-4.3 Z0.0
G1 X4.3
G1 X4.5 Z-2.0
G1 X12.3
G1 X12.5
G0 Z3.0
G0 X-12.5 Y5.9
G0 Z-1.0
G1 F300.0 Z-2.0
G1 F800.0 X-4.1
G1 X-3.9 Z0.0
G1 X4.3
G1 X4.5 Z-2.0
G1 X12.3
G1 X12.5
G0 Z3.0
G0 X-12.5 Y6.3
G0 Z-1.0
G1 F300.0 Z-2.0
G1 F800.0 X-3.5
G1 X-3.3 Z0.0
G1 X4.1
G1 X4.3 Z-2.0
G1 X12.3
G1 X12.5
G0 Z3.0
G0 X-12.5 Y6.7
G0 Z-1.0
G1 F300.0 Z-2.0
G1 F800.0 X12.3
G1 X12.5
G0 Z3.0
G0 X-12.5 Y7.1
G0 Z-1.0
G1 F300.0 Z-2.0
G1 F800.0 X12.3
G1 X12.5 Z-10.0
G0 Z3.0
G0 X-12.5 Y7.5
G0 Z-1.0
G1 F300.0 Z-2.0
G1 F800.0 X12.3
G1 X12.5
G0 Z3.0
G0 X-12.5 Y7.9
G0 Z-1.0
G1 F300.0 Z-2.0
G1 F800.0 X12.3
G1 X12.5
G0 Z3.0
G0 X-12.5 Y8.3
G0 Z-1.0
G1 F300.0 Z-2.0
G1 F800.0 X12.3
G1 X12.5
G0 Z3.0
G0 X-12.5 Y8.7
G0 Z-1.0
G1 F300.0 Z-2.0
G1 F800.0 X12.3
G1 X12.5
G0 Z3.0
G0 X-12.5 Y9.1
G0 Z-1.0
G1 F300.0 Z-2.0
G1 F800.0 X12.3
G1 X12.5
G0 Z3.0
G0 X-12.5 Y9.5
G0 Z-1.0
G1 F300.0 Z-2.0
G1 F800.0 X12.3
G1 X12.5
G0 Z3.0
G0 X-12.5 Y9.9
G0 Z-1.0
G1 F300.0 Z-2.0
G1 F800.0 X12.3
G1 X12.5
G0 Z3.0
G0 X-12.5 Y10.3
G0 Z-1.0
G1 F300.0 Z-2.0
G1 F800.0 X12.3
G1 X12.5
G0 Z3.0
G0 X-12.5 Y10.7
G0 Z-1.0
G1 F300.0 Z-2.0
G1 F800.0 X12.3
G1 X12.5
G0 Z3.0
G0 X-12.5 Y11.1
G0 Z-1.0
G1 F300.0 Z-2.0
G1 F800.0 X12.3
G1 X12.5
G0 Z3.0
G0 X-12.5 Y11.5
G0 Z-1.0
G1 F300.0 Z-2.0
G1 F800.0 X12.3
G1 X12.5
G0 Z3.0
G0 X-12.5 Y11.9
G0 Z-1.0
G1 F300.0 Z-2.0
G1 F800.0 X12.3
G1 X12.5
G0 Z3.0
G0 Y12.1
G0 Z-1.0
G1 F300.0 Z-2.0
G1 F800.0 X12.3
G1 X-12.5
G0 Z3.0
G0 X12.5 Y11.7
G0 Z-1.0
G1 F300.0 Z-2.0
G1 F800.0 X12.3
G1 X-12.5
G0 Z3.0
G0 X12.5 Y11.3
G0 Z-1.0
G1 F300.0 Z-2.0
G1 F800.0 X12.3
G1 X-12.5
G0 Z3.0
G0 X12.5 Y10.9
G0 Z-1.0
G1 F300.0 Z-2.0
G1 F800.0 X12.3
G1 X-12.5
G0 Z3.0
G0 X12.5 Y10.5
G0 Z-1.0
G1 F300.0 Z-2.0
G1 F800.0 X12.3
G1 X-12.5
G0 Z3.0
G0 X12.5 Y10.1
G0 Z-1.0
G1 F300.0 Z-2.0
G1 F800.0 X12.3
G1 X-12.5
G0 Z3.0
G0 X12.5 Y9.7
G0 Z-1.0
G1 F300.0 Z-2.0
G1 F800.0 X12.3
G1 X-12.5
G0 Z3.0
G0 X12.5 Y9.3
G0 Z-1.0
G1 F300.0 Z-2.0
G1 F800.0 X12.3
G1 X-12.5
G0 Z3.0
G0 X12.5 Y8.9
G0 Z-1.0
G1 F300.0 Z-2.0
G1 F800.0 X12.3
G1 X-12.5
G0 Z3.0
G0 X12.5 Y8.5
G0 Z-1.0
G1 F300.0 Z-2.0
G1 F800.0 X12.3
G1 X-12.5
G0 Z3.0
G0 X12.5 Y8.1
G0 Z-1.0
G1 F300.0 Z-2.0
G1 F800.0 X12.3
G1 X-12.5
G0 Z3.0
G0 X12.5 Y7.7
G0 Z-1.0
G1 F300.0 Z-2.0
G1 F800.0 X12.3
G1 X-12.5
G0 Z3.0
G0 X12.5 Y7.3
G0 Z-1.0
G1 F300.0 Z-2.0
G1 F800.0 X12.3
G1 X-12.5
G0 Z3.0
G0 X12.5 Y6.9
G0 Z-1.0
G1 F300.0 Z-2.0
G1 F800.0 X12.3
G1 X-12.5
G0 Z3.0
G0 X12.5 Y6.5
G0 Z-1.0
G1 F300.0 Z-2.0
G1 F800.0 X12.3
G1 X4.1
G1 X3.9 Z0.0
G1 X-2.9
G1 X-3.1 Z-2.0
G1 X-12.5
G0 Z3.0
G0 X12.5 Y6.1
G0 Z-1.0
G1 F300.0 Z-2.0
G1 F800.0 X12.3
G1 X4.5
G1 X4.3 Z0.0
G1 X-3.7
G1 X-3.9 Z-2.0
G1 X-12.5
G0 Z3.0
G0 X12.5 Y5.7
G0 Z-1.0
G1 F300.0 Z-2.0
G1 F800.0 X12.3
G1 X4.5
G1 X4.3 Z0.0
G1 X-4.1
G1 X-4.3 Z-2.0
G1 X-12.5
G0 Z3.0
G0 X12.5 Y5.3
G0 Z-1.0
G1 F300.0 Z-2.0
G1 F800.0 X12.3
G1 X4.5
G1 X4.3 Z0.0
G1 X-4.3
G1 X-4.5 Z-2.0
G1 X-12.5
G0 Z3.0
G0 X12.5 Y4.9
G0 Z-1.0
G1 F300.0 Z-2.0
G1 F800.0 X12.3
G1 X4.5
G1 X4.3 Z0.0
G1 X-4.5
G1 X-4.7 Z-2.0
G1 X-12.5
G0 Z3.0
G0 X12.5 Y4.5
G0 Z-1.0
G1 F300.0 Z-2.0
G1 F800.0 X12.3
G1 X4.5
G1 X4.3 Z0.0
G1 X-4.7
G1 X-4.9 Z-2.0
G1 X-12.5
G0 Z3.0
G0 X12.5 Y4.1
G0 Z-1.0
G1 F300.0 Z-2.0
G1 F800.0 X12.3
G1 X4.3
G1 X4.1 Z0.0
G1 X-4.7
G1 X-4.9 Z-2.0
G1 X-12.5
G0 Z3.0
G0 X12.5 Y3.7
G0 Z-1.0
G1 F300.0 Z-2.0
G1 F800.0 X12.3
G1 X-2.3
G1 X-2.5 Z0.0
G1 X-4.7
G1 X-4.9 Z-2.0
G1 X-12.5
G0 Z3.0
G0 X12.5 Y3.3
G0 Z-1.0
G1 F300.0 Z-2.0
G1 F800.0 X12.3
G1 X-2.3
G1 X-2.5 Z0.0
G1 X-4.7
G1 X-4.9 Z-2.0
G1 X-12.5
G0 Z3.0
G0 X12.5 Y2.9
G0 Z-1.0
G1 F300.0 Z-2.0
G1 F800.0 X12.3
G1 X-2.3
G1 X-2.5 Z0.0
G1 X-4.7
G1 X-4.9 Z-2.0
G1 X-12.5
G0 Z3.0
G0 X12.5 Y2.5
G0 Z-1.0
G1 F300.0 Z-2.0
G1 F800.0 X12.3
G1 X-2.3
G1 X-2.5 Z0.0
G1 X-4.7
G1 X-4.9 Z-2.0
G1 X-12.5
G0 Z3.0
G0 X12.5 Y2.1
G0 Z-1.0
G1 F300.0 Z-2.0
G1 F800.0 X12.3
G1 X-2.3
G1 X-2.5 Z0.0
G1 X-4.7
G1 X-4.9 Z-2.0
G1 X-12.5
G0 Z3.0
G0 X12.5 Y1.7
G0 Z-1.0
G1 F300.0 Z-2.0
G1 F800.0 X12.3
G1 X-2.3
G1 X-2.5 Z0.0
G1 X-4.7
G1 X-4.9 Z-2.0
G1 X-12.5
G0 Z3.0
G0 X12.5 Y1.3
G0 Z-1.0
G1 F300.0 Z-2.0
G1 F800.0 X12.3
G1 X3.3
G1 X3.1 Z0.0
G1 X-4.7
G1 X-4.9 Z-2.0
G1 X-12.5
G0 Z3.0
G0 X12.5 Y0.9
G0 Z-1.0
G1 F300.0 Z-2.0
G1 F800.0 X12.3
G1 X3.7
G1 X3.5 Z0.0
G1 X-4.7
G1 X-4.9 Z-2.0
G1 X-12.5
G0 Z3.0
G0 X12.5 Y0.5
G0 Z-1.0
G1 F300.0 Z-2.0
G1 F800.0 X12.3
G1 X4.1
G1 X3.9 Z0.0
G1 X-4.5
G1 X-4.7 Z-2.0
G1 X-12.5
G0 Z3.0
G0 X12.5 Y0.1
G0 Z-1.0
G1 F300.0 Z-2.0
G1 F800.0 X12.3
G1 X4.3
G1 X4.1 Z0.0
G1 X-4.3
G1 X-4.5 Z-2.0
G1 X-12.5
G0 Z3.0
G0 X12.5 Y-0.3
G0 Z-1.0
G1 F300.0 Z-2.0
G1 F800.0 X12.3
G1 X4.5
G1 X4.3 Z0.0
G1 X-4.1
G1 X-4.3 Z-2.0
G1 X-12.5
G0 Z3.0
G0 X12.5 Y-0.7
G0 Z-1.0
G1 F300.0 Z-2.0
G1 F800.0 X12.3
G1 X4.5
G1 X4.3 Z0.0
G1 X-3.7
G1 X-3.9 Z-2.0
G1 X-12.5
G0 Z3.0
G0 X12.5 Y-1.1
G0 Z-1.0
G1 F300.0 Z-2.0
G1 F800.0 X12.3
G1 X4.5
G1 X4.3 Z0.0
G1 X-2.7
G1 X-2.9 Z-2.0
G1 X-12.5
G0 Z3.0
G0 X12.5 Y-1.5
G0 Z-1.0
G1 F300.0 Z-2.0
G1 F800.0 X12.3
G1 X4.5
G1 X4.3 Z0.0
G1 X2.1
G1 X1.9 Z-2.0
G1 X-12.5
G0 Z3.0
G0 X12.5 Y-1.9
G0 Z-1.0
G1 F300.0 Z-2.0
G1 F800.0 X12.3
G1 X4.5
G1 X4.3 Z0.0
G1 X2.1
G1 X1.9 Z-2.0
G1 X-12.3
G1 X-12.5 Z-9.6
G0 Z3.0
G0 X12.5 Y-2.3
G0 Z-1.0
G1 F300.0 Z-2.0
G1 F800.0 X12.3
G1 X4.5
G1 X4.3 Z0.0
G1 X2.1
G1 X1.9 Z-2.0
G1 X-12.5
G0 Z3.0
G0 X12.5 Y-2.7
G0 Z-1.0
G1 F300.0 Z-2.0
G1 F800.0 X12.3
G1 X4.5
G1 X4.3 Z0.0
G1 X2.1
G1 X1.9 Z-2.0
G1 X-12.5
G0 Z3.0
G0 X12.5 Y-3.1
G0 Z-1.0
G1 F300.0 Z-2.0
G1 F800.0 X12.3
G1 X4.5
G1 X4.3 Z0.0
G1 X2.1
G1 X1.9 Z-2.0
G1 X-12.5
G0 Z3.0
G0 X12.5 Y-3.5
G0 Z-1.0
G1 F300.0 Z-2.0
G1 F800.0 X12.3
G1 X4.5
G1 X4.3 Z0.0
G1 X-4.5
G1 X-4.7 Z-2.0
G1 X-12.5
G0 Z3.0
G0 X12.5 Y-3.9
G0 Z-1.0
G1 F300.0 Z-2.0
G1 F800.0 X12.3
G1 X4.5
G1 X4.3 Z0.0
G1 X-4.7
G1 X-4.9 Z-2.0
G1 X-12.5
G0 Z3.0
G0 X12.5 Y-4.3
G0 Z-1.0
G1 F300.0 Z-2.0
G1 F800.0 X12.3
G1 X4.5
G1 X4.3 Z0.0
G1 X-4.7
G1 X-4.9 Z-2.0
G1 X-12.5
G0 Z3.0
G0 X12.5 Y-4.7
G0 Z-1.0
G1 F300.0 Z-2.0
G1 F800.0 X12.3
G1 X4.3
G1 X4.1 Z0.0
G1 X-4.7
G1 X-4.9 Z-2.0
G1 X-12.5
G0 Z3.0
G0 X12.5 Y-5.1
G0 Z-1.0
G1 F300.0 Z-2.0
G1 F800.0 X12.3
G1 X3.9
G1 X3.7 Z0.0
G1 X-4.7
G1 X-4.9 Z-2.0
G1 X-12.5
G0 Z3.0
G0 X12.5 Y-5.5
G0 Z-1.0
G1 F300.0 Z-2.0
G1 F800.0 X12.3
G1 X3.5
G1 X3.3 Z0.0
G1 X-4.5
G1 X-4.7 Z-2.0
G1 X-12.5
G0 Z3.0
G0 X12.5 Y-5.9
G0 Z-1.0
G1 F300.0 Z-2.0
G1 F800.0 X12.3
G1 X2.7
G1 X2.5 Z0.0
G1 X-4.1
G1 X-4.3 Z-2.0
G1 X-12.5
G0 Z3.0
G0 X12.5 Y-6.3
G0 Z-1.0
G1 F300.0 Z-2.0
G1 F800.0 X12.3
G1 X-12.5
G0 Z3.0
G0 X12.5 Y-6.7
G0 Z-1.0
G1 F300.0 Z-2.0
G1 F800.0 X12.3
G1 X-12.5
G0 Z3.0
G0 X12.5 Y-7.1
G0 Z-1.0
G1 F300.0 Z-2.0
G1 F800.0 X12.3
G1 X-12.5
G0 Z3.0
G0 X12.5 Y-7.5
G0 Z-1.0
G1 F300.0 Z-2.0
G1 F800.0 X12.3
G1 X-12.5
G0 Z3.0
G0 X12.5 Y-7.9
G0 Z-1.0
G1 F300.0 Z-2.0
G1 F800.0 X12.3
G1 X-12.5
G0 Z3.0
G0 X12.5 Y-8.3
G0 Z-1.0
G1 F300.0 Z-2.0
G1 F800.0 X12.3
G1 X-12.5
G0 Z3.0
G0 X12.5 Y-8.7
G0 Z-1.0
G1 F300.0 Z-2.0
G1 F800.0 X12.3
G1 X-12.5
G0 Z3.0
G0 X12.5 Y-9.1
G0 Z-1.0
G1 F300.0 Z-2.0
G1 F800.0 X12.3
G1 X-12.5
G0 Z3.0
G0 X12.5 Y-9.5
G0 Z-1.0
G1 F300.0 Z-2.0
G1 F800.0 X12.3
G1 X-12.5
G0 Z3.0
G0 X12.5 Y-9.9
G0 Z-1.0
G1 F300.0 Z-2.0
G1 F800.0 X12.3
G1 X-12.5
G0 Z3.0
G0 X12.5 Y-10.3
G0 Z-1.0
G1 F300.0 Z-2.0
G1 F800.0 X12.3
G1 X-12.5
G0 Z3.0
G0 X12.5 Y-10.7
G0 Z-1.0
G1 F300.0 Z-2.0
G1 F800.0 X12.3
G1 X-12.5
G0 Z3.0
G0 X12.5 Y-11.1
G0 Z-1.0
G1 F300.0 Z-2.0
G1 F800.0 X12.3
G1 X-12.5
G0 Z3.0
G0 X12.5 Y-11.5
G0 Z-1.0
G1 F300.0 Z-2.0
G1 F800.0 X12.3
G1 X-12.5
G0 Z3.0
G0 X12.5 Y-12.3
G0 Z-1.0
G1 F300.0 Z-2.0
G1 F800.0 X12.3
G1 X-12.5
G0 Z3.0
G0 Y-11.7
G0 Z-1.0
G1 F300.0 Z-2.0
G1 F800.0 X12.3
G1 X12.5
G0 Z3.0
G0 X-12.5 Y-11.3
G0 Z-1.0
G1 F300.0 Z-2.0
G1 F800.0 X12.3
G1 X12.5
G0 Z3.0
G0 X-12.5 Y-10.9
G0 Z-1.0
G1 F300.0 Z-2.0
G1 F800.0 X12.3
G1 X12.5
G0 Z3.0
G0 X-12.5 Y-10.5
G0 Z-1.0
G1 F300.0 Z-2.0
G1 F800.0 X12.3
G1 X12.5
G0 Z3.0
G0 X-12.5 Y-10.1
G0 Z-1.0
G1 F300.0 Z-2.0
G1 F800.0 X12.3
G1 X12.5
G0 Z3.0
G0 X-12.5 Y-9.7
G0 Z-1.0
G1 F300.0 Z-2.0
G1 F800.0 X12.3
G1 X12.5
G0 Z3.0
G0 X-12.5 Y-9.3
G0 Z-1.0
G1 F300.0 Z-2.0
G1 F800.0 X12.3
G1 X12.5
G0 Z3.0
G0 X-12.5 Y-8.9
G0 Z-1.0
G1 F300.0 Z-2.0
G1 F800.0 X12.3
G1 X12.5 Z-9.2
G0 Z3.0
G0 X-12.5 Y-8.5
G0 Z-1.0
G1 F300.0 Z-2.0
G1 F800.0 X12.3
G1 X12.5
G0 Z3.0
G0 X-12.5 Y-8.1
G0 Z-1.0
G1 F300.0 Z-2.0
G1 F800.0 X12.3
G1 X12.5
G0 Z3.0
G0 X-12.5 Y-7.7
G0 Z-1.0
G1 F300.0 Z-2.0
G1 F800.0 X12.3
G1 X12.5
G0 Z3.0
G0 X-12.5 Y-7.3
G0 Z-1.0
G1 F300.0 Z-2.0
G1 F800.0 X12.3
G1 X12.5
G0 Z3.0
G0 X-12.5 Y-6.9
G0 Z-1.0
G1 F300.0 Z-2.0
G1 F800.0 X12.3
G1 X12.5
G0 Z3.0
G0 X-12.5 Y-6.5
G0 Z-1.0
G1 F300.0 Z-2.0
G1 F800.0 X12.3
G1 X12.5
G0 Z3.0
G0 X-12.5 Y-6.1
G0 Z-1.0
G1 F300.0 Z-2.0
G1 F800.0 X12.3
G1 X12.5
G0 Z3.0
G0 X-12.5 Y-5.7
G0 Z-1.0
G1 F300.0 Z-2.0
G1 F800.0 X-4.5
G1 X-4.3 Z0.0
G1 X2.9
G1 X3.1 Z-2.0
G1 X12.3
G1 X12.5
G0 Z3.0
G0 X-12.5 Y-5.3
G0 Z-1.0
G1 F300.0 Z-2.0
G1 F800.0 X-4.9
G1 X-4.7 Z0.0
G1 X3.5
G1 X3.7 Z-2.0
G1 X12.3
G1 X12.5
G0 Z3.0
G0 X-12.5 Y-4.9
G0 Z-1.0
G1 F300.0 Z-2.0
G1 F800.0 X-4.9
G1 X-4.7 Z0.0
G1 X3.9
G1 X4.1 Z-2.0
G1 X12.3
G1 X12.5
G0 Z3.0
G0 X-12.5 Y-4.5
G0 Z-1.0
G1 F300.0 Z-2.0
G1 F800.0 X-4.9
G1 X-4.7 Z0.0
G1 X4.1
G1 X4.3 Z-2.0
G1 X12.3
G1 X12.5
G0 Z3.0
G0 X-12.5 Y-4.1
G0 Z-1.0
G1 F300.0 Z-2.0
G1 F800.0 X-4.9
G1 X-4.7 Z0.0
G1 X4.3
G1 X4.5 Z-2.0
G1 X12.3
G1 X12.5
G0 Z3.0
G0 X-12.5 Y-3.7
G0 Z-1.0
G1 F300.0 Z-2.0
G1 F800.0 X-4.7
G1 X-4.5 Z0.0
G1 X4.3
G1 X4.5 Z-2.0
G1 X12.3
G1 X12.5
G0 Z3.0
G0 X-12.5 Y-3.3
G0 Z-1.0
G1 F300.0 Z-2.0
G1 F800.0 X-4.3
G1 X-4.1 Z0.0
G1 X4.3
G1 X4.5 Z-2.0
G1 X12.3
G1 X12.5
G0 Z3.0
G0 X-12.5 Y-2.9
G0 Z-1.0
G1 F300.0 Z-2.0
G1 F800.0 X1.9
G1 X2.1 Z0.0
G1 X4.3
G1 X4.5 Z-2.0
G1 X12.3
G1 X12.5
G0 Z3.0
G0 X-12.5 Y-2.5
G0 Z-1.0
G1 F300.0 Z-2.0
G1 F800.0 X1.9
G1 X2.1 Z0.0
G1 X4.3
G1 X4.5 Z-2.0
G1 X12.3
G1 X12.5
G0 Z3.0
G0 X-12.5 Y-2.1
G0 Z-1.0
G1 F300.0 Z-2.0
G1 F800.0 X1.9
G1 X2.1 Z0.0
G1 X4.3
G1 X4.5 Z-2.0
G1 X12.3
G1 X12.5
G0 Z3.0
G0 X-12.5 Y-1.7
G0 Z-1.0
G1 F300.0 Z-2.0
G1 F800.0 X1.9
G1 X2.1 Z0.0
G1 X4.3
G1 X4.5 Z-2.0
G1 X12.3
G1 X12.5
G0 Z3.0
G0 X-12.5 Y-1.3
G0 Z-1.0
G1 F300.0 Z-2.0
G1 F800.0 X1.9
G1 X2.1 Z0.0
G1 X4.3
G1 X4.5 Z-2.0
G1 X12.3
G1 X12.5 Z-9.2
G0 Z3.0
G0 X-12.5 Y-0.9
G0 Z-1.0
G1 F300.0 Z-2.0
G1 F800.0 X-3.5
G1 X-3.3 Z0.0
G1 X4.3
G1 X4.5 Z-2.0
G1 X12.3
G1 X12.5
G0 Z3.0
G0 X-12.5 Y-0.5
G0 Z-1.0
G1 F300.0 Z-2.0
G1 F800.0 X-4.1
G1 X-3.9 Z0.0
G1 X4.3
G1 X4.5 Z-2.0
G1 X12.3
G1 X12.5
G0 Z3.0
G0 X-12.5 Y-0.1
G0 Z-1.0
G1 F300.0 Z-2.0
G1 F800.0 X-4.5
G1 X-4.3 Z0.0
G1 X4.3
G1 X4.5 Z-2.0
G1 X12.3
G1 X12.5
G0 Z3.0
G0 X-12.5 Y0.3
G0 Z-1.0
G1 F300.0 Z-2.0
G1 F800.0 X-4.7
G1 X-4.5 Z0.0
G1 X4.1
G1 X4.3 Z-2.0
G1 X12.3
G1 X12.5
G0 Z3.0
G0 X-12.5 Y0.7
G0 Z-1.0
G1 F300.0 Z-2.0
G1 F800.0 X-4.9
G1 X-4.7 Z0.0
G1 X3.7
G1 X3.9 Z-2.0
G1 X12.3
G1 X12.5
G0 Z3.0
G0 X-12.5 Y1.1
G0 Z-1.0
G1 F300.0 Z-2.0
G1 F800.0 X-4.9
G1 X-4.7 Z0.0
G1 X3.3
G1 X3.5 Z-2.0
G1 X12.3
G1 X12.5
G0 Z3.0
G0 X-12.5 Y1.5
G0 Z-1.0
G1 F300.0 Z-2.0
G1 F800.0 X-4.9
G1 X-4.7 Z0.0
G1 X2.7
G1 X2.9 Z-2.0
G1 X12.3
G1 X12.5
G0 Z3.0
G0 X-12.5 Y1.9
G0 Z-1.0
G1 F300.0 Z-2.0
G1 F800.0 X-4.9
G1 X-4.7 Z0.0
G1 X-2.5
G1 X-2.3 Z-2.0
G1 X12.3
G1 X12.5
G0 Z3.0
G0 X-12.5 Y2.3
G0 Z-1.0
G1 F300.0 Z-2.0
G1 F800.0 X-4.9
G1 X-4.7 Z0.0
G1 X-2.5
G1 X-2.3 Z-2.0
G1 X12.3
G1 X12.5
G0 Z3.0
G0 X-12.5 Y2.7
G0 Z-1.0
G1 F300.0 Z-2.0
G1 F800.0 X-4.9
G1 X-4.7 Z0.0
G1 X-2.5
G1 X-2.3 Z-2.0
G1 X12.3
G1 X12.5
G0 Z3.0
G0 X-12.5 Y3.1
G0 Z-1.0
G1 F300.0 Z-2.0
G1 F800.0 X-4.9
G1 X-4.7 Z0.0
G1 X-2.5
G1 X-2.3 Z-2.0
G1 X12.3
G1 X12.5
G0 Z3.0
G0 X-12.5 Y3.5
G0 Z-1.0
G1 F300.0 Z-2.0
G1 F800.0 X-4.9
G1 X-4.7 Z0.0
G1 X-2.5
G1 X-2.3 Z-2.0
G1 X12.3
G1 X12.5
G0 Z3.0
G0 X-12.5 Y3.9
G0 Z-1.0
G1 F300.0 Z-2.0
G1 F800.0 X-4.9
G1 X-4.7 Z0.0
G1 X3.7
G1 X3.9 Z-2.0
G1 X12.3
G1 X12.5
G0 Z3.0
G0 X-12.5 Y4.3
G0 Z-1.0
G1 F300.0 Z-2.0
G1 F800.0 X-4.9
G1 X-4.7 Z0.0
G1 X4.1
G1 X4.3 Z-2.0
G1 X12.3
G1 X12.5
G0 Z3.0
G0 X-12.5 Y4.7
G0 Z-1.0
G1 F300.0 Z-2.0
G1 F800.0 X-4.9
G1 X-4.7 Z0.0
G1 X4.3
G1 X4.5 Z-2.0
G1 X12.3
G1 X12.5
G0 Z3.0
G0 X-12.5 Y5.1
G0 Z-1.0
G1 F300.0 Z-2.0
G1 F800.0 X-4.7
G1 X-4.5 Z0.0
G1 X4.3
G1 X4.5 Z-2.0
G1 X12.3
G1 X12.5
G0 Z3.0
G0 X-12.5 Y5.5
G0 Z-1.0
G1 F300.0 Z-2.0
G1 F800.0 X-4.5
G1 X-4.3 Z0.0
G1 X4.3
G1 X4.5 Z-2.0
G1 X12.3
G1 X12.5
G0 Z3.0
G0 X-12.5 Y5.9
G0 Z-1.0
G1 F300.0 Z-2.0
G1 F800.0 X-4.1
G1 X-3.9 Z0.0
G1 X4.3
G1 X4.5 Z-2.0
G1 X12.3
G1 X12.5
G0 Z3.0
G0 X-12.5 Y6.3
G0 Z-1.0
G1 F300.0 Z-2.0
G1 F800.0 X-3.5
G1 X-3.3 Z0.0
G1 X4.1
G1 X4.3 Z-2.0
G1 X12.3
G1 X12.5
G0 Z3.0
G0 X-12.5 Y6.7
G0 Z-1.0
G1 F300.0 Z-2.0
G1 F800.0 X12.3
G1 X12.5
G0 Z3.0
G0 X-12.5 Y7.1
G0 Z-1.0
G1 F300.0 Z-2.0
G1 F800.0 X12.3
G1 X12.5 Z-9.2
G0 Z3.0
G0 X-12.5 Y7.5
G0 Z-1.0
G1 F300.0 Z-2.0
G1 F800.0 X12.3
G1 X12.5
G0 Z3.0
G0 X-12.5 Y7.9
G0 Z-1.0
G1 F300.0 Z-2.0
G1 F800.0 X12.3
G1 X12.5
G0 Z3.0
G0 X-12.5 Y8.3
G0 Z-1.0
G1 F300.0 Z-2.0
G1 F800.0 X12.3
G1 X12.5
G0 Z3.0
G0 X-12.5 Y8.7
G0 Z-1.0
G1 F300.0 Z-2.0
G1 F800.0 X12.3
G1 X12.5
G0 Z3.0
G0 X-12.5 Y9.1
G0 Z-1.0
G1 F300.0 Z-2.0
G1 F800.0 X12.3
G1 X12.5
G0 Z3.0
G0 X-12.5 Y9.5
G0 Z-1.0
G1 F300.0 Z-2.0
G1 F800.0 X12.3
G1 X12.5
G0 Z3.0
G0 X-12.5 Y9.9
G0 Z-1.0
G1 F300.0 Z-2.0
G1 F800.0 X12.3
G1 X12.5
G0 Z3.0
G0 X-12.5 Y10.3
G0 Z-1.0
G1 F300.0 Z-2.0
G1 F800.0 X12.3
G1 X12.5
G0 Z3.0
G0 X-12.5 Y10.7
G0 Z-1.0
G1 F300.0 Z-2.0
G1 F800.0 X12.3
G1 X12.5
G0 Z3.0
G0 X-12.5 Y11.1
G0 Z-1.0
G1 F300.0 Z-2.0
G1 F800.0 X12.3
G1 X12.5
G0 Z3.0
G0 X-12.5 Y11.5
G0 Z-1.0
G1 F300.0 Z-2.0
G1 F800.0 X12.3
G1 X12.5
G0 Z3.0
G0 X-12.5 Y11.9
G0 Z-1.0
G1 F300.0 Z-2.0
G1 F800.0 X12.3
G1 X12.5
G0 Z3.0
G0 Y12.1
G0 Z-1.0
G1 F300.0 Z-2.0
G1 F800.0 X12.3
G1 X-12.5
G0 Z3.0
G0 X12.5 Y11.7
G0 Z-1.0
G1 F300.0 Z-2.0
G1 F800.0 X12.3
G1 X-12.5
G0 Z3.0
G0 X12.5 Y11.3
G0 Z-1.0
G1 F300.0 Z-2.0
G1 F800.0 X12.3
G1 X-12.5
G0 Z3.0
G0 X12.5 Y10.9
G0 Z-1.0
G1 F300.0 Z-2.0
G1 F800.0 X12.3
G1 X-12.5
G0 Z3.0
G0 X12.5 Y10.5
G0 Z-1.0
G1 F300.0 Z-2.0
G1 F800.0 X12.3
G1 X-12.5
G0 Z3.0
G0 X12.5 Y10.1
G0 Z-1.0
G1 F300.0 Z-2.0
G1 F800.0 X12.3
G1 X-12.5
G0 Z3.0
G0 X12.5 Y9.7
G0 Z-1.0
G1 F300.0 Z-2.0
G1 F800.0 X12.3
G1 X-12.5
G0 Z3.0
G0 X12.5 Y9.3
G0 Z-1.0
G1 F300.0 Z-2.0
G1 F800.0 X12.3
G1 X-12.5
G0 Z3.0
G0 X12.5 Y8.9
G0 Z-1.0
G1 F300.0 Z-2.0
G1 F800.0 X12.3
G1 X-12.5
G0 Z3.0
G0 X12.5 Y8.5
G0 Z-1.0
G1 F300.0 Z-2.0
G1 F800.0 X12.3
G1 X-12.5
G0 Z3.0
G0 X12.5 Y8.1
G0 Z-1.0
G1 F300.0 Z-2.0
G1 F800.0 X12.3
G1 X-12.5
G0 Z3.0
G0 X12.5 Y7.7
G0 Z-1.0
G1 F300.0 Z-2.0
G1 F800.0 X12.3
G1 X-12.5
G0 Z3.0
G0 X12.5 Y7.3
G0 Z-1.0
G1 F300.0 Z-2.0
G1 F800.0 X12.3
G1 X-12.5
G0 Z3.0
G0 X12.5 Y6.9
G0 Z-1.0
G1 F300.0 Z-2.0
G1 F800.0 X12.3
G1 X-12.5
G0 Z3.0
G0 X12.5 Y6.5
G0 Z-1.0
G1 F300.0 Z-2.0
G1 F800.0 X12.3
G1 X4.1
G1 X3.9 Z0.0
G1 X-2.9
G1 X-3.1 Z-2.0
G1 X-12.5
G0 Z3.0
G0 X12.5 Y6.1
G0 Z-1.0
G1 F300.0 Z-2.0
G1 F800.0 X12.3
G1 X4.5
G1 X4.3 Z0.0
G1 X-3.7
G1 X-3.9 Z-2.0
G1 X-12.5
G0 Z3.0
G0 X12.5 Y5.7
G0 Z-1.0
G1 F300.0 Z-2.0
G1 F800.0 X12.3
G1 X4.5
G1 X4.3 Z0.0
G1 X-4.1
G1 X-4.3 Z-2.0
G1 X-12.5
G0 Z3.0
G0 X12.5 Y5.3
G0 Z-1.0
G1 F300.0 Z-2.0
G1 F800.0 X12.3
G1 X4.5
G1 X4.3 Z0.0
G1 X-4.3
G1 X-4.5 Z-2.0
G1 X-12.5
G0 Z3.0
G0 X12.5 Y4.9
G0 Z-1.0
G1 F300.0 Z-2.0
G1 F800.0 X12.3
G1 X4.5
G1 X4.3 Z0.0
G1 X-4.5
G1 X-4.7 Z-2.0
G1 X-12.5
G0 Z3.0
G0 X12.5 Y4.5
G0 Z-1.0
G1 F300.0 Z-2.0
G1 F800.0 X12.3
G1 X4.5
G1 X4.3 Z0.0
G1 X-4.7
G1 X-4.9 Z-2.0
G1 X-12.5
G0 Z3.0
G0 X12.5 Y4.1
G0 Z-1.0
G1 F300.0 Z-2.0
G1 F800.0 X12.3
G1 X4.3
G1 X4.1 Z0.0
G1 X-4.7
G1 X-4.9 Z-2.0
G1 X-12.5
G0 Z3.0
G0 X12.5 Y3.7
G0 Z-1.0
G1 F300.0 Z-2.0
G1 F800.0 X12.3
G1 X-2.3
G1 X-2.5 Z0.0
G1 X-4.7
G1 X-4.9 Z-2.0
G1 X-12.5
G0 Z3.0
G0 X12.5 Y3.3
G0 Z-1.0
G1 F300.0 Z-2.0
G1 F800.0 X12.3
G1 X-2.3
G1 X-2.5 Z0.0
G1 X-4.7
G1 X-4.9 Z-2.0
G1 X-12.5
G0 Z3.0
G0 X12.5 Y2.9
G0 Z-1.0
G1 F300.0 Z-2.0
G1 F800.0 X12.3
G1 X-2.3
G1 X-2.5 Z0.0
G1 X-4.7
G1 X-4.9 Z-2.0
G1 X-12.5
G0 Z3.0
G0 X12.5 Y2.5
G0 Z-1.0
G1 F300.0 Z-2.0
G1 F800.0 X12.3
G1 X-2.3
G1 X-2.5 Z0.0
G1 X-4.7
G1 X-4.9 Z-2.0
G1 X-12.5
G0 Z3.0
G0 X12.5 Y2.1
G0 Z-1.0
G1 F300.0 Z-2.0
G1 F800.0 X12.3
G1 X-2.3
G1 X-2.5 Z0.0
G1 X-4.7
G1 X-4.9 Z-2.0
G1 X-12.5
G0 Z3.0
G0 X12.5 Y1.7
G0 Z-1.0
G1 F300.0 Z-2.0
G1 F800.0 X12.3
G1 X-2.3
G1 X-2.5 Z0.0
G1 X-4.7
G1 X-4.9 Z-2.0
G1 X-12.5
G0 Z3.0
G0 X12.5 Y1.3
G0 Z-1.0
G1 F300.0 Z-2.0
G1 F800.0 X12.3
G1 X3.3
G1 X3.1 Z0.0
G1 X-4.7
G1 X-4.9 Z-2.0
G1 X-12.5
G0 Z3.0
G0 X12.5 Y0.9
G0 Z-1.0
G1 F300.0 Z-2.0
G1 F800.0 X12.3
G1 X3.7
G1 X3.5 Z0.0
G1 X-4.7
G1 X-4.9 Z-2.0
G1 X-12.5
G0 Z3.0
G0 X12.5 Y0.5
G0 Z-1.0
G1 F300.0 Z-2.0
G1 F800.0 X12.3
G1 X4.1
G1 X3.9 Z0.0
G1 X-4.5
G1 X-4.7 Z-2.0
G1 X-12.5
G0 Z3.0
G0 X12.5 Y0.1
G0 Z-1.0
G1 F300.0 Z-2.0
G1 F800.0 X12.3
G1 X4.3
G1 X4.1 Z0.0
G1 X-4.3
G1 X-4.5 Z-2.0
G1 X-12.5
G0 Z3.0
G0 X12.5 Y-0.3
G0 Z-1.0
G1 F300.0 Z-2.0
G1 F800.0 X12.3
G1 X4.5
G1 X4.3 Z0.0
G1 X-4.1
G1 X-4.3 Z-2.0
G1 X-12.5
G0 Z3.0
G0 X12.5 Y-0.7
G0 Z-1.0
G1 F300.0 Z-2.0
G1 F800.0 X12.3
G1 X4.5
G1 X4.3 Z0.0
G1 X-3.7
G1 X-3.9 Z-2.0
G1 X-12.5
G0 Z3.0
G0 X12.5 Y-1.1
G0 Z-1.0
G1 F300.0 Z-2.0
G1 F800.0 X12.3
G1 X4.5
G1 X4.3 Z0.0
G1 X-2.7
G1 X-2.9 Z-2.0
G1 X-12.5
G0 Z3.0
G0 X12.5 Y-1.5
G0 Z-1.0
G1 F300.0 Z-2.0
G1 F800.0 X12.3
G1 X4.5
G1 X4.3 Z0.0
G1 X2.1
G1 X1.9 Z-2.0
G1 X-12.5
G0 Z3.0
G0 X12.5 Y-1.9
G0 Z-1.0
G1 F300.0 Z-2.0
G1 F800.0 X12.3
G1 X4.5
G1 X4.3 Z0.0
G1 X2.1
G1 X1.9 Z-2.0
G1 X-12.3
G1 X-12.5 Z-8.8
G0 Z3.0
G0 X12.5 Y-2.3
G0 Z-1.0
G1 F300.0 Z-2.0
G1 F800.0 X12.3
G1 X4.5
G1 X4.3 Z0.0
G1 X2.1
G1 X1.9 Z-2.0
G1 X-12.5
G0 Z3.0
G0 X12.5 Y-2.7
G0 Z-1.0
G1 F300.0 Z-2.0
G1 F800.0 X12.3
G1 X4.5
G1 X4.3 Z0.0
G1 X2.1
G1 X1.9 Z-2.0
G1 X-12.5
G0 Z3.0
G0 X12.5 Y-3.1
G0 Z-1.0
G1 F300.0 Z-2.0
G1 F800.0 X12.3
G1 X4.5
G1 X4.3 Z0.0
G1 X2.1
G1 X1.9 Z-2.0
G1 X-12.5
G0 Z3.0
G0 X12.5 Y-3.5
G0 Z-1.0
G1 F300.0 Z-2.0
G1 F800.0 X12.3
G1 X4.5
G1 X4.3 Z0.0
G1 X-4.5
G1 X-4.7 Z-2.0
G1 X-12.5
G0 Z3.0
G0 X12.5 Y-3.9
G0 Z-1.0
G1 F300.0 Z-2.0
G1 F800.0 X12.3
G1 X4.5
G1 X4.3 Z0.0
G1 X-4.7
G1 X-4.9 Z-2.0
G1 X-12.5
G0 Z3.0
G0 X12.5 Y-4.3
G0 Z-1.0
G1 F300.0 Z-2.0
G1 F800.0 X12.3
G1 X4.5
G1 X4.3 Z0.0
G1 X-4.7
G1 X-4.9 Z-2.0
G1 X-12.5
G0 Z3.0
G0 X12.5 Y-4.7
G0 Z-1.0
G1 F300.0 Z-2.0
G1 F800.0 X12.3
G1 X4.3
G1 X4.1 Z0.0
G1 X-4.7
G1 X-4.9 Z-2.0
G1 X-12.5
G0 Z3.0
G0 X12.5 Y-5.1
G0 Z-1.0
G1 F300.0 Z-2.0
G1 F800.0 X12.3
G1 X3.9
G1 X3.7 Z0.0
G1 X-4.7
G1 X-4.9 Z-2.0
G1 X-12.5
G0 Z3.0
G0 X12.5 Y-5.5
G0 Z-1.0
G1 F300.0 Z-2.0
G1 F800.0 X12.3
G1 X3.5
G1 X3.3 Z0.0
G1 X-4.5
G1 X-4.7 Z-2.0
G1 X-12.5
G0 Z3.0
G0 X12.5 Y-5.9
G0 Z-1.0
G1 F300.0 Z-2.0
G1 F800.0 X12.3
G1 X2.7
G1 X2.5 Z0.0
G1 X-4.1
G1 X-4.3 Z-2.0
G1 X-12.5
G0 Z3.0
G0 X12.5 Y-6.3
G0 Z-1.0
G1 F300.0 Z-2.0
G1 F800.0 X12.3
G1 X-12.5
G0 Z3.0
G0 X12.5 Y-6.7
G0 Z-1.0
G1 F300.0 Z-2.0
G1 F800.0 X12.3
G1 X-12.5
G0 Z3.0
G0 X12.5 Y-7.1
G0 Z-1.0
G1 F300.0 Z-2.0
G1 F800.0 X12.3
G1 X-12.5
G0 Z3.0
G0 X12.5 Y-7.5
G0 Z-1.0
G1 F300.0 Z-2.0
G1 F800.0 X12.3
G1 X-12.5
G0 Z3.0
G0 X12.5 Y-7.9
G0 Z-1.0
G1 F300.0 Z-2.0
G1 F800.0 X12.3
G1 X-12.5
G0 Z3.0
G0 X12.5 Y-8.3
G0 Z-1.0
G1 F300.0 Z-2.0
G1 F800.0 X12.3
G1 X-12.5
G0 Z3.0
G0 X12.5 Y-8.7
G0 Z-1.0
G1 F300.0 Z-2.0
G1 F800.0 X12.3
G1 X-12.5
G0 Z3.0
G0 X12.5 Y-9.1
G0 Z-1.0
G1 F300.0 Z-2.0
G1 F800.0 X12.3
G1 X-12.5
G0 Z3.0
G0 X12.5 Y-9.5
G0 Z-1.0
G1 F300.0 Z-2.0
G1 F800.0 X12.3
G1 X-12.5
G0 Z3.0
G0 X12.5 Y-9.9
G0 Z-1.0
G1 F300.0 Z-2.0
G1 F800.0 X12.3
G1 X-12.5
G0 Z3.0
G0 X12.5 Y-10.3
G0 Z-1.0
G1 F300.0 Z-2.0
G1 F800.0 X12.3
G1 X-12.5
G0 Z3.0
G0 X12.5 Y-10.7
G0 Z-1.0
G1 F300.0 Z-2.0
G1 F800.0 X12.3
G1 X-12.5
G0 Z3.0
G0 X12.5 Y-11.1
G0 Z-1.0
G1 F300.0 Z-2.0
G1 F800.0 X12.3
G1 X-12.5
G0 Z3.0
G0 X12.5 Y-11.5
G0 Z-1.0
G1 F300.0 Z-2.0
G1 F800.0 X12.3
G1 X-12.5
G0 Z3.0
G0 X12.5 Y-12.3
G0 Z-1.0
G1 F300.0 Z-2.0
G1 F800.0 X12.3
G1 X-12.5
G0 Z3.0
G0 Y-11.7
G0 Z-1.0
G1 F300.0 Z-2.0
G1 F800.0 X12.3
G1 X12.5
G0 Z3.0
G0 X-12.5 Y-11.3
G0 Z-1.0
G1 F300.0 Z-2.0
G1 F800.0 X12.3
G1 X12.5
G0 Z3.0
G0 X-12.5 Y-10.9
G0 Z-1.0
G1 F300.0 Z-2.0
G1 F800.0 X12.3
G1 X12.5
G0 Z3.0
G0 X-12.5 Y-10.5
G0 Z-1.0
G1 F300.0 Z-2.0
G1 F800.0 X12.3
G1 X12.5
G0 Z3.0
G0 X-12.5 Y-10.1
G0 Z-1.0
G1 F300.0 Z-2.0
G1 F800.0 X12.3
G1 X12.5
G0 Z3.0
G0 X-12.5 Y-9.7
G0 Z-1.0
G1 F300.0 Z-2.0
G1 F800.0 X12.3
G1 X12.5
G0 Z3.0
G0 X-12.5 Y-9.3
G0 Z-1.0
G1 F300.0 Z-2.0
G1 F800.0 X12.3
G1 X12.5
G0 Z3.0
G0 X-12.5 Y-8.9
G0 Z-1.0
G1 F300.0 Z-2.0
G1 F800.0 X12.3
G1 X12.5 Z-8.4
G0 Z3.0
G0 X-12.5 Y-8.5
G0 Z-1.0
G1 F300.0 Z-2.0
G1 F800.0 X12.3
G1 X12.5
G0 Z3.0
G0 X-12.5 Y-8.1
G0 Z-1.0
G1 F300.0 Z-2.0
G1 F800.0 X12.3
G1 X12.5
G0 Z3.0
G0 X-12.5 Y-7.7
G0 Z-1.0
G1 F300.0 Z-2.0
G1 F800.0 X12.3
G1 X12.5
G0 Z3.0
G0 X-12.5 Y-7.3
G0 Z-1.0
G1 F300.0 Z-2.0
G1 F800.0 X12.3
G1 X12.5
G0 Z3.0
G0 X-12.5 Y-6.9
G0 Z-1.0
G1 F300.0 Z-2.0
G1 F800.0 X12.3
G1 X12.5
G0 Z3.0
G0 X-12.5 Y-6.5
G0 Z-1.0
G1 F300.0 Z-2.0
G1 F800.0 X12.3
G1 X12.5
G0 Z3.0
G0 X-12.5 Y-6.1
G0 Z-1.0
G1 F300.0 Z-2.0
G1 F800.0 X12.3
G1 X12.5
G0 Z3.0
G0 X-12.5 Y-5.7
G0 Z-1.0
G1 F300.0 Z-2.0
G1 F800.0 X-4.5
G1 X-4.3 Z0.0
G1 X2.9
G1 X3.1 Z-2.0
G1 X12.3
G1 X12.5
G0 Z3.0
G0 X-12.5 Y-5.3
G0 Z-1.0
G1 F300.0 Z-2.0
G1 F800.0 X-4.9
G1 X-4.7 Z0.0
G1 X3.5
G1 X3.7 Z-2.0
G1 X12.3
G1 X12.5
G0 Z3.0
G0 X-12.5 Y-4.9
G0 Z-1.0
G1 F300.0 Z-2.0
G1 F800.0 X-4.9
G1 X-4.7 Z0.0
G1 X3.9
G1 X4.1 Z-2.0
G1 X12.3
G1 X12.5
G0 Z3.0
G0 X-12.5 Y-4.5
G0 Z-1.0
G1 F300.0 Z-2.0
G1 F800.0 X-4.9
G1 X-4.7 Z0.0
G1 X4.1
G1 X4.3 Z-2.0
G1 X12.3
G1 X12.5
G0 Z3.0
G0 X-12.5 Y-4.1
G0 Z-1.0
G1 F300.0 Z-2.0
G1 F800.0 X-4.9
G1 X-4.7 Z0.0
G1 X4.3
G1 X4.5 Z-2.0
G1 X12.3
G1 X12.5
G0 Z3.0
G0 X-12.5 Y-3.7
G0 Z-1.0
G1 F300.0 Z-2.0
G1 F800.0 X-4.7
G1 X-4.5 Z0.0
G1 X4.3
G1 X4.5 Z-2.0
G1 X12.3
G1 X12.5
G0 Z3.0
G0 X-12.5 Y-3.3
G0 Z-1.0
G1 F300.0 Z-2.0
G1 F800.0 X-4.3
G1 X-4.1 Z0.0
G1 X4.3
G1 X4.5 Z-2.0
G1 X12.3
G1 X12.5
G0 Z3.0
G0 X-12.5 Y-2.9
G0 Z-1.0
G1 F300.0 Z-2.0
G1 F800.0 X1.9
G1 X2.1 Z0.0
G1 X4.3
G1 X4.5 Z-2.0
G1 X12.3
G1 X12.5
G0 Z3.0
G0 X-12.5 Y-2.5
G0 Z-1.0
G1 F300.0 Z-2.0
G1 F800.0 X1.9
G1 X2.1 Z0.0
G1 X4.3
G1 X4.5 Z-2.0
G1 X12.3
G1 X12.5
G0 Z3.0
G0 X-12.5 Y-2.1
G0 Z-1.0
G1 F300.0 Z-2.0
G1 F800.0 X1.9
G1 X2.1 Z0.0
G1 X4.3
G1 X4.5 Z-2.0
G1 X12.3
G1 X12.5
G0 Z3.0
G0 X-12.5 Y-1.7
G0 Z-1.0
G1 F300.0 Z-2.0
G1 F800.0 X1.9
G1 X2.1 Z0.0
G1 X4.3
G1 X4.5 Z-2.0
G1 X12.3
G1 X12.5
G0 Z3.0
G0 X-12.5 Y-1.3
G0 Z-1.0
G1 F300.0 Z-2.0
G1 F800.0 X1.9
G1 X2.1 Z0.0
G1 X4.3
G1 X4.5 Z-2.0
G1 X12.3
G1 X12.5 Z-8.4
G0 Z3.0
G0 X-12.5 Y-0.9
G0 Z-1.0
G1 F300.0 Z-2.0
G1 F800.0 X-3.5
G1 X-3.3 Z0.0
G1 X4.3
G1 X4.5 Z-2.0
G1 X12.3
G1 X12.5
G0 Z3.0
G0 X-12.5 Y-0.5
G0 Z-1.0
G1 F300.0 Z-2.0
G1 F800.0 X-4.1
G1 X-3.9 Z0.0
G1 X4.3
G1 X4.5 Z-2.0
G1 X12.3
G1 X12.5
G0 Z3.0
G0 X-12.5 Y-0.1
G0 Z-1.0
G1 F300.0 Z-2.0
G1 F800.0 X-4.5
G1 X-4.3 Z0.0
G1 X4.3
G1 X4.5 Z-2.0
G1 X12.3
G1 X12.5
G0 Z3.0
G0 X-12.5 Y0.3
G0 Z-1.0
G1 F300.0 Z-2.0
G1 F800.0 X-4.7
G1 X-4.5 Z0.0
G1 X4.1
G1 X4.3 Z-2.0
G1 X12.3
G1 X12.5
G0 Z3.0
G0 X-12.5 Y0.7
G0 Z-1.0
G1 F300.0 Z-2.0
G1 F800.0 X-4.9
G1 X-4.7 Z0.0
G1 X3.7
G1 X3.9 Z-2.0
G1 X12.3
G1 X12.5
G0 Z3.0
G0 X-12.5 Y1.1
G0 Z-1.0
G1 F300.0 Z-2.0
G1 F800.0 X-4.9
G1 X-4.7 Z0.0
G1 X3.3
G1 X3.5 Z-2.0
G1 X12.3
G1 X12.5
G0 Z3.0
G0 X-12.5 Y1.5
G0 Z-1.0
G1 F300.0 Z-2.0
G1 F800.0 X-4.9
G1 X-4.7 Z0.0
G1 X2.7
G1 X2.9 Z-2.0
G1 X12.3
G1 X12.5
G0 Z3.0
G0 X-12.5 Y1.9
G0 Z-1.0
G1 F300.0 Z-2.0
G1 F800.0 X-4.9
G1 X-4.7 Z0.0
G1 X-2.5
G1 X-2.3 Z-2.0
G1 X12.3
G1 X12.5
G0 Z3.0
G0 X-12.5 Y2.3
G0 Z-1.0
G1 F300.0 Z-2.0
G1 F800.0 X-4.9
G1 X-4.7 Z0.0
G1 X-2.5
G1 X-2.3 Z-2.0
G1 X12.3
G1 X12.5
G0 Z3.0
G0 X-12.5 Y2.7
G0 Z-1.0
G1 F300.0 Z-2.0
G1 F800.0 X-4.9
G1 X-4.7 Z0.0
G1 X-2.5
G1 X-2.3 Z-2.0
G1 X12.3
G1 X12.5
G0 Z3.0
G0 X-12.5 Y3.1
G0 Z-1.0
G1 F300.0 Z-2.0
G1 F800.0 X-4.9
G1 X-4.7 Z0.0
G1 X-2.5
G1 X-2.3 Z-2.0
G1 X12.3
G1 X12.5
G0 Z3.0
G0 X-12.5 Y3.5
G0 Z-1.0
G1 F300.0 Z-2.0
G1 F800.0 X-4.9
G1 X-4.7 Z0.0
G1 X-2.5
G1 X-2.3 Z-2.0
G1 X12.3
G1 X12.5
G0 Z3.0
G0 X-12.5 Y3.9
G0 Z-1.0
G1 F300.0 Z-2.0
G1 F800.0 X-4.9
G1 X-4.7 Z0.0
G1 X3.7
G1 X3.9 Z-2.0
G1 X12.3
G1 X12.5
G0 Z3.0
G0 X-12.5 Y4.3
G0 Z-1.0
G1 F300.0 Z-2.0
G1 F800.0 X-4.9
G1 X-4.7 Z0.0
G1 X4.1
G1 X4.3 Z-2.0
G1 X12.3
G1 X12.5
G0 Z3.0
G0 X-12.5 Y4.7
G0 Z-1.0
G1 F300.0 Z-2.0
G1 F800.0 X-4.9
G1 X-4.7 Z0.0
G1 X4.3
G1 X4.5 Z-2.0
G1 X12.3
G1 X12.5
G0 Z3.0
G0 X-12.5 Y5.1
G0 Z-1.0
G1 F300.0 Z-2.0
G1 F800.0 X-4.7
G1 X-4.5 Z0.0
G1 X4.3
G1 X4.5 Z-2.0
G1 X12.3
G1 X12.5
G0 Z3.0
G0 X-12.5 Y5.5
G0 Z-1.0
G1 F300.0 Z-2.0
G1 F800.0 X-4.5
G1 X-4.3 Z0.0
G1 X4.3
G1 X4.5 Z-2.0
G1 X12.3
G1 X12.5
G0 Z3.0
G0 X-12.5 Y5.9
G0 Z-1.0
G1 F300.0 Z-2.0
G1 F800.0 X-4.1
G1 X-3.9 Z0.0
G1 X4.3
G1 X4.5 Z-2.0
G1 X12.3
G1 X12.5
G0 Z3.0
G0 X-12.5 Y6.3
G0 Z-1.0
G1 F300.0 Z-2.0
G1 F800.0 X-3.5
G1 X-3.3 Z0.0
G1 X4.1
G1 X4.3 Z-2.0
G1 X12.3
G1 X12.5
G0 Z3.0
G0 X-12.5 Y6.7
G0 Z-1.0
G1 F300.0 Z-2.0
G1 F800.0 X12.3
G1 X12.5
G0 Z3.0
G0 X-12.5 Y7.1
G0 Z-1.0
G1 F300.0 Z-2.0
G1 F800.0 X12.3
G1 X12.5 Z-8.4
G0 Z3.0
G0 X-12.5 Y7.5
G0 Z-1.0
G1 F300.0 Z-2.0
G1 F800.0 X12.3
G1 X12.5
G0 Z3.0
G0 X-12.5 Y7.9
G0 Z-1.0
G1 F300.0 Z-2.0
G1 F800.0 X12.3
G1 X12.5
G0 Z3.0
G0 X-12.5 Y8.3
G0 Z-1.0
G1 F300.0 Z-2.0
G1 F800.0 X12.3
G1 X12.5
G0 Z3.0
G0 X-12.5 Y8.7
G0 Z-1.0
G1 F300.0 Z-2.0
G1 F800.0 X12.3
G1 X12.5
G0 Z3.0
G0 X-12.5 Y9.1
G0 Z-1.0
G1 F300.0 Z-2.0
G1 F800.0 X12.3
G1 X12.5
G0 Z3.0
G0 X-12.5 Y9.5
G0 Z-1.0
G1 F300.0 Z-2.0
G1 F800.0 X12.3
G1 X12.5
G0 Z3.0
G0 X-12.5 Y9.9
G0 Z-1.0
G1 F300.0 Z-2.0
G1 F800.0 X12.3
G1 X12.5
G0 Z3.0
G0 X-12.5 Y10.3
G0 Z-1.0
G1 F300.0 Z-2.0
G1 F800.0 X12.3
G1 X12.5
G0 Z3.0
G0 X-12.5 Y10.7
G0 Z-1.0
G1 F300.0 Z-2.0
G1 F800.0 X12.3
G1 X12.5
G0 Z3.0
G0 X-12.5 Y11.1
G0 Z-1.0
G1 F300.0 Z-2.0
G1 F800.0 X12.3
G1 X12.5
G0 Z3.0
G0 X-12.5 Y11.5
G0 Z-1.0
G1 F300.0 Z-2.0
G1 F800.0 X12.3
G1 X12.5
G0 Z3.0
G0 X-12.5 Y11.9
G0 Z-1.0
G1 F300.0 Z-2.0
G1 F800.0 X12.3
G1 X12.5
G0 Z3.0
G0 Y12.1
G0 Z-1.0
G1 F300.0 Z-2.0
G1 F800.0 X12.3
G1 X-12.5
G0 Z3.0
G0 X12.5 Y11.7
G0 Z-1.0
G1 F300.0 Z-2.0
G1 F800.0 X12.3
G1 X-12.5
G0 Z3.0
G0 X12.5 Y11.3
G0 Z-1.0
G1 F300.0 Z-2.0
G1 F800.0 X12.3
G1 X-12.5
G0 Z3.0
G0 X12.5 Y10.9
G0 Z-1.0
G1 F300.0 Z-2.0
G1 F800.0 X12.3
G1 X-12.5
G0 Z3.0
G0 X12.5 Y10.5
G0 Z-1.0
G1 F300.0 Z-2.0
G1 F800.0 X12.3
G1 X-12.5
G0 Z3.0
G0 X12.5 Y10.1
G0 Z-1.0
G1 F300.0 Z-2.0
G1 F800.0 X12.3
G1 X-12.5
G0 Z3.0
G0 X12.5 Y9.7
G0 Z-1.0
G1 F300.0 Z-2.0
G1 F800.0 X12.3
G1 X-12.5
G0 Z3.0
G0 X12.5 Y9.3
G0 Z-1.0
G1 F300.0 Z-2.0
G1 F800.0 X12.3
G1 X-12.5
G0 Z3.0
G0 X12.5 Y8.9
G0 Z-1.0
G1 F300.0 Z-2.0
G1 F800.0 X12.3
G1 X-12.5
G0 Z3.0
G0 X12.5 Y8.5
G0 Z-1.0
G1 F300.0 Z-2.0
G1 F800.0 X12.3
G1 X-12.5
G0 Z3.0
G0 X12.5 Y8.1
G0 Z-1.0
G1 F300.0 Z-2.0
G1 F800.0 X12.3
G1 X-12.5
G0 Z3.0
G0 X12.5 Y7.7
G0 Z-1.0
G1 F300.0 Z-2.0
G1 F800.0 X12.3
G1 X-12.5
G0 Z3.0
G0 X12.5 Y7.3
G0 Z-1.0
G1 F300.0 Z-2.0
G1 F800.0 X12.3
G1 X-12.5
G0 Z3.0
G0 X12.5 Y6.9
G0 Z-1.0
G1 F300.0 Z-2.0
G1 F800.0 X12.3
G1 X-12.5
G0 Z3.0
G0 X12.5 Y6.5
G0 Z-1.0
G1 F300.0 Z-2.0
G1 F800.0 X12.3
G1 X4.1
G1 X3.9 Z0.0
G1 X-2.9
G1 X-3.1 Z-2.0
G1 X-12.5
G0 Z3.0
G0 X12.5 Y6.1
G0 Z-1.0
G1 F300.0 Z-2.0
G1 F800.0 X12.3
G1 X4.5
G1 X4.3 Z0.0
G1 X-3.7
G1 X-3.9 Z-2.0
G1 X-12.5
G0 Z3.0
G0 X12.5 Y5.7
G0 Z-1.0
G1 F300.0 Z-2.0
G1 F800.0 X12.3
G1 X4.5
G1 X4.3 Z0.0
G1 X-4.1
G1 X-4.3 Z-2.0
G1 X-12.5
G0 Z3.0
G0 X12.5 Y5.3
G0 Z-1.0
G1 F300.0 Z-2.0
G1 F800.0 X12.3
G1 X4.5
G1 X4.3 Z0.0
G1 X-4.3
G1 X-4.5 Z-2.0
G1 X-12.5
G0 Z3.0
G0 X12.5 Y4.9
G0 Z-1.0
G1 F300.0 Z-2.0
G1 F800.0 X12.3
G1 X4.5
G1 X4.3 Z0.0
G1 X-4.5
G1 X-4.7 Z-2.0
G1 X-12.5
G0 Z3.0
G0 X12.5 Y4.5
G0 Z-1.0
G1 F300.0 Z-2.0
G1 F800.0 X12.3
G1 X4.5
G1 X4.3 Z0.0
G1 X-4.7
G1 X-4.9 Z-2.0
G1 X-12.5
G0 Z3.0
G0 X12.5 Y4.1
G0 Z-1.0
G1 F300.0 Z-2.0
G1 F800.0 X12.3
G1 X4.3
G1 X4.1 Z0.0
G1 X-4.7
G1 X-4.9 Z-2.0
G1 X-12.5
G0 Z3.0
G0 X12.5 Y3.7
G0 Z-1.0
G1 F300.0 Z-2.0
G1 F800.0 X12.3
G1 X-2.3
G1 X-2.5 Z0.0
G1 X-4.7
G1 X-4.9 Z-2.0
G1 X-12.5
G0 Z3.0
G0 X12.5 Y3.3
G0 Z-1.0
G1 F300.0 Z-2.0
G1 F800.0 X12.3
G1 X-2.3
G1 X-2.5 Z0.0
G1 X-4.7
G1 X-4.9 Z-2.0
G1 X-12.5
G0 Z3.0
G0 X12.5 Y2.9
G0 Z-1.0
G1 F300.0 Z-2.0
G1 F800.0 X12.3
G1 X-2.3
G1 X-2.5 Z0.0
G1 X-4.7
G1 X-4.9 Z-2.0
G1 X-12.5
G0 Z3.0
G0 X12.5 Y2.5
G0 Z-1.0
G1 F300.0 Z-2.0
G1 F800.0 X12.3
G1 X-2.3
G1 X-2.5 Z0.0
G1 X-4.7
G1 X-4.9 Z-2.0
G1 X-12.5
G0 Z3.0
G0 X12.5 Y2.1
G0 Z-1.0
G1 F300.0 Z-2.0
G1 F800.0 X12.3
G1 X-2.3
G1 X-2.5 Z0.0
G1 X-4.7
G1 X-4.9 Z-2.0
G1 X-12.5
G0 Z3.0
G0 X12.5 Y1.7
G0 Z-1.0
G1 F300.0 Z-2.0
G1 F800.0 X12.3
G1 X-2.3
G1 X-2.5 Z0.0
G1 X-4.7
G1 X-4.9 Z-2.0
G1 X-12.5
G0 Z3.0
G0 X12.5 Y1.3
G0 Z-1.0
G1 F300.0 Z-2.0
G1 F800.0 X12.3
G1 X3.3
G1 X3.1 Z0.0
G1 X-4.7
G1 X-4.9 Z-2.0
G1 X-12.5
G0 Z3.0
G0 X12.5 Y0.9
G0 Z-1.0
G1 F300.0 Z-2.0
G1 F800.0 X12.3
G1 X3.7
G1 X3.5 Z0.0
G1 X-4.7
G1 X-4.9 Z-2.0
G1 X-12.5
G0 Z3.0
G0 X12.5 Y0.5
G0 Z-1.0
G1 F300.0 Z-2.0
G1 F800.0 X12.3
G1 X4.1
G1 X3.9 Z0.0
G1 X-4.5
G1 X-4.7 Z-2.0
G1 X-12.5
G0 Z3.0
G0 X12.5 Y0.1
G0 Z-1.0
G1 F300.0 Z-2.0
G1 F800.0 X12.3
G1 X4.3
G1 X4.1 Z0.0
G1 X-4.3
G1 X-4.5 Z-2.0
G1 X-12.5
G0 Z3.0
G0 X12.5 Y-0.3
G0 Z-1.0
G1 F300.0 Z-2.0
G1 F800.0 X12.3
G1 X4.5
G1 X4.3 Z0.0
G1 X-4.1
G1 X-4.3 Z-2.0
G1 X-12.5
G0 Z3.0
G0 X12.5 Y-0.7
G0 Z-1.0
G1 F300.0 Z-2.0
G1 F800.0 X12.3
G1 X4.5
G1 X4.3 Z0.0
G1 X-3.7
G1 X-3.9 Z-2.0
G1 X-12.5
G0 Z3.0
G0 X12.5 Y-1.1
G0 Z-1.0
G1 F300.0 Z-2.0
G1 F800.0 X12.3
G1 X4.5
G1 X4.3 Z0.0
G1 X-2.7
G1 X-2.9 Z-2.0
G1 X-12.5
G0 Z3.0
G0 X12.5 Y-1.5
G0 Z-1.0
G1 F300.0 Z-2.0
G1 F800.0 X12.3
G1 X4.5
G1 X4.3 Z0.0
G1 X2.1
G1 X1.9 Z-2.0
G1 X-12.5
G0 Z3.0
G0 X12.5 Y-1.9
G0 Z-1.0
G1 F300.0 Z-2.0
G1 F800.0 X12.3
G1 X4.5
G1 X4.3 Z0.0
G1 X2.1
G1 X1.9 Z-2.0
G1 X-12.3
G1 X-12.5 Z-8.0
G0 Z3.0
G0 X12.5 Y-2.3
G0 Z-1.0
G1 F300.0 Z-2.0
G1 F800.0 X12.3
G1 X4.5
G1 X4.3 Z0.0
G1 X2.1
G1 X1.9 Z-2.0
G1 X-12.5
G0 Z3.0
G0 X12.5 Y-2.7
G0 Z-1.0
G1 F300.0 Z-2.0
G1 F800.0 X12.3
G1 X4.5
G1 X4.3 Z0.0
G1 X2.1
G1 X1.9 Z-2.0
G1 X-12.5
G0 Z3.0
G0 X12.5 Y-3.1
G0 Z-1.0
G1 F300.0 Z-2.0
G1 F800.0 X12.3
G1 X4.5
G1 X4.3 Z0.0
G1 X2.1
G1 X1.9 Z-2.0
G1 X-12.5
G0 Z3.0
G0 X12.5 Y-3.5
G0 Z-1.0
G1 F300.0 Z-2.0
G1 F800.0 X12.3
G1 X4.5
G1 X4.3 Z0.0
G1 X-4.5
G1 X-4.7 Z-2.0
G1 X-12.5
G0 Z3.0
G0 X12.5 Y-3.9
G0 Z-1.0
G1 F300.0 Z-2.0
G1 F800.0 X12.3
G1 X4.5
G1 X4.3 Z0.0
G1 X-4.7
G1 X-4.9 Z-2.0
G1 X-12.5
G0 Z3.0
G0 X12.5 Y-4.3
G0 Z-1.0
G1 F300.0 Z-2.0
G1 F800.0 X12.3
G1 X4.5
G1 X4.3 Z0.0
G1 X-4.7
G1 X-4.9 Z-2.0
G1 X-12.5
G0 Z3.0
G0 X12.5 Y-4.7
G0 Z-1.0
G1 F300.0 Z-2.0
G1 F800.0 X12.3
G1 X4.3
G1 X4.1 Z0.0
G1 X-4.7
G1 X-4.9 Z-2.0
G1 X-12.5
G0 Z3.0
G0 X12.5 Y-5.1
G0 Z-1.0
G1 F300.0 Z-2.0
G1 F800.0 X12.3
G1 X3.9
G1 X3.7 Z0.0
G1 X-4.7
G1 X-4.9 Z-2.0
G1 X-12.5
G0 Z3.0
G0 X12.5 Y-5.5
G0 Z-1.0
G1 F300.0 Z-2.0
G1 F800.0 X12.3
G1 X3.5
G1 X3.3 Z0.0
G1 X-4.5
G1 X-4.7 Z-2.0
G1 X-12.5
G0 Z3.0
G0 X12.5 Y-5.9
G0 Z-1.0
G1 F300.0 Z-2.0
G1 F800.0 X12.3
G1 X2.7
G1 X2.5 Z0.0
G1 X-4.1
G1 X-4.3 Z-2.0
G1 X-12.5
G0 Z3.0
G0 X12.5 Y-6.3
G0 Z-1.0
G1 F300.0 Z-2.0
G1 F800.0 X12.3
G1 X-12.5
G0 Z3.0
G0 X12.5 Y-6.7
G0 Z-1.0
G1 F300.0 Z-2.0
G1 F800.0 X12.3
G1 X-12.5
G0 Z3.0
G0 X12.5 Y-7.1
G0 Z-1.0
G1 F300.0 Z-2.0
G1 F800.0 X12.3
G1 X-12.5
G0 Z3.0
G0 X12.5 Y-7.5
G0 Z-1.0
G1 F300.0 Z-2.0
G1 F800.0 X12.3
G1 X-12.5
G0 Z3.0
G0 X12.5 Y-7.9
G0 Z-1.0
G1 F300.0 Z-2.0
G1 F800.0 X12.3
G1 X-12.5
G0 Z3.0
G0 X12.5 Y-8.3
G0 Z-1.0
G1 F300.0 Z-2.0
G1 F800.0 X12.3
G1 X-12.5
G0 Z3.0
G0 X12.5 Y-8.7
G0 Z-1.0
G1 F300.0 Z-2.0
G1 F800.0 X12.3
G1 X-12.5
G0 Z3.0
G0 X12.5 Y-9.1
G0 Z-1.0
G1 F300.0 Z-2.0
G1 F800.0 X12.3
G1 X-12.5
G0 Z3.0
G0 X12.5 Y-9.5
G0 Z-1.0
G1 F300.0 Z-2.0
G1 F800.0 X12.3
G1 X-12.5
G0 Z3.0
G0 X12.5 Y-9.9
G0 Z-1.0
G1 F300.0 Z-2.0
G1 F800.0 X12.3
G1 X-12.5
G0 Z3.0
G0 X12.5 Y-10.3
G0 Z-1.0
G1 F300.0 Z-2.0
G1 F800.0 X12.3
G1 X-12.5
G0 Z3.0
G0 X12.5 Y-10.7
G0 Z-1.0
G1 F300.0 Z-2.0
G1 F800.0 X12.3
G1 X-12.5
G0 Z3.0
G0 X12.5 Y-11.1
G0 Z-1.0
G1 F300.0 Z-2.0
G1 F800.0 X12.3
G1 X-12.5
G0 Z3.0
G0 X12.5 Y-11.5
G0 Z-1.0
G1 F300.0 Z-2.0
G1 F800.0 X12.3
G1 X-12.5
G0 Z3.0
G0 X12.5 Y-12.3
G0 Z-1.0
G1 F300.0 Z-2.0
G1 F800.0 X12.3
G1 X-12.5
G0 Z3.0
G0 Y-11.7
G0 Z-1.0
G1 F300.0 Z-2.0
G1 F800.0 X12.3
G1 X12.5
G0 Z3.0
G0 X-12.5 Y-11.3
G0 Z-1.0
G1 F300.0 Z-2.0
G1 F800.0 X12.3
G1 X12.5
G0 Z3.0
G0 X-12.5 Y-10.9
G0 Z-1.0
G1 F300.0 Z-2.0
G1 F800.0 X12.3
G1 X12.5
G0 Z3.0
G0 X-12.5 Y-10.5
G0 Z-1.0
G1 F300.0 Z-2.0
G1 F800.0 X12.3
G1 X12.5
G0 Z3.0
G0 X-12.5 Y-10.1
G0 Z-1.0
G1 F300.0 Z-2.0
G1 F800.0 X12.3
G1 X12.5
G0 Z3.0
G0 X-12.5 Y-9.7
G0 Z-1.0
G1 F300.0 Z-2.0
G1 F800.0 X12.3
G1 X12.5
G0 Z3.0
G0 X-12.5 Y-9.3
G0 Z-1.0
G1 F300.0 Z-2.0
G1 F800.0 X12.3
G1 X12.5
G0 Z3.0
G0 X-12.5 Y-8.9
G0 Z-1.0
G1 F300.0 Z-2.0
G1 F800.0 X12.3
G1 X12.5 Z-7.6
G0 Z3.0
G0 X-12.5 Y-8.5
G0 Z-1.0
G1 F300.0 Z-2.0
G1 F800.0 X12.3
G1 X12.5
G0 Z3.0
G0 X-12.5 Y-8.1
G0 Z-1.0
G1 F300.0 Z-2.0
G1 F800.0 X12.3
G1 X12.5
G0 Z3.0
G0 X-12.5 Y-7.7
G0 Z-1.0
G1 F300.0 Z-2.0
G1 F800.0 X12.3
G1 X12.5
G0 Z3.0
G0 X-12.5 Y-7.3
G0 Z-1.0
G1 F300.0 Z-2.0
G1 F800.0 X12.3
G1 X12.5
G0 Z3.0
G0 X-12.5 Y-6.9
G0 Z-1.0
G1 F300.0 Z-2.0
G1 F800.0 X12.3
G1 X12.5
G0 Z3.0
G0 X-12.5 Y-6.5
G0 Z-1.0
G1 F300.0 Z-2.0
G1 F800.0 X12.3
G1 X12.5
G0 Z3.0
G0 X-12.5 Y-6.1
G0 Z-1.0
G1 F300.0 Z-2.0
G1 F800.0 X12.3
G1 X12.5
G0 Z3.0
G0 X-12.5 Y-5.7
G0 Z-1.0
G1 F300.0 Z-2.0
G1 F800.0 X-4.5
G1 X-4.3 Z0.0
G1 X2.9
G1 X3.1 Z-2.0
G1 X12.3
G1 X12.5
G0 Z3.0
G0 X-12.5 Y-5.3
G0 Z-1.0
G1 F300.0 Z-2.0
G1 F800.0 X-4.9
G1 X-4.7 Z0.0
G1 X3.5
G1 X3.7 Z-2.0
G1 X12.3
G1 X12.5
G0 Z3.0
G0 X-12.5 Y-4.9
G0 Z-1.0
G1 F300.0 Z-2.0
G1 F800.0 X-4.9
G1 X-4.7 Z0.0
G1 X3.9
G1 X4.1 Z-2.0
G1 X12.3
G1 X12.5
G0 Z3.0
G0 X-12.5 Y-4.5
G0 Z-1.0
G1 F300.0 Z-2.0
G1 F800.0 X-4.9
G1 X-4.7 Z0.0
G1 X4.1
G1 X4.3 Z-2.0
G1 X12.3
G1 X12.5
G0 Z3.0
G0 X-12.5 Y-4.1
G0 Z-1.0
G1 F300.0 Z-2.0
G1 F800.0 X-4.9
G1 X-4.7 Z0.0
G1 X4.3
G1 X4.5 Z-2.0
G1 X12.3
G1 X12.5
G0 Z3.0
G0 X-12.5 Y-3.7
G0 Z-1.0
G1 F300.0 Z-2.0
G1 F800.0 X-4.7
G1 X-4.5 Z0.0
G1 X4.3
G1 X4.5 Z-2.0
G1 X12.3
G1 X12.5
G0 Z3.0
G0 X-12.5 Y-3.3
G0 Z-1.0
G1 F300.0 Z-2.0
G1 F800.0 X-4.3
G1 X-4.1 Z0.0
G1 X4.3
G1 X4.5 Z-2.0
G1 X12.3
G1 X12.5
G0 Z3.0
G0 X-12.5 Y-2.9
G0 Z-1.0
G1 F300.0 Z-2.0
G1 F800.0 X1.9
G1 X2.1 Z0.0
G1 X4.3
G1 X4.5 Z-2.0
G1 X12.3
G1 X12.5
G0 Z3.0
G0 X-12.5 Y-2.5
G0 Z-1.0
G1 F300.0 Z-2.0
G1 F800.0 X1.9
G1 X2.1 Z0.0
G1 X4.3
G1 X4.5 Z-2.0
G1 X12.3
G1 X12.5
G0 Z3.0
G0 X-12.5 Y-2.1
G0 Z-1.0
G1 F300.0 Z-2.0
G1 F800.0 X1.9
G1 X2.1 Z0.0
G1 X4.3
G1 X4.5 Z-2.0
G1 X12.3
G1 X12.5
G0 Z3.0
G0 X-12.5 Y-1.7
G0 Z-1.0
G1 F300.0 Z-2.0
G1 F800.0 X1.9
G1 X2.1 Z0.0
G1 X4.3
G1 X4.5 Z-2.0
G1 X12.3
G1 X12.5
G0 Z3.0
G0 X-12.5 Y-1.3
G0 Z-1.0
G1 F300.0 Z-2.0
G1 F800.0 X1.9
G1 X2.1 Z0.0
G1 X4.3
G1 X4.5 Z-2.0
G1 X12.3
G1 X12.5 Z-7.6
G0 Z3.0
G0 X-12.5 Y-0.9
G0 Z-1.0
G1 F300.0 Z-2.0
G1 F800.0 X-3.5
G1 X-3.3 Z0.0
G1 X4.3
G1 X4.5 Z-2.0
G1 X12.3
G1 X12.5
G0 Z3.0
G0 X-12.5 Y-0.5
G0 Z-1.0
G1 F300.0 Z-2.0
G1 F800.0 X-4.1
G1 X-3.9 Z0.0
G1 X4.3
G1 X4.5 Z-2.0
G1 X12.3
G1 X12.5
G0 Z3.0
G0 X-12.5 Y-0.1
G0 Z-1.0
G1 F300.0 Z-2.0
G1 F800.0 X-4.5
G1 X-4.3 Z0.0
G1 X4.3
G1 X4.5 Z-2.0
G1 X12.3
G1 X12.5
G0 Z3.0
G0 X-12.5 Y0.3
G0 Z-1.0
G1 F300.0 Z-2.0
G1 F800.0 X-4.7
G1 X-4.5 Z0.0
G1 X4.1
G1 X4.3 Z-2.0
G1 X12.3
G1 X12.5
G0 Z3.0
G0 X-12.5 Y0.7
G0 Z-1.0
G1 F300.0 Z-2.0
G1 F800.0 X-4.9
G1 X-4.7 Z0.0
G1 X3.7
G1 X3.9 Z-2.0
G1 X12.3
G1 X12.5
G0 Z3.0
G0 X-12.5 Y1.1
G0 Z-1.0
G1 F300.0 Z-2.0
G1 F800.0 X-4.9
G1 X-4.7 Z0.0
G1 X3.3
G1 X3.5 Z-2.0
G1 X12.3
G1 X12.5
G0 Z3.0
G0 X-12.5 Y1.5
G0 Z-1.0
G1 F300.0 Z-2.0
G1 F800.0 X-4.9
G1 X-4.7 Z0.0
G1 X2.7
G1 X2.9 Z-2.0
G1 X12.3
G1 X12.5
G0 Z3.0
G0 X-12.5 Y1.9
G0 Z-1.0
G1 F300.0 Z-2.0
G1 F800.0 X-4.9
G1 X-4.7 Z0.0
G1 X-2.5
G1 X-2.3 Z-2.0
G1 X12.3
G1 X12.5
G0 Z3.0
G0 X-12.5 Y2.3
G0 Z-1.0
G1 F300.0 Z-2.0
G1 F800.0 X-4.9
G1 X-4.7 Z0.0
G1 X-2.5
G1 X-2.3 Z-2.0
G1 X12.3
G1 X12.5
G0 Z3.0
G0 X-12.5 Y2.7
G0 Z-1.0
G1 F300.0 Z-2.0
G1 F800.0 X-4.9
G1 X-4.7 Z0.0
G1 X-2.5
G1 X-2.3 Z-2.0
G1 X12.3
G1 X12.5
G0 Z3.0
G0 X-12.5 Y3.1
G0 Z-1.0
G1 F300.0 Z-2.0
G1 F800.0 X-4.9
G1 X-4.7 Z0.0
G1 X-2.5
G1 X-2.3 Z-2.0
G1 X12.3
G1 X12.5
G0 Z3.0
G0 X-12.5 Y3.5
G0 Z-1.0
G1 F300.0 Z-2.0
G1 F800.0 X-4.9
G1 X-4.7 Z0.0
G1 X-2.5
G1 X-2.3 Z-2.0
G1 X12.3
G1 X12.5
G0 Z3.0
G0 X-12.5 Y3.9
G0 Z-1.0
G1 F300.0 Z-2.0
G1 F800.0 X-4.9
G1 X-4.7 Z0.0
G1 X3.7
G1 X3.9 Z-2.0
G1 X12.3
G1 X12.5
G0 Z3.0
G0 X-12.5 Y4.3
G0 Z-1.0
G1 F300.0 Z-2.0
G1 F800.0 X-4.9
G1 X-4.7 Z0.0
G1 X4.1
G1 X4.3 Z-2.0
G1 X12.3
G1 X12.5
G0 Z3.0
G0 X-12.5 Y4.7
G0 Z-1.0
G1 F300.0 Z-2.0
G1 F800.0 X-4.9
G1 X-4.7 Z0.0
G1 X4.3
G1 X4.5 Z-2.0
G1 X12.3
G1 X12.5
G0 Z3.0
G0 X-12.5 Y5.1
G0 Z-1.0
G1 F300.0 Z-2.0
G1 F800.0 X-4.7
G1 X-4.5 Z0.0
G1 X4.3
G1 X4.5 Z-2.0
G1 X12.3
G1 X12.5
G0 Z3.0
G0 X-12.5 Y5.5
G0 Z-1.0
G1 F300.0 Z-2.0
G1 F800.0 X-4.5
G1 X-4.3 Z0.0
G1 X4.3
G1 X4.5 Z-2.0
G1 X12.3
G1 X12.5
G0 Z3.0
G0 X-12.5 Y5.9
G0 Z-1.0
G1 F300.0 Z-2.0
G1 F800.0 X-4.1
G1 X-3.9 Z0.0
G1 X4.3
G1 X4.5 Z-2.0
G1 X12.3
G1 X12.5
G0 Z3.0
G0 X-12.5 Y6.3
G0 Z-1.0
G1 F300.0 Z-2.0
G1 F800.0 X-3.5
G1 X-3.3 Z0.0
G1 X4.1
G1 X4.3 Z-2.0
G1 X12.3
G1 X12.5
G0 Z3.0
G0 X-12.5 Y6.7
G0 Z-1.0
G1 F300.0 Z-2.0
G1 F800.0 X12.3
G1 X12.5
G0 Z3.0
G0 X-12.5 Y7.1
G0 Z-1.0
G1 F300.0 Z-2.0
G1 F800.0 X12.3
G1 X12.5 Z-7.6
G0 Z3.0
G0 X-12.5 Y7.5
G0 Z-1.0
G1 F300.0 Z-2.0
G1 F800.0 X12.3
G1 X12.5
G0 Z3.0
G0 X-12.5 Y7.9
G0 Z-1.0
G1 F300.0 Z-2.0
G1 F800.0 X12.3
G1 X12.5
G0 Z3.0
G0 X-12.5 Y8.3
G0 Z-1.0
G1 F300.0 Z-2.0
G1 F800.0 X12.3
G1 X12.5
G0 Z3.0
G0 X-12.5 Y8.7
G0 Z-1.0
G1 F300.0 Z-2.0
G1 F800.0 X12.3
G1 X12.5
G0 Z3.0
G0 X-12.5 Y9.1
G0 Z-1.0
G1 F300.0 Z-2.0
G1 F800.0 X12.3
G1 X12.5
G0 Z3.0
G0 X-12.5 Y9.5
G0 Z-1.0
G1 F300.0 Z-2.0
G1 F800.0 X12.3
G1 X12.5
G0 Z3.0
G0 X-12.5 Y9.9
G0 Z-1.0
G1 F300.0 Z-2.0
G1 F800.0 X12.3
G1 X12.5
G0 Z3.0
G0 X-12.5 Y10.3
G0 Z-1.0
G1 F300.0 Z-2.0
G1 F800.0 X12.3
G1 X12.5
G0 Z3.0
G0 X-12.5 Y10.7
G0 Z-1.0
G1 F300.0 Z-2.0
G1 F800.0 X12.3
G1 X12.5
G0 Z3.0
G0 X-12.5 Y11.1
G0 Z-1.0
G1 F300.0 Z-2.0
G1 F800.0 X12.3
G1 X12.5
G0 Z3.0
G0 X-12.5 Y11.5
G0 Z-1.0
G1 F300.0 Z-2.0
G1 F800.0 X12.3
G1 X12.5
G0 Z3.0
G0 X-12.5 Y11.9
G0 Z-1.0
G1 F300.0 Z-2.0
G1 F800.0 X12.3
G1 X12.5
G0 Z3.0
G0 Y12.1
G0 Z-1.0
G1 F300.0 Z-2.0
G1 F800.0 X12.3
G1 X-12.5
G0 Z3.0
G0 X12.5 Y11.7
G0 Z-1.0
G1 F300.0 Z-2.0
G1 F800.0 X12.3
G1 X-12.5
G0 Z3.0
G0 X12.5 Y11.3
G0 Z-1.0
G1 F300.0 Z-2.0
G1 F800.0 X12.3
G1 X-12.5
G0 Z3.0
G0 X12.5 Y10.9
G0 Z-1.0
G1 F300.0 Z-2.0
G1 F800.0 X12.3
G1 X-12.5
G0 Z3.0
G0 X12.5 Y10.5
G0 Z-1.0
G1 F300.0 Z-2.0
G1 F800.0 X12.3
G1 X-12.5
G0 Z3.0
G0 X12.5 Y10.1
G0 Z-1.0
G1 F300.0 Z-2.0
G1 F800.0 X12.3
G1 X-12.5
G0 Z3.0
G0 X12.5 Y9.7
G0 Z-1.0
G1 F300.0 Z-2.0
G1 F800.0 X12.3
G1 X-12.5
G0 Z3.0
G0 X12.5 Y9.3
G0 Z-1.0
G1 F300.0 Z-2.0
G1 F800.0 X12.3
G1 X-12.5
G0 Z3.0
G0 X12.5 Y8.9
G0 Z-1.0
G1 F300.0 Z-2.0
G1 F800.0 X12.3
G1 X-12.5
G0 Z3.0
G0 X12.5 Y8.5
G0 Z-1.0
G1 F300.0 Z-2.0
G1 F800.0 X12.3
G1 X-12.5
G0 Z3.0
G0 X12.5 Y8.1
G0 Z-1.0
G1 F300.0 Z-2.0
G1 F800.0 X12.3
G1 X-12.5
G0 Z3.0
G0 X12.5 Y7.7
G0 Z-1.0
G1 F300.0 Z-2.0
G1 F800.0 X12.3
G1 X-12.5
G0 Z3.0
G0 X12.5 Y7.3
G0 Z-1.0
G1 F300.0 Z-2.0
G1 F800.0 X12.3
G1 X-12.5
G0 Z3.0
G0 X12.5 Y6.9
G0 Z-1.0
G1 F300.0 Z-2.0
G1 F800.0 X12.3
G1 X-12.5
G0 Z3.0
G0 X12.5 Y6.5
G0 Z-1.0
G1 F300.0 Z-2.0
G1 F800.0 X12.3
G1 X4.1
G1 X3.9 Z0.0
G1 X-2.9
G1 X-3.1 Z-2.0
G1 X-12.5
G0 Z3.0
G0 X12.5 Y6.1
G0 Z-1.0
G1 F300.0 Z-2.0
G1 F800.0 X12.3
G1 X4.5
G1 X4.3 Z0.0
G1 X-3.7
G1 X-3.9 Z-2.0
G1 X-12.5
G0 Z3.0
G0 X12.5 Y5.7
G0 Z-1.0
G1 F300.0 Z-2.0
G1 F800.0 X12.3
G1 X4.5
G1 X4.3 Z0.0
G1 X-4.1
G1 X-4.3 Z-2.0
G1 X-12.5
G0 Z3.0
G0 X12.5 Y5.3
G0 Z-1.0
G1 F300.0 Z-2.0
G1 F800.0 X12.3
G1 X4.5
G1 X4.3 Z0.0
G1 X-4.3
G1 X-4.5 Z-2.0
G1 X-12.5
G0 Z3.0
G0 X12.5 Y4.9
G0 Z-1.0
G1 F300.0 Z-2.0
G1 F800.0 X12.3
G1 X4.5
G1 X4.3 Z0.0
G1 X-4.5
G1 X-4.7 Z-2.0
G1 X-12.5
G0 Z3.0
G0 X12.5 Y4.5
G0 Z-1.0
G1 F300.0 Z-2.0
G1 F800.0 X12.3
G1 X4.5
G1 X4.3 Z0.0
G1 X-4.7
G1 X-4.9 Z-2.0
G1 X-12.5
G0 Z3.0
G0 X12.5 Y4.1
G0 Z-1.0
G1 F300.0 Z-2.0
G1 F800.0 X12.3
G1 X4.3
G1 X4.1 Z0.0
G1 X-4.7
G1 X-4.9 Z-2.0
G1 X-12.5
G0 Z3.0
G0 X12.5 Y3.7
G0 Z-1.0
G1 F300.0 Z-2.0
G1 F800.0 X12.3
G1 X-2.3
G1 X-2.5 Z0.0
G1 X-4.7
G1 X-4.9 Z-2.0
G1 X-12.5
G0 Z3.0
G0 X12.5 Y3.3
G0 Z-1.0
G1 F300.0 Z-2.0
G1 F800.0 X12.3
G1 X-2.3
G1 X-2.5 Z0.0
G1 X-4.7
G1 X-4.9 Z-2.0
G1 X-12.5
G0 Z3.0
G0 X12.5 Y2.9
G0 Z-1.0
G1 F300.0 Z-2.0
G1 F800.0 X12.3
G1 X-2.3
G1 X-2.5 Z0.0
G1 X-4.7
G1 X-4.9 Z-2.0
G1 X-12.5
G0 Z3.0
G0 X12.5 Y2.5
G0 Z-1.0
G1 F300.0 Z-2.0
G1 F800.0 X12.3
G1 X-2.3
G1 X-2.5 Z0.0
G1 X-4.7
G1 X-4.9 Z-2.0
G1 X-12.5
G0 Z3.0
G0 X12.5 Y2.1
G0 Z-1.0
G1 F300.0 Z-2.0
G1 F800.0 X12.3
G1 X-2.3
G1 X-2.5 Z0.0
G1 X-4.7
G1 X-4.9 Z-2.0
G1 X-12.5
G0 Z3.0
G0 X12.5 Y1.7
G0 Z-1.0
G1 F300.0 Z-2.0
G1 F800.0 X12.3
G1 X-2.3
G1 X-2.5 Z0.0
G1 X-4.7
G1 X-4.9 Z-2.0
G1 X-12.5
G0 Z3.0
G0 X12.5 Y1.3
G0 Z-1.0
G1 F300.0 Z-2.0
G1 F800.0 X12.3
G1 X3.3
G1 X3.1 Z0.0
G1 X-4.7
G1 X-4.9 Z-2.0
G1 X-12.5
G0 Z3.0
G0 X12.5 Y0.9
G0 Z-1.0
G1 F300.0 Z-2.0
G1 F800.0 X12.3
G1 X3.7
G1 X3.5 Z0.0
G1 X-4.7
G1 X-4.9 Z-2.0
G1 X-12.5
G0 Z3.0
G0 X12.5 Y0.5
G0 Z-1.0
G1 F300.0 Z-2.0
G1 F800.0 X12.3
G1 X4.1
G1 X3.9 Z0.0
G1 X-4.5
G1 X-4.7 Z-2.0
G1 X-12.5
G0 Z3.0
G0 X12.5 Y0.1
G0 Z-1.0
G1 F300.0 Z-2.0
G1 F800.0 X12.3
G1 X4.3
G1 X4.1 Z0.0
G1 X-4.3
G1 X-4.5 Z-2.0
G1 X-12.5
G0 Z3.0
G0 X12.5 Y-0.3
G0 Z-1.0
G1 F300.0 Z-2.0
G1 F800.0 X12.3
G1 X4.5
G1 X4.3 Z0.0
G1 X-4.1
G1 X-4.3 Z-2.0
G1 X-12.5
G0 Z3.0
G0 X12.5 Y-0.7
G0 Z-1.0
G1 F300.0 Z-2.0
G1 F800.0 X12.3
G1 X4.5
G1 X4.3 Z0.0
G1 X-3.7
G1 X-3.9 Z-2.0
G1 X-12.5
G0 Z3.0
G0 X12.5 Y-1.1
G0 Z-1.0
G1 F300.0 Z-2.0
G1 F800.0 X12.3
G1 X4.5
G1 X4.3 Z0.0
G1 X-2.7
G1 X-2.9 Z-2.0
G1 X-12.5
G0 Z3.0
G0 X12.5 Y-1.5
G0 Z-1.0
G1 F300.0 Z-2.0
G1 F800.0 X12.3
G1 X4.5
G1 X4.3 Z0.0
G1 X2.1
G1 X1.9 Z-2.0
G1 X-12.5
G0 Z3.0
G0 X12.5 Y-1.9
G0 Z-1.0
G1 F300.0 Z-2.0
G1 F800.0 X12.3
G1 X4.5
G1 X4.3 Z0.0
G1 X2.1
G1 X1.9 Z-2.0
G1 X-12.3
G1 X-12.5 Z-7.2
G0 Z3.0
G0 X12.5 Y-2.3
G0 Z-1.0
G1 F300.0 Z-2.0
G1 F800.0 X12.3
G1 X4.5
G1 X4.3 Z0.0
G1 X2.1
G1 X1.9 Z-2.0
G1 X-12.5
G0 Z3.0
G0 X12.5 Y-2.7
G0 Z-1.0
G1 F300.0 Z-2.0
G1 F800.0 X12.3
G1 X4.5
G1 X4.3 Z0.0
G1 X2.1
G1 X1.9 Z-2.0
G1 X-12.5
G0 Z3.0
G0 X12.5 Y-3.1
G0 Z-1.0
G1 F300.0 Z-2.0
G1 F800.0 X12.3
G1 X4.5
G1 X4.3 Z0.0
G1 X2.1
G1 X1.9 Z-2.0
G1 X-12.5
G0 Z3.0
G0 X12.5 Y-3.5
G0 Z-1.0
G1 F300.0 Z-2.0
G1 F800.0 X12.3
G1 X4.5
G1 X4.3 Z0.0
G1 X-4.5
G1 X-4.7 Z-2.0
G1 X-12.5
G0 Z3.0
G0 X12.5 Y-3.9
G0 Z-1.0
G1 F300.0 Z-2.0
G1 F800.0 X12.3
G1 X4.5
G1 X4.3 Z0.0
G1 X-4.7
G1 X-4.9 Z-2.0
G1 X-12.5
G0 Z3.0
G0 X12.5 Y-4.3
G0 Z-1.0
G1 F300.0 Z-2.0
G1 F800.0 X12.3
G1 X4.5
G1 X4.3 Z0.0
G1 X-4.7
G1 X-4.9 Z-2.0
G1 X-12.5
G0 Z3.0
G0 X12.5 Y-4.7
G0 Z-1.0
G1 F300.0 Z-2.0
G1 F800.0 X12.3
G1 X4.3
G1 X4.1 Z0.0
G1 X-4.7
G1 X-4.9 Z-2.0
G1 X-12.5
G0 Z3.0
G0 X12.5 Y-5.1
G0 Z-1.0
G1 F300.0 Z-2.0
G1 F800.0 X12.3
G1 X3.9
G1 X3.7 Z0.0
G1 X-4.7
G1 X-4.9 Z-2.0
G1 X-12.5
G0 Z3.0
G0 X12.5 Y-5.5
G0 Z-1.0
G1 F300.0 Z-2.0
G1 F800.0 X12.3
G1 X3.5
G1 X3.3 Z0.0
G1 X-4.5
G1 X-4.7 Z-2.0
G1 X-12.5
G0 Z3.0
G0 X12.5 Y-5.9
G0 Z-1.0
G1 F300.0 Z-2.0
G1 F800.0 X12.3
G1 X2.7
G1 X2.5 Z0.0
G1 X-4.1
G1 X-4.3 Z-2.0
G1 X-12.5
G0 Z3.0
G0 X12.5 Y-6.3
G0 Z-1.0
G1 F300.0 Z-2.0
G1 F800.0 X12.3
G1 X-12.5
G0 Z3.0
G0 X12.5 Y-6.7
G0 Z-1.0
G1 F300.0 Z-2.0
G1 F800.0 X12.3
G1 X-12.5
G0 Z3.0
G0 X12.5 Y-7.1
G0 Z-1.0
G1 F300.0 Z-2.0
G1 F800.0 X12.3
G1 X-12.5
G0 Z3.0
G0 X12.5 Y-7.5
G0 Z-1.0
G1 F300.0 Z-2.0
G1 F800.0 X12.3
G1 X-12.5
G0 Z3.0
G0 X12.5 Y-7.9
G0 Z-1.0
G1 F300.0 Z-2.0
G1 F800.0 X12.3
G1 X-12.5
G0 Z3.0
G0 X12.5 Y-8.3
G0 Z-1.0
G1 F300.0 Z-2.0
G1 F800.0 X12.3
G1 X-12.5
G0 Z3.0
G0 X12.5 Y-8.7
G0 Z-1.0
G1 F300.0 Z-2.0
G1 F800.0 X12.3
G1 X-12.5
G0 Z3.0
G0 X12.5 Y-9.1
G0 Z-1.0
G1 F300.0 Z-2.0
G1 F800.0 X12.3
G1 X-12.5
G0 Z3.0
G0 X12.5 Y-9.5
G0 Z-1.0
G1 F300.0 Z-2.0
G1 F800.0 X12.3
G1 X-12.5
G0 Z3.0
G0 X12.5 Y-9.9
G0 Z-1.0
G1 F300.0 Z-2.0
G1 F800.0 X12.3
G1 X-12.5
G0 Z3.0
G0 X12.5 Y-10.3
G0 Z-1.0
G1 F300.0 Z-2.0
G1 F800.0 X12.3
G1 X-12.5
G0 Z3.0
G0 X12.5 Y-10.7
G0 Z-1.0
G1 F300.0 Z-2.0
G1 F800.0 X12.3
G1 X-12.5
G0 Z3.0
G0 X12.5 Y-11.1
G0 Z-1.0
G1 F300.0 Z-2.0
G1 F800.0 X12.3
G1 X-12.5
G0 Z3.0
G0 X12.5 Y-11.5
G0 Z-1.0
G1 F300.0 Z-2.0
G1 F800.0 X12.3
G1 X-12.5
G0 Z3.0
G0 X12.5 Y-12.3
G0 Z-1.0
G1 F300.0 Z-2.0
G1 F800.0 X12.3
G1 X-12.5
G0 Z3.0
G0 Y-11.7
G0 Z-1.0
G1 F300.0 Z-2.0
G1 F800.0 X12.3
G1 X12.5
G0 Z3.0
G0 X-12.5 Y-11.3
G0 Z-1.0
G1 F300.0 Z-2.0
G1 F800.0 X12.3
G1 X12.5
G0 Z3.0
G0 X-12.5 Y-10.9
G0 Z-1.0
G1 F300.0 Z-2.0
G1 F800.0 X12.3
G1 X12.5
G0 Z3.0
G0 X-12.5 Y-10.5
G0 Z-1.0
G1 F300.0 Z-2.0
G1 F800.0 X12.3
G1 X12.5
G0 Z3.0
G0 X-12.5 Y-10.1
G0 Z-1.0
G1 F300.0 Z-2.0
G1 F800.0 X12.3
G1 X12.5
G0 Z3.0
G0 X-12.5 Y-9.7
G0 Z-1.0
G1 F300.0 Z-2.0
G1 F800.0 X12.3
G1 X12.5
G0 Z3.0
G0 X-12.5 Y-9.3
G0 Z-1.0
G1 F300.0 Z-2.0
G1 F800.0 X12.3
G1 X12.5
G0 Z3.0
G0 X-12.5 Y-8.9
G0 Z-1.0
G1 F300.0 Z-2.0
G1 F800.0 X12.3
G1 X12.5 Z-6.8
G0 Z3.0
G0 X-12.5 Y-8.5
G0 Z-1.0
G1 F300.0 Z-2.0
G1 F800.0 X12.3
G1 X12.5
G0 Z3.0
G0 X-12.5 Y-8.1
G0 Z-1.0
G1 F300.0 Z-2.0
G1 F800.0 X12.3
G1 X12.5
G0 Z3.0
G0 X-12.5 Y-7.7
G0 Z-1.0
G1 F300.0 Z-2.0
G1 F800.0 X12.3
G1 X12.5
G0 Z3.0
G0 X-12.5 Y-7.3
G0 Z-1.0
G1 F300.0 Z-2.0
G1 F800.0 X12.3
G1 X12.5
G0 Z3.0
G0 X-12.5 Y-6.9
G0 Z-1.0
G1 F300.0 Z-2.0
G1 F800.0 X12.3
G1 X12.5
G0 Z3.0
G0 X-12.5 Y-6.5
G0 Z-1.0
G1 F300.0 Z-2.0
G1 F800.0 X12.3
G1 X12.5
G0 Z3.0
G0 X-12.5 Y-6.1
G0 Z-1.0
G1 F300.0 Z-2.0
G1 F800.0 X12.3
G1 X12.5
G0 Z3.0
G0 X-12.5 Y-5.7
G0 Z-1.0
G1 F300.0 Z-2.0
G1 F800.0 X-4.5
G1 X-4.3 Z0.0
G1 X2.9
G1 X3.1 Z-2.0
G1 X12.3
G1 X12.5
G0 Z3.0
G0 X-12.5 Y-5.3
G0 Z-1.0
G1 F300.0 Z-2.0
G1 F800.0 X-4.9
G1 X-4.7 Z0.0
G1 X3.5
G1 X3.7 Z-2.0
G1 X12.3
G1 X12.5
G0 Z3.0
G0 X-12.5 Y-4.9
G0 Z-1.0
G1 F300.0 Z-2.0
G1 F800.0 X-4.9
G1 X-4.7 Z0.0
G1 X3.9
G1 X4.1 Z-2.0
G1 X12.3
G1 X12.5
G0 Z3.0
G0 X-12.5 Y-4.5
G0 Z-1.0
G1 F300.0 Z-2.0
G1 F800.0 X-4.9
G1 X-4.7 Z0.0
G1 X4.1
G1 X4.3 Z-2.0
G1 X12.3
G1 X12.5
G0 Z3.0
G0 X-12.5 Y-4.1
G0 Z-1.0
G1 F300.0 Z-2.0
G1 F800.0 X-4.9
G1 X-4.7 Z0.0
G1 X4.3
G1 X4.5 Z-2.0
G1 X12.3
G1 X12.5
G0 Z3.0
G0 X-12.5 Y-3.7
G0 Z-1.0
G1 F300.0 Z-2.0
G1 F800.0 X-4.7
G1 X-4.5 Z0.0
G1 X4.3
G1 X4.5 Z-2.0
G1 X12.3
G1 X12.5
G0 Z3.0
G0 X-12.5 Y-3.3
G0 Z-1.0
G1 F300.0 Z-2.0
G1 F800.0 X-4.3
G1 X-4.1 Z0.0
G1 X4.3
G1 X4.5 Z-2.0
G1 X12.3
G1 X12.5
G0 Z3.0
G0 X-12.5 Y-2.9
G0 Z-1.0
G1 F300.0 Z-2.0
G1 F800.0 X1.9
G1 X2.1 Z0.0
G1 X4.3
G1 X4.5 Z-2.0
G1 X12.3
G1 X12.5
G0 Z3.0
G0 X-12.5 Y-2.5
G0 Z-1.0
G1 F300.0 Z-2.0
G1 F800.0 X1.9
G1 X2.1 Z0.0
G1 X4.3
G1 X4.5 Z-2.0
G1 X12.3
G1 X12.5
G0 Z3.0
G0 X-12.5 Y-2.1
G0 Z-1.0
G1 F300.0 Z-2.0
G1 F800.0 X1.9
G1 X2.1 Z0.0
G1 X4.3
G1 X4.5 Z-2.0
G1 X12.3
G1 X12.5
G0 Z3.0
G0 X-12.5 Y-1.7
G0 Z-1.0
G1 F300.0 Z-2.0
G1 F800.0 X1.9
G1 X2.1 Z0.0
G1 X4.3
G1 X4.5 Z-2.0
G1 X12.3
G1 X12.5
G0 Z3.0
G0 X-12.5 Y-1.3
G0 Z-1.0
G1 F300.0 Z-2.0
G1 F800.0 X1.9
G1 X2.1 Z0.0
G1 X4.3
G1 X4.5 Z-2.0
G1 X12.3
G1 X12.5 Z-6.8
G0 Z3.0
G0 X-12.5 Y-0.9
G0 Z-1.0
G1 F300.0 Z-2.0
G1 F800.0 X-3.5
G1 X-3.3 Z0.0
G1 X4.3
G1 X4.5 Z-2.0
G1 X12.3
G1 X12.5
G0 Z3.0
G0 X-12.5 Y-0.5
G0 Z-1.0
G1 F300.0 Z-2.0
G1 F800.0 X-4.1
G1 X-3.9 Z0.0
G1 X4.3
G1 X4.5 Z-2.0
G1 X12.3
G1 X12.5
G0 Z3.0
G0 X-12.5 Y-0.1
G0 Z-1.0
G1 F300.0 Z-2.0
G1 F800.0 X-4.5
G1 X-4.3 Z0.0
G1 X4.3
G1 X4.5 Z-2.0
G1 X12.3
G1 X12.5
G0 Z3.0
G0 X-12.5 Y0.3
G0 Z-1.0
G1 F300.0 Z-2.0
G1 F800.0 X-4.7
G1 X-4.5 Z0.0
G1 X4.1
G1 X4.3 Z-2.0
G1 X12.3
G1 X12.5
G0 Z3.0
G0 X-12.5 Y0.7
G0 Z-1.0
G1 F300.0 Z-2.0
G1 F800.0 X-4.9
G1 X-4.7 Z0.0
G1 X3.7
G1 X3.9 Z-2.0
G1 X12.3
G1 X12.5
G0 Z3.0
G0 X-12.5 Y1.1
G0 Z-1.0
G1 F300.0 Z-2.0
G1 F800.0 X-4.9
G1 X-4.7 Z0.0
G1 X3.3
G1 X3.5 Z-2.0
G1 X12.3
G1 X12.5
G0 Z3.0
G0 X-12.5 Y1.5
G0 Z-1.0
G1 F300.0 Z-2.0
G1 F800.0 X-4.9
G1 X-4.7 Z0.0
G1 X2.7
G1 X2.9 Z-2.0
G1 X12.3
G1 X12.5
G0 Z3.0
G0 X-12.5 Y1.9
G0 Z-1.0
G1 F300.0 Z-2.0
G1 F800.0 X-4.9
G1 X-4.7 Z0.0
G1 X-2.5
G1 X-2.3 Z-2.0
G1 X12.3
G1 X12.5
G0 Z3.0
G0 X-12.5 Y2.3
G0 Z-1.0
G1 F300.0 Z-2.0
G1 F800.0 X-4.9
G1 X-4.7 Z0.0
G1 X-2.5
G1 X-2.3 Z-2.0
G1 X12.3
G1 X12.5
G0 Z3.0
G0 X-12.5 Y2.7
G0 Z-1.0
G1 F300.0 Z-2.0
G1 F800.0 X-4.9
G1 X-4.7 Z0.0
G1 X-2.5
G1 X-2.3 Z-2.0
G1 X12.3
G1 X12.5
G0 Z3.0
G0 X-12.5 Y3.1
G0 Z-1.0
G1 F300.0 Z-2.0
G1 F800.0 X-4.9
G1 X-4.7 Z0.0
G1 X-2.5
G1 X-2.3 Z-2.0
G1 X12.3
G1 X12.5
G0 Z3.0
G0 X-12.5 Y3.5
G0 Z-1.0
G1 F300.0 Z-2.0
G1 F800.0 X-4.9
G1 X-4.7 Z0.0
G1 X-2.5
G1 X-2.3 Z-2.0
G1 X12.3
G1 X12.5
G0 Z3.0
G0 X-12.5 Y3.9
G0 Z-1.0
G1 F300.0 Z-2.0
G1 F800.0 X-4.9
G1 X-4.7 Z0.0
G1 X3.7
G1 X3.9 Z-2.0
G1 X12.3
G1 X12.5
G0 Z3.0
G0 X-12.5 Y4.3
G0 Z-1.0
G1 F300.0 Z-2.0
G1 F800.0 X-4.9
G1 X-4.7 Z0.0
G1 X4.1
G1 X4.3 Z-2.0
G1 X12.3
G1 X12.5
G0 Z3.0
G0 X-12.5 Y4.7
G0 Z-1.0
G1 F300.0 Z-2.0
G1 F800.0 X-4.9
G1 X-4.7 Z0.0
G1 X4.3
G1 X4.5 Z-2.0
G1 X12.3
G1 X12.5
G0 Z3.0
G0 X-12.5 Y5.1
G0 Z-1.0
G1 F300.0 Z-2.0
G1 F800.0 X-4.7
G1 X-4.5 Z0.0
G1 X4.3
G1 X4.5 Z-2.0
G1 X12.3
G1 X12.5
G0 Z3.0
G0 X-12.5 Y5.5
G0 Z-1.0
G1 F300.0 Z-2.0
G1 F800.0 X-4.5
G1 X-4.3 Z0.0
G1 X4.3
G1 X4.5 Z-2.0
G1 X12.3
G1 X12.5
G0 Z3.0
G0 X-12.5 Y5.9
G0 Z-1.0
G1 F300.0 Z-2.0
G1 F800.0 X-4.1
G1 X-3.9 Z0.0
G1 X4.3
G1 X4.5 Z-2.0
G1 X12.3
G1 X12.5
G0 Z3.0
G0 X-12.5 Y6.3
G0 Z-1.0
G1 F300.0 Z-2.0
G1 F800.0 X-3.5
G1 X-3.3 Z0.0
G1 X4.1
G1 X4.3 Z-2.0
G1 X12.3
G1 X12.5
G0 Z3.0
G0 X-12.5 Y6.7
G0 Z-1.0
G1 F300.0 Z-2.0
G1 F800.0 X12.3
G1 X12.5
G0 Z3.0
G0 X-12.5 Y7.1
G0 Z-1.0
G1 F300.0 Z-2.0
G1 F800.0 X12.3
G1 X12.5 Z-6.8
G0 Z3.0
G0 X-12.5 Y7.5
G0 Z-1.0
G1 F300.0 Z-2.0
G1 F800.0 X12.3
G1 X12.5
G0 Z3.0
G0 X-12.5 Y7.9
G0 Z-1.0
G1 F300.0 Z-2.0
G1 F800.0 X12.3
G1 X12.5
G0 Z3.0
G0 X-12.5 Y8.3
G0 Z-1.0
G1 F300.0 Z-2.0
G1 F800.0 X12.3
G1 X12.5
G0 Z3.0
G0 X-12.5 Y8.7
G0 Z-1.0
G1 F300.0 Z-2.0
G1 F800.0 X12.3
G1 X12.5
G0 Z3.0
G0 X-12.5 Y9.1
G0 Z-1.0
G1 F300.0 Z-2.0
G1 F800.0 X12.3
G1 X12.5
G0 Z3.0
G0 X-12.5 Y9.5
G0 Z-1.0
G1 F300.0 Z-2.0
G1 F800.0 X12.3
G1 X12.5
G0 Z3.0
G0 X-12.5 Y9.9
G0 Z-1.0
G1 F300.0 Z-2.0
G1 F800.0 X12.3
G1 X12.5
G0 Z3.0
G0 X-12.5 Y10.3
G0 Z-1.0
G1 F300.0 Z-2.0
G1 F800.0 X12.3
G1 X12.5
G0 Z3.0
G0 X-12.5 Y10.7
G0 Z-1.0
G1 F300.0 Z-2.0
G1 F800.0 X12.3
G1 X12.5
G0 Z3.0
G0 X-12.5 Y11.1
G0 Z-1.0
G1 F300.0 Z-2.0
G1 F800.0 X12.3
G1 X12.5
G0 Z3.0
G0 X-12.5 Y11.5
G0 Z-1.0
G1 F300.0 Z-2.0
G1 F800.0 X12.3
G1 X12.5
G0 Z3.0
G0 X-12.5 Y11.9
G0 Z-1.0
G1 F300.0 Z-2.0
G1 F800.0 X12.3
G1 X12.5
G0 Z3.0
G0 Y12.1
G0 Z-1.0
G1 F300.0 Z-2.0
G1 F800.0 X12.3
G1 X-12.5
G0 Z3.0
G0 X12.5 Y11.7
G0 Z-1.0
G1 F300.0 Z-2.0
G1 F800.0 X12.3
G1 X-12.5
G0 Z3.0
G0 X12.5 Y11.3
G0 Z-1.0
G1 F300.0 Z-2.0
G1 F800.0 X12.3
G1 X-12.5
G0 Z3.0
G0 X12.5 Y10.9
G0 Z-1.0
G1 F300.0 Z-2.0
G1 F800.0 X12.3
G1 X-12.5
G0 Z3.0
G0 X12.5 Y10.5
G0 Z-1.0
G1 F300.0 Z-2.0
G1 F800.0 X12.3
G1 X-12.5
G0 Z3.0
G0 X12.5 Y10.1
G0 Z-1.0
G1 F300.0 Z-2.0
G1 F800.0 X12.3
G1 X-12.5
G0 Z3.0
G0 X12.5 Y9.7
G0 Z-1.0
G1 F300.0 Z-2.0
G1 F800.0 X12.3
G1 X-12.5
G0 Z3.0
G0 X12.5 Y9.3
G0 Z-1.0
G1 F300.0 Z-2.0
G1 F800.0 X12.3
G1 X-12.5
G0 Z3.0
G0 X12.5 Y8.9
G0 Z-1.0
G1 F300.0 Z-2.0
G1 F800.0 X12.3
G1 X-12.5
G0 Z3.0
G0 X12.5 Y8.5
G0 Z-1.0
G1 F300.0 Z-2.0
G1 F800.0 X12.3
G1 X-12.5
G0 Z3.0
G0 X12.5 Y8.1
G0 Z-1.0
G1 F300.0 Z-2.0
G1 F800.0 X12.3
G1 X-12.5
G0 Z3.0
G0 X12.5 Y7.7
G0 Z-1.0
G1 F300.0 Z-2.0
G1 F800.0 X12.3
G1 X-12.5
G0 Z3.0
G0 X12.5 Y7.3
G0 Z-1.0
G1 F300.0 Z-2.0
G1 F800.0 X12.3
G1 X-12.5
G0 Z3.0
G0 X12.5 Y6.9
G0 Z-1.0
G1 F300.0 Z-2.0
G1 F800.0 X12.3
G1 X-12.5
G0 Z3.0
G0 X12.5 Y6.5
G0 Z-1.0
G1 F300.0 Z-2.0
G1 F800.0 X12.3
G1 X4.1
G1 X3.9 Z0.0
G1 X-2.9
G1 X-3.1 Z-2.0
G1 X-12.5
G0 Z3.0
G0 X12.5 Y6.1
G0 Z-1.0
G1 F300.0 Z-2.0
G1 F800.0 X12.3
G1 X4.5
G1 X4.3 Z0.0
G1 X-3.7
G1 X-3.9 Z-2.0
G1 X-12.5
G0 Z3.0
G0 X12.5 Y5.7
G0 Z-1.0
G1 F300.0 Z-2.0
G1 F800.0 X12.3
G1 X4.5
G1 X4.3 Z0.0
G1 X-4.1
G1 X-4.3 Z-2.0
G1 X-12.5
G0 Z3.0
G0 X12.5 Y5.3
G0 Z-1.0
G1 F300.0 Z-2.0
G1 F800.0 X12.3
G1 X4.5
G1 X4.3 Z0.0
G1 X-4.3
G1 X-4.5 Z-2.0
G1 X-12.5
G0 Z3.0
G0 X12.5 Y4.9
G0 Z-1.0
G1 F300.0 Z-2.0
G1 F800.0 X12.3
G1 X4.5
G1 X4.3 Z0.0
G1 X-4.5
G1 X-4.7 Z-2.0
G1 X-12.5
G0 Z3.0
G0 X12.5 Y4.5
G0 Z-1.0
G1 F300.0 Z-2.0
G1 F800.0 X12.3
G1 X4.5
G1 X4.3 Z0.0
G1 X-4.7
G1 X-4.9 Z-2.0
G1 X-12.5
G0 Z3.0
G0 X12.5 Y4.1
G0 Z-1.0
G1 F300.0 Z-2.0
G1 F800.0 X12.3
G1 X4.3
G1 X4.1 Z0.0
G1 X-4.7
G1 X-4.9 Z-2.0
G1 X-12.5
G0 Z3.0
G0 X12.5 Y3.7
G0 Z-1.0
G1 F300.0 Z-2.0
G1 F800.0 X12.3
G1 X-2.3
G1 X-2.5 Z0.0
G1 X-4.7
G1 X-4.9 Z-2.0
G1 X-12.5
G0 Z3.0
G0 X12.5 Y3.3
G0 Z-1.0
G1 F300.0 Z-2.0
G1 F800.0 X12.3
G1 X-2.3
G1 X-2.5 Z0.0
G1 X-4.7
G1 X-4.9 Z-2.0
G1 X-12.5
G0 Z3.0
G0 X12.5 Y2.9
G0 Z-1.0
G1 F300.0 Z-2.0
G1 F800.0 X12.3
G1 X-2.3
G1 X-2.5 Z0.0
G1 X-4.7
G1 X-4.9 Z-2.0
G1 X-12.5
G0 Z3.0
G0 X12.5 Y2.5
G0 Z-1.0
G1 F300.0 Z-2.0
G1 F800.0 X12.3
G1 X-2.3
G1 X-2.5 Z0.0
G1 X-4.7
G1 X-4.9 Z-2.0
G1 X-12.5
G0 Z3.0
G0 X12.5 Y2.1
G0 Z-1.0
G1 F300.0 Z-2.0
G1 F800.0 X12.3
G1 X-2.3
G1 X-2.5 Z0.0
G1 X-4.7
G1 X-4.9 Z-2.0
G1 X-12.5
G0 Z3.0
G0 X12.5 Y1.7
G0 Z-1.0
G1 F300.0 Z-2.0
G1 F800.0 X12.3
G1 X-2.3
G1 X-2.5 Z0.0
G1 X-4.7
G1 X-4.9 Z-2.0
G1 X-12.5
G0 Z3.0
G0 X12.5 Y1.3
G0 Z-1.0
G1 F300.0 Z-2.0
G1 F800.0 X12.3
G1 X3.3
G1 X3.1 Z0.0
G1 X-4.7
G1 X-4.9 Z-2.0
G1 X-12.5
G0 Z3.0
G0 X12.5 Y0.9
G0 Z-1.0
G1 F300.0 Z-2.0
G1 F800.0 X12.3
G1 X3.7
G1 X3.5 Z0.0
G1 X-4.7
G1 X-4.9 Z-2.0
G1 X-12.5
G0 Z3.0
G0 X12.5 Y0.5
G0 Z-1.0
G1 F300.0 Z-2.0
G1 F800.0 X12.3
G1 X4.1
G1 X3.9 Z0.0
G1 X-4.5
G1 X-4.7 Z-2.0
G1 X-12.5
G0 Z3.0
G0 X12.5 Y0.1
G0 Z-1.0
G1 F300.0 Z-2.0
G1 F800.0 X12.3
G1 X4.3
G1 X4.1 Z0.0
G1 X-4.3
G1 X-4.5 Z-2.0
G1 X-12.5
G0 Z3.0
G0 X12.5 Y-0.3
G0 Z-1.0
G1 F300.0 Z-2.0
G1 F800.0 X12.3
G1 X4.5
G1 X4.3 Z0.0
G1 X-4.1
G1 X-4.3 Z-2.0
G1 X-12.5
G0 Z3.0
G0 X12.5 Y-0.7
G0 Z-1.0
G1 F300.0 Z-2.0
G1 F800.0 X12.3
G1 X4.5
G1 X4.3 Z0.0
G1 X-3.7
G1 X-3.9 Z-2.0
G1 X-12.5
G0 Z3.0
G0 X12.5 Y-1.1
G0 Z-1.0
G1 F300.0 Z-2.0
G1 F800.0 X12.3
G1 X4.5
G1 X4.3 Z0.0
G1 X-2.7
G1 X-2.9 Z-2.0
G1 X-12.5
G0 Z3.0
G0 X12.5 Y-1.5
G0 Z-1.0
G1 F300.0 Z-2.0
G1 F800.0 X12.3
G1 X4.5
G1 X4.3 Z0.0
G1 X2.1
G1 X1.9 Z-2.0
G1 X-12.5
G0 Z3.0
G0 X12.5 Y-1.9
G0 Z-1.0
G1 F300.0 Z-2.0
G1 F800.0 X12.3
G1 X4.5
G1 X4.3 Z0.0
G1 X2.1
G1 X1.9 Z-2.0
G1 X-12.3
G1 X-12.5 Z-6.4
G0 Z3.0
G0 X12.5 Y-2.3
G0 Z-1.0
G1 F300.0 Z-2.0
G1 F800.0 X12.3
G1 X4.5
G1 X4.3 Z0.0
G1 X2.1
G1 X1.9 Z-2.0
G1 X-12.5
G0 Z3.0
G0 X12.5 Y-2.7
G0 Z-1.0
G1 F300.0 Z-2.0
G1 F800.0 X12.3
G1 X4.5
G1 X4.3 Z0.0
G1 X2.1
G1 X1.9 Z-2.0
G1 X-12.5
G0 Z3.0
G0 X12.5 Y-3.1
G0 Z-1.0
G1 F300.0 Z-2.0
G1 F800.0 X12.3
G1 X4.5
G1 X4.3 Z0.0
G1 X2.1
G1 X1.9 Z-2.0
G1 X-12.5
G0 Z3.0
G0 X12.5 Y-3.5
G0 Z-1.0
G1 F300.0 Z-2.0
G1 F800.0 X12.3
G1 X4.5
G1 X4.3 Z0.0
G1 X-4.5
G1 X-4.7 Z-2.0
G1 X-12.5
G0 Z3.0
G0 X12.5 Y-3.9
G0 Z-1.0
G1 F300.0 Z-2.0
G1 F800.0 X12.3
G1 X4.5
G1 X4.3 Z0.0
G1 X-4.7
G1 X-4.9 Z-2.0
G1 X-12.5
G0 Z3.0
G0 X12.5 Y-4.3
G0 Z-1.0
G1 F300.0 Z-2.0
G1 F800.0 X12.3
G1 X4.5
G1 X4.3 Z0.0
G1 X-4.7
G1 X-4.9 Z-2.0
G1 X-12.5
G0 Z3.0
G0 X12.5 Y-4.7
G0 Z-1.0
G1 F300.0 Z-2.0
G1 F800.0 X12.3
G1 X4.3
G1 X4.1 Z0.0
G1 X-4.7
G1 X-4.9 Z-2.0
G1 X-12.5
G0 Z3.0
G0 X12.5 Y-5.1
G0 Z-1.0
G1 F300.0 Z-2.0
G1 F800.0 X12.3
G1 X3.9
G1 X3.7 Z0.0
G1 X-4.7
G1 X-4.9 Z-2.0
G1 X-12.5
G0 Z3.0
G0 X12.5 Y-5.5
G0 Z-1.0
G1 F300.0 Z-2.0
G1 F800.0 X12.3
G1 X3.5
G1 X3.3 Z0.0
G1 X-4.5
G1 X-4.7 Z-2.0
G1 X-12.5
G0 Z3.0
G0 X12.5 Y-5.9
G0 Z-1.0
G1 F300.0 Z-2.0
G1 F800.0 X12.3
G1 X2.7
G1 X2.5 Z0.0
G1 X-4.1
G1 X-4.3 Z-2.0
G1 X-12.5
G0 Z3.0
G0 X12.5 Y-6.3
G0 Z-1.0
G1 F300.0 Z-2.0
G1 F800.0 X12.3
G1 X-12.5
G0 Z3.0
G0 X12.5 Y-6.7
G0 Z-1.0
G1 F300.0 Z-2.0
G1 F800.0 X12.3
G1 X-12.5
G0 Z3.0
G0 X12.5 Y-7.1
G0 Z-1.0
G1 F300.0 Z-2.0
G1 F800.0 X12.3
G1 X-12.5
G0 Z3.0
G0 X12.5 Y-7.5
G0 Z-1.0
G1 F300.0 Z-2.0
G1 F800.0 X12.3
G1 X-12.5
G0 Z3.0
G0 X12.5 Y-7.9
G0 Z-1.0
G1 F300.0 Z-2.0
G1 F800.0 X12.3
G1 X-12.5
G0 Z3.0
G0 X12.5 Y-8.3
G0 Z-1.0
G1 F300.0 Z-2.0
G1 F800.0 X12.3
G1 X-12.5
G0 Z3.0
G0 X12.5 Y-8.7
G0 Z-1.0
G1 F300.0 Z-2.0
G1 F800.0 X12.3
G1 X-12.5
G0 Z3.0
G0 X12.5 Y-9.1
G0 Z-1.0
G1 F300.0 Z-2.0
G1 F800.0 X12.3
G1 X-12.5
G0 Z3.0
G0 X12.5 Y-9.5
G0 Z-1.0
G1 F300.0 Z-2.0
G1 F800.0 X12.3
G1 X-12.5
G0 Z3.0
G0 X12.5 Y-9.9
G0 Z-1.0
G1 F300.0 Z-2.0
G1 F800.0 X12.3
G1 X-12.5
G0 Z3.0
G0 X12.5 Y-10.3
G0 Z-1.0
G1 F300.0 Z-2.0
G1 F800.0 X12.3
G1 X-12.5
G0 Z3.0
G0 X12.5 Y-10.7
G0 Z-1.0
G1 F300.0 Z-2.0
G1 F800.0 X12.3
G1 X-12.5
G0 Z3.0
G0 X12.5 Y-11.1
G0 Z-1.0
G1 F300.0 Z-2.0
G1 F800.0 X12.3
G1 X-12.5
G0 Z3.0
G0 X12.5 Y-11.5
G0 Z-1.0
G1 F300.0 Z-2.0
G1 F800.0 X12.3
G1 X-12.5
G0 Z3.0
G0 X12.5 Y-12.3
G0 Z-1.0
G1 F300.0 Z-2.0
G1 F800.0 X12.3
G1 X-12.5
G0 Z3.0
G0 Y-11.7
G0 Z-1.0
G1 F300.0 Z-2.0
G1 F800.0 X12.3
G1 X12.5
G0 Z3.0
G0 X-12.5 Y-11.3
G0 Z-1.0
G1 F300.0 Z-2.0
G1 F800.0 X12.3
G1 X12.5
G0 Z3.0
G0 X-12.5 Y-10.9
G0 Z-1.0
G1 F300.0 Z-2.0
G1 F800.0 X12.3
G1 X12.5
G0 Z3.0
G0 X-12.5 Y-10.5
G0 Z-1.0
G1 F300.0 Z-2.0
G1 F800.0 X12.3
G1 X12.5
G0 Z3.0
G0 X-12.5 Y-10.1
G0 Z-1.0
G1 F300.0 Z-2.0
G1 F800.0 X12.3
G1 X12.5
G0 Z3.0
G0 X-12.5 Y-9.7
G0 Z-1.0
G1 F300.0 Z-2.0
G1 F800.0 X12.3
G1 X12.5
G0 Z3.0
G0 X-12.5 Y-9.3
G0 Z-1.0
G1 F300.0 Z-2.0
G1 F800.0 X12.3
G1 X12.5
G0 Z3.0
G0 X-12.5 Y-8.9
G0 Z-1.0
G1 F300.0 Z-2.0
G1 F800.0 X12.3
G1 X12.5 Z-6.0
G0 Z3.0
G0 X-12.5 Y-8.5
G0 Z-1.0
G1 F300.0 Z-2.0
G1 F800.0 X12.3
G1 X12.5
G0 Z3.0
G0 X-12.5 Y-8.1
G0 Z-1.0
G1 F300.0 Z-2.0
G1 F800.0 X12.3
G1 X12.5
G0 Z3.0
G0 X-12.5 Y-7.7
G0 Z-1.0
G1 F300.0 Z-2.0
G1 F800.0 X12.3
G1 X12.5
G0 Z3.0
G0 X-12.5 Y-7.3
G0 Z-1.0
G1 F300.0 Z-2.0
G1 F800.0 X12.3
G1 X12.5
G0 Z3.0
G0 X-12.5 Y-6.9
G0 Z-1.0
G1 F300.0 Z-2.0
G1 F800.0 X12.3
G1 X12.5
G0 Z3.0
G0 X-12.5 Y-6.5
G0 Z-1.0
G1 F300.0 Z-2.0
G1 F800.0 X12.3
G1 X12.5
G0 Z3.0
G0 X-12.5 Y-6.1
G0 Z-1.0
G1 F300.0 Z-2.0
G1 F800.0 X12.3
G1 X12.5
G0 Z3.0
G0 X-12.5 Y-5.7
G0 Z-1.0
G1 F300.0 Z-2.0
G1 F800.0 X-4.5
G1 X-4.3 Z0.0
G1 X2.9
G1 X3.1 Z-2.0
G1 X12.3
G1 X12.5
G0 Z3.0
G0 X-12.5 Y-5.3
G0 Z-1.0
G1 F300.0 Z-2.0
G1 F800.0 X-4.9
G1 X-4.7 Z0.0
G1 X3.5
G1 X3.7 Z-2.0
G1 X12.3
G1 X12.5
G0 Z3.0
G0 X-12.5 Y-4.9
G0 Z-1.0
G1 F300.0 Z-2.0
G1 F800.0 X-4.9
G1 X-4.7 Z0.0
G1 X3.9
G1 X4.1 Z-2.0
G1 X12.3
G1 X12.5
G0 Z3.0
G0 X-12.5 Y-4.5
G0 Z-1.0
G1 F300.0 Z-2.0
G1 F800.0 X-4.9
G1 X-4.7 Z0.0
G1 X4.1
G1 X4.3 Z-2.0
G1 X12.3
G1 X12.5
G0 Z3.0
G0 X-12.5 Y-4.1
G0 Z-1.0
G1 F300.0 Z-2.0
G1 F800.0 X-4.9
G1 X-4.7 Z0.0
G1 X4.3
G1 X4.5 Z-2.0
G1 X12.3
G1 X12.5
G0 Z3.0
G0 X-12.5 Y-3.7
G0 Z-1.0
