( Made using CamBam - http://www.cambam.co.uk )
( cemetery_statue (Cut 2) 4/6/2015 9:50:42 PM )
( T2 : 2.0 )
G21 G90 G64 G40
G0 Z3.0
( T2 : 2.0 )
T2 M6
( 3DSurface1 )
G17
M3 S1000
G0 X-16.5116 Y-13.1964
G0 Z1.0
G1 F300.0 Z-0.4
G1 F800.0 X-14.3876
G1 X-14.0644
G0 Z3.0
G0 X-19.2144 Y-12.3964
G0 Z1.0
G1 F300.0 Z-0.4
G1 F800.0 X-13.5732
G0 Z3.0
G0 X-9.6157 Y-9.9964
G0 Z1.0
G1 F300.0 Z-0.4
G1 F800.0 X2.5251
G0 Z3.0
G0 X11.6243 Y-9.1964
G0 Z1.0
G1 F300.0 Z-0.4
G1 F800.0 X19.2946
G0 Z3.0
G0 X31.8495 Y-13.1964
G0 Z1.0
G1 F300.0 Z-0.4
G1 F800.0 X40.8132
G0 Z3.0
G0 X30.3104 Y-12.3964
G0 Z1.0
G1 F300.0 Z-0.4
G1 F800.0 X40.9876
G0 Z3.0
G0 X29.811 Y-11.5964
G0 Z1.0
G1 F300.0 Z-0.4
G1 F800.0 X40.9876
G0 Z3.0
G0 X27.6022 Y-10.7964
G0 Z1.0
G1 F300.0 Z-0.4
G1 F800.0 X40.9876
G0 Z3.0
G0 X26.7692 Y-9.9964
G0 Z1.0
G1 F300.0 Z-0.4
G1 F800.0 X40.9876
G0 Z3.0
G0 X26.6727 Y-9.1964
G0 Z1.0
G1 F300.0 Z-0.4
G1 F800.0 X40.9876
G0 Z3.0
G0 X26.1711 Y-8.3964
G0 Z1.0
G1 F300.0 Z-0.4
G1 F800.0 X40.9876
G0 Z3.0
G0 X-22.2165 Y-11.5964
G0 Z1.0
G1 F300.0 Z-0.4
G1 F800.0 X-13.5876
G1 X-13.3291
G0 Z3.0
G0 X-25.8468 Y-10.7964
G0 Z1.0
G1 F300.0 Z-0.4
G1 F800.0 X-13.1876
G1 X-12.9115
G0 Z3.0
G0 X-26.9069 Y-9.9964
G0 Z1.0
G1 F300.0 Z-0.4
G1 F800.0 X-12.2404
G0 Z3.0
G0 X-27.7003 Y-9.1964
G0 Z1.0
G1 F300.0 Z-0.4
G1 F800.0 X9.2124
G1 X9.5484
G0 Z3.0
G0 X-28.1438 Y-8.3964
G0 Z1.0
G1 F300.0 Z-0.4
G1 F800.0 X23.3025
G0 Z3.0
G0 X-30.4665
G0 Z1.0
G1 F300.0 Z-0.4
G1 F800.0 X-28.6067
G0 Z3.0
G0 X-35.0883 Y-9.1964
G0 Z1.0
G1 F300.0 Z-0.4
G1 F800.0 X-32.3876
G1 X-32.0091
G0 Z3.0
G0 X-38.4217 Y-8.3964
G0 Z1.0
G1 F300.0 Z-0.4
G1 F800.0 X-30.7217
G0 Z3.0
G0 X-39.6155 Y-7.5964
G0 Z1.0
G1 F300.0 Z-0.4
G1 F800.0 X40.9876
G0 Z3.0
G0 X-40.1709 Y-6.7964
G0 Z1.0
G1 F300.0 Z-0.4
G1 F800.0 X40.9876
G0 Z3.0
G0 X-40.6481 Y-5.9964
G0 Z1.0
G1 F300.0 Z-0.4
G1 F800.0 X40.9876
G0 Z3.0
G0 X-40.8953 Y-5.1964
G0 Z1.0
G1 F300.0 Z-0.4
G1 F800.0 X40.9876
G0 Z3.0
G0 X-40.9757 Y-4.3964
G0 Z1.0
G1 F300.0 Z-0.4
G1 F800.0 X40.9876
G0 Z3.0
G0 X-40.9806 Y-3.5964
G0 Z1.0
G1 F300.0 Z-0.4
G1 F800.0 X40.9876
G0 Z3.0
G0 X-40.9464 Y-2.7964
G0 Z1.0
G1 F300.0 Z-0.4
G1 F800.0 X40.9876
G0 Z3.0
G0 X-40.8618 Y-1.9964
G0 Z1.0
G1 F300.0 Z-0.4
G1 F800.0 X40.9876
G0 Z3.0
G0 X-40.6459 Y-1.1964
G0 Z1.0
G1 F300.0 Z-0.4
G1 F800.0 X40.9876
G0 Z3.0
G0 X-40.319 Y-0.3964
G0 Z1.0
G1 F300.0 Z-0.4
G1 F800.0 X40.9876
G0 Z3.0
G0 X-39.9009 Y0.4036
G0 Z1.0
G1 F300.0 Z-0.4
G1 F800.0 X40.9876
G0 Z3.0
G0 X-38.9437 Y1.2036
G0 Z1.0
G1 F300.0 Z-0.4
G1 F800.0 X40.9876
G0 Z3.0
G0 X-36.7582 Y2.0036
G0 Z1.0
G1 F300.0 Z-0.4
G1 F800.0 X40.9876
G0 Z3.0
G0 X-35.696 Y2.8036
G0 Z1.0
G1 F300.0 Z-0.4
G1 F800.0 X40.9876
G0 Z3.0
G0 X-31.1822 Y3.6036
G0 Z1.0
G1 F300.0 Z-0.4
G1 F800.0 X40.9876
G0 Z3.0
G0 X-28.4195 Y4.4036
G0 Z1.0
G1 F300.0 Z-0.4
G1 F800.0 X40.9876
G0 Z3.0
G0 X-27.5125 Y5.2036
G0 Z1.0
G1 F300.0 Z-0.4
G1 F800.0 X40.9876
G0 Z3.0
G0 X28.4386 Y6.0036
G0 Z1.0
G1 F300.0 Z-0.4
G1 F800.0 X40.9876
G0 Z3.0
G0 X29.4486 Y6.8036
G0 Z1.0
G1 F300.0 Z-0.4
G1 F800.0 X40.9876
G0 Z3.0
G0 X30.5856 Y7.6036
G0 Z1.0
G1 F300.0 Z-0.4
G1 F800.0 X40.9876
G0 Z3.0
G0 X31.3455 Y8.4036
G0 Z1.0
G1 F300.0 Z-0.4
G1 F800.0 X40.9876
G0 Z3.0
G0 X32.2358 Y9.2036
G0 Z1.0
G1 F300.0 Z-0.4
G1 F800.0 X40.9876
G0 Z3.0
G0 X33.3034 Y10.0036
G0 Z1.0
G1 F300.0 Z-0.4
G1 F800.0 X40.9069
G1 F300.0 X40.596 Y10.4036
G1 Z-0.8
G1 F800.0 X34.5126
G0 Z3.0
G0 X40.9876 Y9.6036
G0 Z0.6
G1 F300.0 Z-0.8
G1 F800.0 X32.7812
G0 Z3.0
G0 X40.9876 Y8.8036
G0 Z0.6
G1 F300.0 Z-0.8
G1 F800.0 X31.7826
G0 Z3.0
G0 X40.9876 Y8.0036
G0 Z0.6
G1 F300.0 Z-0.8
G1 F800.0 X30.9795
G0 Z3.0
G0 X40.9876 Y7.2036
G0 Z0.6
G1 F300.0 Z-0.8
G1 F800.0 X30.2953
G0 Z3.0
G0 X24.8941 Y6.0036
G0 Z1.0
G1 F300.0 Z-0.4
G1 F800.0 X28.0124
G1 X28.2211
G0 Z3.0
G0 X24.5486
G0 Z1.0
G1 F300.0 Z-0.4
G1 F800.0 X24.6329
G0 Z3.0
G0 X40.9876 Y6.4036
G0 Z0.6
G1 F300.0 Z-0.8
G1 F800.0 X28.9492
G0 Z3.0
G0 X-26.7299 Y6.0036
G0 Z1.0
G1 F300.0 Z-0.4
G1 F800.0 X20.4124
G1 X20.6305
G0 Z3.0
G0 X-25.724 Y6.8036
G0 Z1.0
G1 F300.0 Z-0.4
G1 F800.0 X10.4124
G1 X10.6183
G0 Z3.0
G0 X-23.5449 Y7.6036
G0 Z1.0
G1 F300.0 Z-0.4
G1 F800.0 X10.6092
G0 Z3.0
G0 X-14.2852 Y8.4036
G0 Z1.0
G1 F300.0 Z-0.4
G1 F800.0 X10.4124
G1 X10.652
G0 Z3.0
G0 X-12.8295 Y9.2036
G0 Z1.0
G1 F300.0 Z-0.4
G1 F800.0 X10.4124
G1 X10.6286
G0 Z3.0
G0 X-7.8531 Y10.0036
G0 Z1.0
G1 F300.0 Z-0.4
G1 F800.0 X10.5282
G0 Z3.0
G0 X-2.8457 Y10.8036
G0 Z1.0
G1 F300.0 Z-0.4
G1 F800.0 X10.0124
G1 X10.2555
G0 Z3.0
G0 X-0.1867 Y11.6036
G0 Z1.0
G1 F300.0 Z-0.4
G1 F800.0 X9.2124
G1 X9.5482
G0 Z3.0
G0 X1.0526 Y12.4036
G0 Z1.0
G1 F300.0 Z-0.4
G1 F800.0 X8.4124
G1 X8.6365
G0 Z3.0
G0 X4.7877 Y13.2036
G0 Z1.0
G1 F300.0 Z-0.4
G1 F800.0 X7.6124
G1 X7.8582
G1 F300.0 X7.0415 Y13.6036
G1 Z-0.8
G1 F800.0 X6.8124
G1 X5.3882
G0 Z3.0
G0 X8.3285 Y12.8036
G0 Z0.6
G1 F300.0 Z-0.8
G1 F800.0 X8.0124
G1 X4.4218
G0 Z3.0
G0 X9.024 Y12.0036
G0 Z0.6
G1 F300.0 Z-0.8
G1 F800.0 X8.8124
G1 X0.4174
G0 Z3.0
G0 X9.9636 Y11.2036
G0 Z0.6
G1 F300.0 Z-0.8
G1 F800.0 X9.6124
G1 X-1.8655
G0 Z3.0
G0 X10.4238 Y10.4036
G0 Z0.6
G1 F300.0 Z-0.8
G1 F800.0 X-3.7435
G0 Z3.0
G0 X10.5799 Y9.6036
G0 Z0.6
G1 F300.0 Z-0.8
G1 F800.0 X-11.5532
G0 Z3.0
G0 X10.6404 Y8.8036
G0 Z0.6
G1 F300.0 Z-0.8
G1 F800.0 X10.4124
G1 X-13.6732
G0 Z3.0
G0 X10.6411 Y8.0036
G0 Z0.6
G1 F300.0 Z-0.8
G1 F800.0 X10.4124
G1 X-18.6712
G0 Z3.0
G0 X10.594 Y7.2036
G0 Z0.6
G1 F300.0 Z-0.8
G1 F800.0 X-24.987
G0 Z3.0
G0 X12.2289 Y6.4036
G0 Z0.6
G1 F300.0 Z-0.8
G1 F800.0 X12.0124
G1 X-26.2708
G0 Z3.0
G0 X40.9876 Y5.6036
G0 Z0.6
G1 F300.0 Z-0.8
G1 F800.0 X-27.0494
G0 Z3.0
G0 X40.9876 Y4.8036
G0 Z0.6
G1 F300.0 Z-0.8
G1 F800.0 X-27.8326
G0 Z3.0
G0 X-34.201 Y3.6036
G0 Z1.0
G1 F300.0 Z-0.4
G1 F800.0 X-31.5876
G1 X-31.325
G1 F300.0 X-32.2927 Y4.0036
G1 Z-0.8
G1 F800.0 X-33.3277
G0 Z3.0
G0 X40.9876
G0 Z0.6
G1 F300.0 Z-0.8
G1 F800.0 X-30.4527
G0 Z3.0
G0 X40.9876 Y3.2036
G0 Z0.6
G1 F300.0 Z-0.8
G1 F800.0 X-35.1092
G0 Z3.0
G0 X40.9876 Y2.4036
G0 Z0.6
G1 F300.0 Z-0.8
G1 F800.0 X-36.019
G0 Z3.0
G0 X40.9876 Y1.6036
G0 Z0.6
G1 F300.0 Z-0.8
G1 F800.0 X-38.1211
G0 Z3.0
G0 X40.9876 Y0.8036
G0 Z0.6
G1 F300.0 Z-0.8
G1 F800.0 X-39.525
G0 Z3.0
G0 X40.9876 Y0.0036
G0 Z0.6
G1 F300.0 Z-0.8
G1 F800.0 X-40.1402
G0 Z3.0
G0 X40.9876 Y-0.7964
G0 Z0.6
G1 F300.0 Z-0.8
G1 F800.0 X-40.4921
G0 Z3.0
G0 X40.9876 Y-1.5964
G0 Z0.6
G1 F300.0 Z-0.8
G1 F800.0 X-40.7537
G0 Z3.0
G0 X40.9876 Y-2.3964
G0 Z0.6
G1 F300.0 Z-0.8
G1 F800.0 X-40.9309
G0 Z3.0
G0 X40.9876 Y-3.1964
G0 Z0.6
G1 F300.0 Z-0.8
G1 F800.0 X-40.959
G0 Z3.0
G0 X40.9876 Y-3.9964
G0 Z0.6
G1 F300.0 Z-0.8
G1 F800.0 X-40.9876
G0 Z3.0
G0 X40.9876 Y-4.7964
G0 Z0.6
G1 F300.0 Z-0.8
G1 F800.0 X-40.945
G0 Z3.0
G0 X40.9876 Y-5.5964
G0 Z0.6
G1 F300.0 Z-0.8
G1 F800.0 X-40.7957
G0 Z3.0
G0 X40.9876 Y-6.3964
G0 Z0.6
G1 F300.0 Z-0.8
G1 F800.0 X-40.4105
G0 Z3.0
G0 X40.9876 Y-7.1964
G0 Z0.6
G1 F300.0 Z-0.8
G1 F800.0 X-39.9309
G0 Z3.0
G0 X24.1041 Y-7.9964
G0 Z0.6
G1 F300.0 Z-0.8
G1 F800.0 X-39.1812
G0 Z3.0
G0 X-31.084 Y-8.7964
G0 Z0.6
G1 F300.0 Z-0.8
G1 F800.0 X-35.828
G0 Z3.0
G0 X-32.7568 Y-9.5964
G0 Z0.6
G1 F300.0 Z-0.8
G1 F800.0 X-34.0371
G1 F300.0 X-35.0883 Y-9.1964
G1 Z-1.2
G1 F800.0 X-32.3876
G1 X-32.0091
G0 Z3.0
G0 X-38.4217 Y-8.3964
G0 Z0.2
G1 F300.0 Z-1.2
G1 F800.0 X-30.7217
G0 Z3.0
G0 X20.6841 Y-8.7964
G0 Z0.6
G1 F300.0 Z-0.8
G1 F800.0 X20.4124
G1 X-27.9501
G0 Z3.0
G0 X-11.9588 Y-9.5964
G0 Z0.6
G1 F300.0 Z-0.8
G1 F800.0 X-27.3212
G0 Z3.0
G0 X-12.5446 Y-10.3964
G0 Z0.6
G1 F300.0 Z-0.8
G1 F800.0 X-12.7876
G1 X-26.4662
G0 Z3.0
G0 X-13.128 Y-11.1964
G0 Z0.6
G1 F300.0 Z-0.8
G1 F800.0 X-24.5197
G0 Z3.0
G0 X-13.4453 Y-11.9964
G0 Z0.6
G1 F300.0 Z-0.8
G1 F800.0 X-20.4915
G0 Z3.0
G0 X-13.7375 Y-12.7964
G0 Z0.6
G1 F300.0 Z-0.8
G1 F800.0 X-13.9876
G1 X-17.9024
G0 Z3.0
G0 X-16.5116 Y-13.1964
G0 Z0.2
G1 F300.0 Z-1.2
G1 F800.0 X-14.3876
G1 X-14.0644
G0 Z3.0
G0 X-19.2144 Y-12.3964
G0 Z0.2
G1 F300.0 Z-1.2
G1 F800.0 X-13.5732
G0 Z3.0
G0 X-22.2165 Y-11.5964
G0 Z0.2
G1 F300.0 Z-1.2
G1 F800.0 X-13.5876
G1 X-13.3291
G0 Z3.0
G0 X-25.8468 Y-10.7964
G0 Z0.2
G1 F300.0 Z-1.2
G1 F800.0 X-13.1876
G1 X-12.9115
G0 Z3.0
G0 X7.1345 Y-9.5964
G0 Z0.6
G1 F300.0 Z-0.8
G1 F800.0 X6.8124
G1 X-10.9531
G0 Z3.0
G0 X0.2389 Y-10.3964
G0 Z0.6
G1 F300.0 Z-0.8
G1 F800.0 X0.0124
G1 X-6.64
G0 Z3.0
G0 X-9.6157 Y-9.9964
G0 Z0.2
G1 F300.0 Z-1.2
G1 F800.0 X2.5251
G0 Z3.0
G0 X-26.9069
G0 Z0.2
G1 F300.0 Z-1.2
G1 F800.0 X-12.2404
G0 Z3.0
G0 X-27.7003 Y-9.1964
G0 Z0.2
G1 F300.0 Z-1.2
G1 F800.0 X9.2124
G1 X9.5484
G0 Z3.0
G0 X-30.4665 Y-8.3964
G0 Z0.2
G1 F300.0 Z-1.2
G1 F800.0 X-28.6067
G0 Z3.0
G0 X16.4318 Y-9.5964
G0 Z0.6
G1 F300.0 Z-0.8
G1 F800.0 X13.68
G0 Z3.0
G0 X11.6243 Y-9.1964
G0 Z0.2
G1 F300.0 Z-1.2
G1 F800.0 X19.2946
G0 Z3.0
G0 X22.2678 Y-8.7964
G0 Z0.6
G1 F300.0 Z-0.8
G1 F800.0 X22.0124
G1 X21.7458
G0 Z3.0
G0 X40.9876 Y-7.9964
G0 Z0.6
G1 F300.0 Z-0.8
G1 F800.0 X25.5232
G0 Z3.0
G0 X40.9876 Y-8.7964
G0 Z0.6
G1 F300.0 Z-0.8
G1 F800.0 X26.4795
G0 Z3.0
G0 X40.9876 Y-9.5964
G0 Z0.6
G1 F300.0 Z-0.8
G1 F800.0 X26.6492
G0 Z3.0
G0 X40.9876 Y-10.3964
G0 Z0.6
G1 F300.0 Z-0.8
G1 F800.0 X27.0731
G0 Z3.0
G0 X40.9876 Y-11.1964
G0 Z0.6
G1 F300.0 Z-0.8
G1 F800.0 X29.6236
G0 Z3.0
G0 X40.9876 Y-11.9964
G0 Z0.6
G1 F300.0 Z-0.8
G1 F800.0 X30.0578
G0 Z3.0
G0 X40.974 Y-12.7964
G0 Z0.6
G1 F300.0 Z-0.8
G1 F800.0 X30.7638
G0 Z3.0
G0 X40.2525 Y-13.5964
G0 Z0.6
G1 F300.0 Z-0.8
G1 F800.0 X40.0124
G1 X32.5572
G1 F300.0 X31.8495 Y-13.1964
G1 Z-1.2
G1 F800.0 X40.8132
G0 Z3.0
G0 X30.3104 Y-12.3964
G0 Z0.2
G1 F300.0 Z-1.2
G1 F800.0 X40.9876
G0 Z3.0
G0 X29.811 Y-11.5964
G0 Z0.2
G1 F300.0 Z-1.2
G1 F800.0 X40.9876
G0 Z3.0
G0 X27.6022 Y-10.7964
G0 Z0.2
G1 F300.0 Z-1.2
G1 F800.0 X40.9876
G0 Z3.0
G0 X26.7692 Y-9.9964
G0 Z0.2
G1 F300.0 Z-1.2
G1 F800.0 X40.9876
G0 Z3.0
G0 X26.6727 Y-9.1964
G0 Z0.2
G1 F300.0 Z-1.2
G1 F800.0 X40.9876
G0 Z3.0
G0 X26.1711 Y-8.3964
G0 Z0.2
G1 F300.0 Z-1.2
G1 F800.0 X40.9876
G0 Z3.0
G0 X-28.1438
G0 Z0.2
G1 F300.0 Z-1.2
G1 F800.0 X23.3025
G0 Z3.0
G0 X-39.6155 Y-7.5964
G0 Z0.2
G1 F300.0 Z-1.2
G1 F800.0 X40.9876
G0 Z3.0
G0 X-40.1709 Y-6.7964
G0 Z0.2
G1 F300.0 Z-1.2
G1 F800.0 X40.9876
G0 Z3.0
G0 X-40.6481 Y-5.9964
G0 Z0.2
G1 F300.0 Z-1.2
G1 F800.0 X40.9876
G0 Z3.0
G0 X-40.8953 Y-5.1964
G0 Z0.2
G1 F300.0 Z-1.2
G1 F800.0 X40.9876
G0 Z3.0
G0 X-40.9757 Y-4.3964
G0 Z0.2
G1 F300.0 Z-1.2
G1 F800.0 X40.9876
G0 Z3.0
G0 X-40.9806 Y-3.5964
G0 Z0.2
G1 F300.0 Z-1.2
G1 F800.0 X40.9876
G0 Z3.0
G0 X-40.9464 Y-2.7964
G0 Z0.2
G1 F300.0 Z-1.2
G1 F800.0 X40.9876
G0 Z3.0
G0 X-40.8618 Y-1.9964
G0 Z0.2
G1 F300.0 Z-1.2
G1 F800.0 X40.9876
G0 Z3.0
G0 X-40.6459 Y-1.1964
G0 Z0.2
G1 F300.0 Z-1.2
G1 F800.0 X40.9876
G0 Z3.0
G0 X-40.319 Y-0.3964
G0 Z0.2
G1 F300.0 Z-1.2
G1 F800.0 X40.9876
G0 Z3.0
G0 X-39.9009 Y0.4036
G0 Z0.2
G1 F300.0 Z-1.2
G1 F800.0 X40.9876
G0 Z3.0
G0 X-38.9437 Y1.2036
G0 Z0.2
G1 F300.0 Z-1.2
G1 F800.0 X40.9876
G0 Z3.0
G0 X-36.7582 Y2.0036
G0 Z0.2
G1 F300.0 Z-1.2
G1 F800.0 X40.9876
G0 Z3.0
G0 X-35.696 Y2.8036
G0 Z0.2
G1 F300.0 Z-1.2
G1 F800.0 X40.9876
G0 Z3.0
G0 X-31.1822 Y3.6036
G0 Z0.2
G1 F300.0 Z-1.2
G1 F800.0 X40.9876
G0 Z3.0
G0 X-28.4195 Y4.4036
G0 Z0.2
G1 F300.0 Z-1.2
G1 F800.0 X40.9876
G0 Z3.0
G0 X-27.5125 Y5.2036
G0 Z0.2
G1 F300.0 Z-1.2
G1 F800.0 X40.9876
G0 Z3.0
G0 X28.4386 Y6.0036
G0 Z0.2
G1 F300.0 Z-1.2
G1 F800.0 X40.9876
G0 Z3.0
G0 X29.4486 Y6.8036
G0 Z0.2
G1 F300.0 Z-1.2
G1 F800.0 X40.9876
G0 Z3.0
G0 X30.5856 Y7.6036
G0 Z0.2
G1 F300.0 Z-1.2
G1 F800.0 X40.9876
G0 Z3.0
G0 X31.3455 Y8.4036
G0 Z0.2
G1 F300.0 Z-1.2
G1 F800.0 X40.9876
G0 Z3.0
G0 X32.2358 Y9.2036
G0 Z0.2
G1 F300.0 Z-1.2
G1 F800.0 X40.9876
G0 Z3.0
G0 X33.3034 Y10.0036
G0 Z0.2
G1 F300.0 Z-1.2
G1 F800.0 X40.9069
G1 F300.0 X40.596 Y10.4036
G1 Z-1.6
G1 F800.0 X34.5126
G0 Z3.0
G0 X40.9876 Y9.6036
G0 Z-0.2
G1 F300.0 Z-1.6
G1 F800.0 X32.7812
G0 Z3.0
G0 X40.9876 Y8.8036
G0 Z-0.2
G1 F300.0 Z-1.6
G1 F800.0 X31.7826
G0 Z3.0
G0 X40.9876 Y8.0036
G0 Z-0.2
G1 F300.0 Z-1.6
G1 F800.0 X30.9795
G0 Z3.0
G0 X40.9876 Y7.2036
G0 Z-0.2
G1 F300.0 Z-1.6
G1 F800.0 X30.2953
G0 Z3.0
G0 X24.8941 Y6.0036
G0 Z0.2
G1 F300.0 Z-1.2
G1 F800.0 X28.0124
G1 X28.2211
G0 Z3.0
G0 X24.5486
G0 Z0.2
G1 F300.0 Z-1.2
G1 F800.0 X24.6329
G0 Z3.0
G0 X40.9876 Y6.4036
G0 Z-0.2
G1 F300.0 Z-1.6
G1 F800.0 X28.9492
G0 Z3.0
G0 X-26.7299 Y6.0036
G0 Z0.2
G1 F300.0 Z-1.2
G1 F800.0 X20.4124
G1 X20.6305
G0 Z3.0
G0 X-25.724 Y6.8036
G0 Z0.2
G1 F300.0 Z-1.2
G1 F800.0 X10.4124
G1 X10.6183
G0 Z3.0
G0 X-23.5449 Y7.6036
G0 Z0.2
G1 F300.0 Z-1.2
G1 F800.0 X10.6092
G0 Z3.0
G0 X-14.2852 Y8.4036
G0 Z0.2
G1 F300.0 Z-1.2
G1 F800.0 X10.4124
G1 X10.652
G0 Z3.0
G0 X-12.8295 Y9.2036
G0 Z0.2
G1 F300.0 Z-1.2
G1 F800.0 X10.4124
G1 X10.6286
G0 Z3.0
G0 X-7.8531 Y10.0036
G0 Z0.2
G1 F300.0 Z-1.2
G1 F800.0 X10.5282
G0 Z3.0
G0 X-2.8457 Y10.8036
G0 Z0.2
G1 F300.0 Z-1.2
G1 F800.0 X10.0124
G1 X10.2555
G0 Z3.0
G0 X-0.1867 Y11.6036
G0 Z0.2
G1 F300.0 Z-1.2
G1 F800.0 X9.2124
G1 X9.5482
G0 Z3.0
G0 X1.0526 Y12.4036
G0 Z0.2
G1 F300.0 Z-1.2
G1 F800.0 X8.4124
G1 X8.6365
G0 Z3.0
G0 X4.7877 Y13.2036
G0 Z0.2
G1 F300.0 Z-1.2
G1 F800.0 X7.6124
G1 X7.8582
G1 F300.0 X7.0415 Y13.6036
G1 Z-1.6
G1 F800.0 X6.8124
G1 X5.3882
G0 Z3.0
G0 X8.3285 Y12.8036
G0 Z-0.2
G1 F300.0 Z-1.6
G1 F800.0 X8.0124
G1 X4.4218
G0 Z3.0
G0 X9.024 Y12.0036
G0 Z-0.2
G1 F300.0 Z-1.6
G1 F800.0 X8.8124
G1 X0.4174
G0 Z3.0
G0 X9.9636 Y11.2036
G0 Z-0.2
G1 F300.0 Z-1.6
G1 F800.0 X9.6124
G1 X-1.8655
G0 Z3.0
G0 X10.4238 Y10.4036
G0 Z-0.2
G1 F300.0 Z-1.6
G1 F800.0 X-3.7435
G0 Z3.0
G0 X10.5799 Y9.6036
G0 Z-0.2
G1 F300.0 Z-1.6
G1 F800.0 X-11.5532
G0 Z3.0
G0 X10.6404 Y8.8036
G0 Z-0.2
G1 F300.0 Z-1.6
G1 F800.0 X10.4124
G1 X-13.6732
G0 Z3.0
G0 X10.6411 Y8.0036
G0 Z-0.2
G1 F300.0 Z-1.6
G1 F800.0 X10.4124
G1 X-18.6712
G0 Z3.0
G0 X10.594 Y7.2036
G0 Z-0.2
G1 F300.0 Z-1.6
G1 F800.0 X-24.987
G0 Z3.0
G0 X12.2289 Y6.4036
G0 Z-0.2
G1 F300.0 Z-1.6
G1 F800.0 X12.0124
G1 X-26.2708
G0 Z3.0
G0 X40.9876 Y5.6036
G0 Z-0.2
G1 F300.0 Z-1.6
G1 F800.0 X-27.0494
G0 Z3.0
G0 X40.9876 Y4.8036
G0 Z-0.2
G1 F300.0 Z-1.6
G1 F800.0 X-27.8326
G0 Z3.0
G0 X-34.201 Y3.6036
G0 Z0.2
G1 F300.0 Z-1.2
G1 F800.0 X-31.5876
G1 X-31.325
G1 F300.0 X-32.2927 Y4.0036
G1 Z-1.6
G1 F800.0 X-33.3277
G0 Z3.0
G0 X40.9876
G0 Z-0.2
G1 F300.0 Z-1.6
G1 F800.0 X-30.4527
G0 Z3.0
G0 X40.9876 Y3.2036
G0 Z-0.2
G1 F300.0 Z-1.6
G1 F800.0 X-35.1092
G0 Z3.0
G0 X40.9876 Y2.4036
G0 Z-0.2
G1 F300.0 Z-1.6
G1 F800.0 X-36.019
G0 Z3.0
G0 X40.9876 Y1.6036
G0 Z-0.2
G1 F300.0 Z-1.6
G1 F800.0 X-38.1211
G0 Z3.0
G0 X40.9876 Y0.8036
G0 Z-0.2
G1 F300.0 Z-1.6
G1 F800.0 X-39.525
G0 Z3.0
G0 X40.9876 Y0.0036
G0 Z-0.2
G1 F300.0 Z-1.6
G1 F800.0 X-40.1402
G0 Z3.0
G0 X40.9876 Y-0.7964
G0 Z-0.2
G1 F300.0 Z-1.6
G1 F800.0 X-40.4921
G0 Z3.0
G0 X40.9876 Y-1.5964
G0 Z-0.2
G1 F300.0 Z-1.6
G1 F800.0 X-40.7537
G0 Z3.0
G0 X40.9876 Y-2.3964
G0 Z-0.2
G1 F300.0 Z-1.6
G1 F800.0 X-40.9309
G0 Z3.0
G0 X40.9876 Y-3.1964
G0 Z-0.2
G1 F300.0 Z-1.6
G1 F800.0 X-40.959
G0 Z3.0
G0 X40.9876 Y-3.9964
G0 Z-0.2
G1 F300.0 Z-1.6
G1 F800.0 X-40.9876
G0 Z3.0
G0 X40.9876 Y-4.7964
G0 Z-0.2
G1 F300.0 Z-1.6
G1 F800.0 X-40.945
G0 Z3.0
G0 X40.9876 Y-5.5964
G0 Z-0.2
G1 F300.0 Z-1.6
G1 F800.0 X-40.7957
G0 Z3.0
G0 X40.9876 Y-6.3964
G0 Z-0.2
G1 F300.0 Z-1.6
G1 F800.0 X-40.4105
G0 Z3.0
G0 X40.9876 Y-7.1964
G0 Z-0.2
G1 F300.0 Z-1.6
G1 F800.0 X-39.9309
G0 Z3.0
G0 X24.1041 Y-7.9964
G0 Z-0.2
G1 F300.0 Z-1.6
G1 F800.0 X-39.1812
G0 Z3.0
G0 X-31.084 Y-8.7964
G0 Z-0.2
G1 F300.0 Z-1.6
G1 F800.0 X-35.828
G0 Z3.0
G0 X-32.7568 Y-9.5964
G0 Z-0.2
G1 F300.0 Z-1.6
G1 F800.0 X-34.0371
G1 F300.0 X-35.0883 Y-9.1964
G1 Z-2.0
G1 F800.0 X-32.3876
G1 X-32.0091
G0 Z3.0
G0 X-38.4217 Y-8.3964
G0 Z-0.6
G1 F300.0 Z-2.0
G1 F800.0 X-30.7217
G0 Z3.0
G0 X20.6841 Y-8.7964
G0 Z-0.2
G1 F300.0 Z-1.6
G1 F800.0 X20.4124
G1 X-27.9501
G0 Z3.0
G0 X-11.9588 Y-9.5964
G0 Z-0.2
G1 F300.0 Z-1.6
G1 F800.0 X-27.3212
G0 Z3.0
G0 X-12.5446 Y-10.3964
G0 Z-0.2
G1 F300.0 Z-1.6
G1 F800.0 X-12.7876
G1 X-26.4662
G0 Z3.0
G0 X-13.128 Y-11.1964
G0 Z-0.2
G1 F300.0 Z-1.6
G1 F800.0 X-24.5197
G0 Z3.0
G0 X-13.4453 Y-11.9964
G0 Z-0.2
G1 F300.0 Z-1.6
G1 F800.0 X-20.4915
G0 Z3.0
G0 X-13.7375 Y-12.7964
G0 Z-0.2
G1 F300.0 Z-1.6
G1 F800.0 X-13.9876
G1 X-17.9024
G0 Z3.0
G0 X-16.5116 Y-13.1964
G0 Z-0.6
G1 F300.0 Z-2.0
G1 F800.0 X-14.3876
G1 X-14.0644
G0 Z3.0
G0 X-19.2144 Y-12.3964
G0 Z-0.6
G1 F300.0 Z-2.0
G1 F800.0 X-13.5732
G0 Z3.0
G0 X-22.2165 Y-11.5964
G0 Z-0.6
G1 F300.0 Z-2.0
G1 F800.0 X-13.5876
G1 X-13.3291
G0 Z3.0
G0 X-25.8468 Y-10.7964
G0 Z-0.6
G1 F300.0 Z-2.0
G1 F800.0 X-13.1876
G1 X-12.9115
G0 Z3.0
G0 X7.1345 Y-9.5964
G0 Z-0.2
G1 F300.0 Z-1.6
G1 F800.0 X6.8124
G1 X-10.9531
G0 Z3.0
G0 X0.2389 Y-10.3964
G0 Z-0.2
G1 F300.0 Z-1.6
G1 F800.0 X0.0124
G1 X-6.64
G0 Z3.0
G0 X-9.6157 Y-9.9964
G0 Z-0.6
G1 F300.0 Z-2.0
G1 F800.0 X2.5251
G0 Z3.0
G0 X-26.9069
G0 Z-0.6
G1 F300.0 Z-2.0
G1 F800.0 X-12.2404
G0 Z3.0
G0 X-27.7003 Y-9.1964
G0 Z-0.6
G1 F300.0 Z-2.0
G1 F800.0 X9.2124
G1 X9.5484
G0 Z3.0
G0 X-30.4665 Y-8.3964
G0 Z-0.6
G1 F300.0 Z-2.0
G1 F800.0 X-28.6067
G0 Z3.0
G0 X16.4318 Y-9.5964
G0 Z-0.2
G1 F300.0 Z-1.6
G1 F800.0 X13.68
G0 Z3.0
G0 X11.6243 Y-9.1964
G0 Z-0.6
G1 F300.0 Z-2.0
G1 F800.0 X19.2946
G0 Z3.0
G0 X22.2678 Y-8.7964
G0 Z-0.2
G1 F300.0 Z-1.6
G1 F800.0 X22.0124
G1 X21.7458
G0 Z3.0
G0 X40.9876 Y-7.9964
G0 Z-0.2
G1 F300.0 Z-1.6
G1 F800.0 X25.5232
G0 Z3.0
G0 X40.9876 Y-8.7964
G0 Z-0.2
G1 F300.0 Z-1.6
G1 F800.0 X26.4795
G0 Z3.0
G0 X40.9876 Y-9.5964
G0 Z-0.2
G1 F300.0 Z-1.6
G1 F800.0 X26.6492
G0 Z3.0
G0 X40.9876 Y-10.3964
G0 Z-0.2
G1 F300.0 Z-1.6
G1 F800.0 X27.0731
G0 Z3.0
G0 X40.9876 Y-11.1964
G0 Z-0.2
G1 F300.0 Z-1.6
G1 F800.0 X29.6236
G0 Z3.0
G0 X40.9876 Y-11.9964
G0 Z-0.2
G1 F300.0 Z-1.6
G1 F800.0 X30.0578
G0 Z3.0
G0 X40.974 Y-12.7964
G0 Z-0.2
G1 F300.0 Z-1.6
G1 F800.0 X30.7638
G0 Z3.0
G0 X40.2525 Y-13.5964
G0 Z-0.2
G1 F300.0 Z-1.6
G1 F800.0 X40.0124
G1 X32.5572
G1 F300.0 X31.8495 Y-13.1964
G1 Z-2.0
G1 F800.0 X40.8132
G0 Z3.0
G0 X30.3104 Y-12.3964
G0 Z-0.6
G1 F300.0 Z-2.0
G1 F800.0 X40.9876
G0 Z3.0
G0 X29.811 Y-11.5964
G0 Z-0.6
G1 F300.0 Z-2.0
G1 F800.0 X40.9876
G0 Z3.0
G0 X27.6022 Y-10.7964
G0 Z-0.6
G1 F300.0 Z-2.0
G1 F800.0 X40.9876
G0 Z3.0
G0 X26.7692 Y-9.9964
G0 Z-0.6
G1 F300.0 Z-2.0
G1 F800.0 X40.9876
G0 Z3.0
G0 X26.6727 Y-9.1964
G0 Z-0.6
G1 F300.0 Z-2.0
G1 F800.0 X40.9876
G0 Z3.0
G0 X26.1711 Y-8.3964
G0 Z-0.6
G1 F300.0 Z-2.0
G1 F800.0 X40.9876
G0 Z3.0
G0 X-28.1438
G0 Z-0.6
G1 F300.0 Z-2.0
G1 F800.0 X23.3025
G0 Z3.0
G0 X-39.6155 Y-7.5964
G0 Z-0.6
G1 F300.0 Z-2.0
G1 F800.0 X40.9876
G0 Z3.0
G0 X-40.1709 Y-6.7964
G0 Z-0.6
G1 F300.0 Z-2.0
G1 F800.0 X40.9876
G0 Z3.0
G0 X-40.6481 Y-5.9964
G0 Z-0.6
G1 F300.0 Z-2.0
G1 F800.0 X40.9876
G0 Z3.0
G0 X-40.8953 Y-5.1964
G0 Z-0.6
G1 F300.0 Z-2.0
G1 F800.0 X40.9876
G0 Z3.0
G0 X-40.9757 Y-4.3964
G0 Z-0.6
G1 F300.0 Z-2.0
G1 F800.0 X40.9876
G0 Z3.0
G0 X-40.9806 Y-3.5964
G0 Z-0.6
G1 F300.0 Z-2.0
G1 F800.0 X40.9876
G0 Z3.0
G0 X-40.9464 Y-2.7964
G0 Z-0.6
G1 F300.0 Z-2.0
G1 F800.0 X40.9876
G0 Z3.0
G0 X-40.8618 Y-1.9964
G0 Z-0.6
G1 F300.0 Z-2.0
G1 F800.0 X40.9876
G0 Z3.0
G0 X-40.6459 Y-1.1964
G0 Z-0.6
G1 F300.0 Z-2.0
G1 F800.0 X40.9876
G0 Z3.0
G0 X-40.319 Y-0.3964
G0 Z-0.6
G1 F300.0 Z-2.0
G1 F800.0 X40.9876
G0 Z3.0
G0 X-39.9009 Y0.4036
G0 Z-0.6
G1 F300.0 Z-2.0
G1 F800.0 X40.9876
G0 Z3.0
G0 X-38.9437 Y1.2036
G0 Z-0.6
G1 F300.0 Z-2.0
G1 F800.0 X40.9876
G0 Z3.0
G0 X-36.7582 Y2.0036
G0 Z-0.6
G1 F300.0 Z-2.0
G1 F800.0 X40.9876
G0 Z3.0
G0 X-35.696 Y2.8036
G0 Z-0.6
G1 F300.0 Z-2.0
G1 F800.0 X40.9876
G0 Z3.0
G0 X-31.1822 Y3.6036
G0 Z-0.6
G1 F300.0 Z-2.0
G1 F800.0 X40.9876
G0 Z3.0
G0 X-28.4195 Y4.4036
G0 Z-0.6
G1 F300.0 Z-2.0
G1 F800.0 X40.9876
G0 Z3.0
G0 X-27.5125 Y5.2036
G0 Z-0.6
G1 F300.0 Z-2.0
G1 F800.0 X40.9876
G0 Z3.0
G0 X28.4386 Y6.0036
G0 Z-0.6
G1 F300.0 Z-2.0
G1 F800.0 X40.9876
G0 Z3.0
G0 X29.4486 Y6.8036
G0 Z-0.6
G1 F300.0 Z-2.0
G1 F800.0 X40.9876
G0 Z3.0
G0 X30.5856 Y7.6036
G0 Z-0.6
G1 F300.0 Z-2.0
G1 F800.0 X40.9876
G0 Z3.0
G0 X31.3455 Y8.4036
G0 Z-0.6
G1 F300.0 Z-2.0
G1 F800.0 X40.9876
G0 Z3.0
G0 X32.2358 Y9.2036
G0 Z-0.6
G1 F300.0 Z-2.0
G1 F800.0 X40.9876
G0 Z3.0
G0 X33.3034 Y10.0036
G0 Z-0.6
G1 F300.0 Z-2.0
G1 F800.0 X40.9069
G1 F300.0 X40.596 Y10.4036
G1 Z-2.4
G1 F800.0 X34.5126
G0 Z3.0
G0 X40.9876 Y9.6036
G0 Z-1.0
G1 F300.0 Z-2.4
G1 F800.0 X32.7812
G0 Z3.0
G0 X40.9876 Y8.8036
G0 Z-1.0
G1 F300.0 Z-2.4
G1 F800.0 X31.7826
G0 Z3.0
G0 X40.9876 Y8.0036
G0 Z-1.0
G1 F300.0 Z-2.4
G1 F800.0 X30.9795
G0 Z3.0
G0 X40.9876 Y7.2036
G0 Z-1.0
G1 F300.0 Z-2.4
G1 F800.0 X30.2953
G0 Z3.0
G0 X24.8941 Y6.0036
G0 Z-0.6
G1 F300.0 Z-2.0
G1 F800.0 X28.0124
G1 X28.2211
G0 Z3.0
G0 X24.5486
G0 Z-0.6
G1 F300.0 Z-2.0
G1 F800.0 X24.6329
G0 Z3.0
G0 X40.9876 Y6.4036
G0 Z-1.0
G1 F300.0 Z-2.4
G1 F800.0 X28.9492
G0 Z3.0
G0 X-26.7299 Y6.0036
G0 Z-0.6
G1 F300.0 Z-2.0
G1 F800.0 X20.4124
G1 X20.6305
G0 Z3.0
G0 X-25.724 Y6.8036
G0 Z-0.6
G1 F300.0 Z-2.0
G1 F800.0 X10.4124
G1 X10.6183
G0 Z3.0
G0 X-23.5449 Y7.6036
G0 Z-0.6
G1 F300.0 Z-2.0
G1 F800.0 X10.6092
G0 Z3.0
G0 X-14.2852 Y8.4036
G0 Z-0.6
G1 F300.0 Z-2.0
G1 F800.0 X10.4124
G1 X10.652
G0 Z3.0
G0 X-12.8295 Y9.2036
G0 Z-0.6
G1 F300.0 Z-2.0
G1 F800.0 X10.4124
G1 X10.6286
G0 Z3.0
G0 X-7.8531 Y10.0036
G0 Z-0.6
G1 F300.0 Z-2.0
G1 F800.0 X10.5282
G0 Z3.0
G0 X-2.8457 Y10.8036
G0 Z-0.6
G1 F300.0 Z-2.0
G1 F800.0 X10.0124
G1 X10.2555
G0 Z3.0
G0 X-0.1867 Y11.6036
G0 Z-0.6
G1 F300.0 Z-2.0
G1 F800.0 X9.2124
G1 X9.5482
G0 Z3.0
G0 X1.0526 Y12.4036
G0 Z-0.6
G1 F300.0 Z-2.0
G1 F800.0 X8.4124
G1 X8.6365
G0 Z3.0
G0 X4.7877 Y13.2036
G0 Z-0.6
G1 F300.0 Z-2.0
G1 F800.0 X7.6124
G1 X7.8582
G1 F300.0 X7.0415 Y13.6036
G1 Z-2.4
G1 F800.0 X6.8124
G1 X5.3882
G0 Z3.0
G0 X8.3285 Y12.8036
G0 Z-1.0
G1 F300.0 Z-2.4
G1 F800.0 X8.0124
G1 X4.4218
G0 Z3.0
G0 X9.024 Y12.0036
G0 Z-1.0
G1 F300.0 Z-2.4
G1 F800.0 X8.8124
G1 X0.4174
G0 Z3.0
G0 X9.9636 Y11.2036
G0 Z-1.0
G1 F300.0 Z-2.4
G1 F800.0 X9.6124
G1 X-1.8655
G0 Z3.0
G0 X10.4238 Y10.4036
G0 Z-1.0
G1 F300.0 Z-2.4
G1 F800.0 X-3.7435
G0 Z3.0
G0 X10.5799 Y9.6036
G0 Z-1.0
G1 F300.0 Z-2.4
G1 F800.0 X-11.5532
G0 Z3.0
G0 X10.6404 Y8.8036
G0 Z-1.0
G1 F300.0 Z-2.4
G1 F800.0 X10.4124
G1 X-13.6732
G0 Z3.0
G0 X10.6411 Y8.0036
G0 Z-1.0
G1 F300.0 Z-2.4
G1 F800.0 X10.4124
G1 X-18.6712
G0 Z3.0
G0 X10.594 Y7.2036
G0 Z-1.0
G1 F300.0 Z-2.4
G1 F800.0 X-24.987
G0 Z3.0
G0 X12.2289 Y6.4036
G0 Z-1.0
G1 F300.0 Z-2.4
G1 F800.0 X12.0124
G1 X-26.2708
G0 Z3.0
G0 X40.9876 Y5.6036
G0 Z-1.0
G1 F300.0 Z-2.4
G1 F800.0 X-27.0494
G0 Z3.0
G0 X40.9876 Y4.8036
G0 Z-1.0
G1 F300.0 Z-2.4
G1 F800.0 X-27.8326
G0 Z3.0
G0 X-34.201 Y3.6036
G0 Z-0.6
G1 F300.0 Z-2.0
G1 F800.0 X-31.5876
G1 X-31.325
G1 F300.0 X-32.2927 Y4.0036
G1 Z-2.4
G1 F800.0 X-33.3277
G0 Z3.0
G0 X40.9876
G0 Z-1.0
G1 F300.0 Z-2.4
G1 F800.0 X-30.4527
G0 Z3.0
G0 X40.9876 Y3.2036
G0 Z-1.0
G1 F300.0 Z-2.4
G1 F800.0 X-35.1092
G0 Z3.0
G0 X40.9876 Y2.4036
G0 Z-1.0
G1 F300.0 Z-2.4
G1 F800.0 X-36.019
G0 Z3.0
G0 X40.9876 Y1.6036
G0 Z-1.0
G1 F300.0 Z-2.4
G1 F800.0 X-38.1211
G0 Z3.0
G0 X40.9876 Y0.8036
G0 Z-1.0
G1 F300.0 Z-2.4
G1 F800.0 X-39.525
G0 Z3.0
G0 X40.9876 Y0.0036
G0 Z-1.0
G1 F300.0 Z-2.4
G1 F800.0 X-40.1402
G0 Z3.0
G0 X40.9876 Y-0.7964
G0 Z-1.0
G1 F300.0 Z-2.4
G1 F800.0 X-40.4921
G0 Z3.0
G0 X40.9876 Y-1.5964
G0 Z-1.0
G1 F300.0 Z-2.4
G1 F800.0 X-40.7537
G0 Z3.0
G0 X40.9876 Y-2.3964
G0 Z-1.0
G1 F300.0 Z-2.4
G1 F800.0 X-40.9309
G0 Z3.0
G0 X40.9876 Y-3.1964
G0 Z-1.0
G1 F300.0 Z-2.4
G1 F800.0 X-40.959
G0 Z3.0
G0 X40.9876 Y-3.9964
G0 Z-1.0
G1 F300.0 Z-2.4
G1 F800.0 X-40.9876
G0 Z3.0
G0 X40.9876 Y-4.7964
G0 Z-1.0
G1 F300.0 Z-2.4
G1 F800.0 X-40.945
G0 Z3.0
G0 X40.9876 Y-5.5964
G0 Z-1.0
G1 F300.0 Z-2.4
G1 F800.0 X-40.7957
G0 Z3.0
G0 X40.9876 Y-6.3964
G0 Z-1.0
G1 F300.0 Z-2.4
G1 F800.0 X-40.4105
G0 Z3.0
G0 X40.9876 Y-7.1964
G0 Z-1.0
G1 F300.0 Z-2.4
G1 F800.0 X-39.9309
G0 Z3.0
G0 X24.1041 Y-7.9964
G0 Z-1.0
G1 F300.0 Z-2.4
G1 F800.0 X-39.1812
G0 Z3.0
G0 X-31.084 Y-8.7964
G0 Z-1.0
G1 F300.0 Z-2.4
G1 F800.0 X-35.828
G0 Z3.0
G0 X-32.7568 Y-9.5964
G0 Z-1.0
G1 F300.0 Z-2.4
G1 F800.0 X-34.0371
G1 F300.0 X-35.0883 Y-9.1964
G1 Z-2.8
G1 F800.0 X-32.3876
G1 X-32.0091
G0 Z3.0
G0 X-38.4217 Y-8.3964
G0 Z-1.4
G1 F300.0 Z-2.8
G1 F800.0 X-30.7217
G0 Z3.0
G0 X20.6841 Y-8.7964
G0 Z-1.0
G1 F300.0 Z-2.4
G1 F800.0 X20.4124
G1 X-27.9501
G0 Z3.0
G0 X-11.9588 Y-9.5964
G0 Z-1.0
G1 F300.0 Z-2.4
G1 F800.0 X-27.3212
G0 Z3.0
G0 X-12.5446 Y-10.3964
G0 Z-1.0
G1 F300.0 Z-2.4
G1 F800.0 X-12.7876
G1 X-26.4662
G0 Z3.0
G0 X-13.128 Y-11.1964
G0 Z-1.0
G1 F300.0 Z-2.4
G1 F800.0 X-24.5197
G0 Z3.0
G0 X-13.4453 Y-11.9964
G0 Z-1.0
G1 F300.0 Z-2.4
G1 F800.0 X-20.4915
G0 Z3.0
G0 X-13.7375 Y-12.7964
G0 Z-1.0
G1 F300.0 Z-2.4
G1 F800.0 X-13.9876
G1 X-17.9024
G0 Z3.0
G0 X-16.5116 Y-13.1964
G0 Z-1.4
G1 F300.0 Z-2.8
G1 F800.0 X-14.3876
G1 X-14.0644
G0 Z3.0
G0 X-19.2144 Y-12.3964
G0 Z-1.4
G1 F300.0 Z-2.8
G1 F800.0 X-13.5732
G0 Z3.0
G0 X-22.2165 Y-11.5964
G0 Z-1.4
G1 F300.0 Z-2.8
G1 F800.0 X-13.5876
G1 X-13.3291
G0 Z3.0
G0 X-25.8468 Y-10.7964
G0 Z-1.4
G1 F300.0 Z-2.8
G1 F800.0 X-13.1876
G1 X-12.9115
G0 Z3.0
G0 X7.1345 Y-9.5964
G0 Z-1.0
G1 F300.0 Z-2.4
G1 F800.0 X6.8124
G1 X-10.9531
G0 Z3.0
G0 X0.2389 Y-10.3964
G0 Z-1.0
G1 F300.0 Z-2.4
G1 F800.0 X0.0124
G1 X-6.64
G0 Z3.0
G0 X-9.6157 Y-9.9964
G0 Z-1.4
G1 F300.0 Z-2.8
G1 F800.0 X2.5251
G0 Z3.0
G0 X-26.9069
G0 Z-1.4
G1 F300.0 Z-2.8
G1 F800.0 X-12.2404
G0 Z3.0
G0 X-27.7003 Y-9.1964
G0 Z-1.4
G1 F300.0 Z-2.8
G1 F800.0 X9.2124
G1 X9.5484
G0 Z3.0
G0 X-30.4665 Y-8.3964
G0 Z-1.4
G1 F300.0 Z-2.8
G1 F800.0 X-28.6067
G0 Z3.0
G0 X16.4318 Y-9.5964
G0 Z-1.0
G1 F300.0 Z-2.4
G1 F800.0 X13.68
G0 Z3.0
G0 X11.6243 Y-9.1964
G0 Z-1.4
G1 F300.0 Z-2.8
G1 F800.0 X19.2946
G0 Z3.0
G0 X22.2678 Y-8.7964
G0 Z-1.0
G1 F300.0 Z-2.4
G1 F800.0 X22.0124
G1 X21.7458
G0 Z3.0
G0 X40.9876 Y-7.9964
G0 Z-1.0
G1 F300.0 Z-2.4
G1 F800.0 X25.5232
G0 Z3.0
G0 X40.9876 Y-8.7964
G0 Z-1.0
G1 F300.0 Z-2.4
G1 F800.0 X26.4795
G0 Z3.0
G0 X40.9876 Y-9.5964
G0 Z-1.0
G1 F300.0 Z-2.4
G1 F800.0 X26.6492
G0 Z3.0
G0 X40.9876 Y-10.3964
G0 Z-1.0
G1 F300.0 Z-2.4
G1 F800.0 X27.0731
G0 Z3.0
G0 X40.9876 Y-11.1964
G0 Z-1.0
G1 F300.0 Z-2.4
G1 F800.0 X29.6236
G0 Z3.0
G0 X40.9876 Y-11.9964
G0 Z-1.0
G1 F300.0 Z-2.4
G1 F800.0 X30.0578
G0 Z3.0
G0 X40.974 Y-12.7964
G0 Z-1.0
G1 F300.0 Z-2.4
G1 F800.0 X30.7638
G0 Z3.0
G0 X40.2525 Y-13.5964
G0 Z-1.0
G1 F300.0 Z-2.4
G1 F800.0 X40.0124
G1 X32.5572
G1 F300.0 X31.8495 Y-13.1964
G1 Z-2.8
G1 F800.0 X40.8132
G0 Z3.0
G0 X30.3104 Y-12.3964
G0 Z-1.4
G1 F300.0 Z-2.8
G1 F800.0 X40.9876
G0 Z3.0
G0 X29.811 Y-11.5964
G0 Z-1.4
G1 F300.0 Z-2.8
G1 F800.0 X40.9876
G0 Z3.0
G0 X27.6022 Y-10.7964
G0 Z-1.4
G1 F300.0 Z-2.8
G1 F800.0 X40.9876
G0 Z3.0
G0 X26.7692 Y-9.9964
G0 Z-1.4
G1 F300.0 Z-2.8
G1 F800.0 X40.9876
G0 Z3.0
G0 X26.6727 Y-9.1964
G0 Z-1.4
G1 F300.0 Z-2.8
G1 F800.0 X40.9876
G0 Z3.0
G0 X26.1711 Y-8.3964
G0 Z-1.4
G1 F300.0 Z-2.8
G1 F800.0 X40.9876
G0 Z3.0
G0 X-28.1438
G0 Z-1.4
G1 F300.0 Z-2.8
G1 F800.0 X23.3025
G0 Z3.0
G0 X-39.6155 Y-7.5964
G0 Z-1.4
G1 F300.0 Z-2.8
G1 F800.0 X40.9876
G0 Z3.0
G0 X-40.1709 Y-6.7964
G0 Z-1.4
G1 F300.0 Z-2.8
G1 F800.0 X40.9876
G0 Z3.0
G0 X-40.6481 Y-5.9964
G0 Z-1.4
G1 F300.0 Z-2.8
G1 F800.0 X40.9876
G0 Z3.0
G0 X-40.8953 Y-5.1964
G0 Z-1.4
G1 F300.0 Z-2.8
G1 F800.0 X40.9876
G0 Z3.0
G0 X-40.9757 Y-4.3964
G0 Z-1.4
G1 F300.0 Z-2.8
G1 F800.0 X40.9876
G0 Z3.0
G0 X-40.9806 Y-3.5964
G0 Z-1.4
G1 F300.0 Z-2.8
G1 F800.0 X40.9876
G0 Z3.0
G0 X-40.9464 Y-2.7964
G0 Z-1.4
G1 F300.0 Z-2.8
G1 F800.0 X40.9876
G0 Z3.0
G0 X-40.8618 Y-1.9964
G0 Z-1.4
G1 F300.0 Z-2.8
G1 F800.0 X40.9876
G0 Z3.0
G0 X-40.6459 Y-1.1964
G0 Z-1.4
G1 F300.0 Z-2.8
G1 F800.0 X40.9876
G0 Z3.0
G0 X-40.319 Y-0.3964
G0 Z-1.4
G1 F300.0 Z-2.8
G1 F800.0 X40.9876
G0 Z3.0
G0 X-39.9009 Y0.4036
G0 Z-1.4
G1 F300.0 Z-2.8
G1 F800.0 X40.9876
G0 Z3.0
G0 X-38.9437 Y1.2036
G0 Z-1.4
G1 F300.0 Z-2.8
G1 F800.0 X40.9876
G0 Z3.0
G0 X-36.7582 Y2.0036
G0 Z-1.4
G1 F300.0 Z-2.8
G1 F800.0 X40.9876
G0 Z3.0
G0 X-35.696 Y2.8036
G0 Z-1.4
G1 F300.0 Z-2.8
G1 F800.0 X40.9876
G0 Z3.0
G0 X-31.1822 Y3.6036
G0 Z-1.4
G1 F300.0 Z-2.8
G1 F800.0 X40.9876
G0 Z3.0
G0 X-28.4195 Y4.4036
G0 Z-1.4
G1 F300.0 Z-2.8
G1 F800.0 X40.9876
G0 Z3.0
G0 X-27.5125 Y5.2036
G0 Z-1.4
G1 F300.0 Z-2.8
G1 F800.0 X40.9876
G0 Z3.0
G0 X28.4386 Y6.0036
G0 Z-1.4
G1 F300.0 Z-2.8
G1 F800.0 X40.9876
G0 Z3.0
G0 X29.4486 Y6.8036
G0 Z-1.4
G1 F300.0 Z-2.8
G1 F800.0 X40.9876
G0 Z3.0
G0 X30.5856 Y7.6036
G0 Z-1.4
G1 F300.0 Z-2.8
G1 F800.0 X40.9876
G0 Z3.0
G0 X31.3455 Y8.4036
G0 Z-1.4
G1 F300.0 Z-2.8
G1 F800.0 X40.9876
G0 Z3.0
G0 X32.2358 Y9.2036
G0 Z-1.4
G1 F300.0 Z-2.8
G1 F800.0 X40.9876
G0 Z3.0
G0 X33.3034 Y10.0036
G0 Z-1.4
G1 F300.0 Z-2.8
G1 F800.0 X40.9069
G1 F300.0 X40.596 Y10.4036
G1 Z-3.2
G1 F800.0 X34.5126
G0 Z3.0
G0 X40.9876 Y9.6036
G0 Z-1.8
G1 F300.0 Z-3.2
G1 F800.0 X32.7812
G0 Z3.0
G0 X40.9876 Y8.8036
G0 Z-1.8
G1 F300.0 Z-3.2
G1 F800.0 X31.7826
G0 Z3.0
G0 X40.9876 Y8.0036
G0 Z-1.8
G1 F300.0 Z-3.2
G1 F800.0 X30.9795
G0 Z3.0
G0 X40.9876 Y7.2036
G0 Z-1.8
G1 F300.0 Z-3.2
G1 F800.0 X30.2953
G0 Z3.0
G0 X24.8941 Y6.0036
G0 Z-1.4
G1 F300.0 Z-2.8
G1 F800.0 X28.0124
G1 X28.2211
G0 Z3.0
G0 X24.5486
G0 Z-1.4
G1 F300.0 Z-2.8
G1 F800.0 X24.6329
G0 Z3.0
G0 X40.9876 Y6.4036
G0 Z-1.8
G1 F300.0 Z-3.2
G1 F800.0 X28.9492
G0 Z3.0
G0 X-26.7299 Y6.0036
G0 Z-1.4
G1 F300.0 Z-2.8
G1 F800.0 X20.4124
G1 X20.6305
G0 Z3.0
G0 X-25.724 Y6.8036
G0 Z-1.4
G1 F300.0 Z-2.8
G1 F800.0 X10.4124
G1 X10.6183
G0 Z3.0
G0 X-23.5449 Y7.6036
G0 Z-1.4
G1 F300.0 Z-2.8
G1 F800.0 X10.6092
G0 Z3.0
G0 X-14.2852 Y8.4036
G0 Z-1.4
G1 F300.0 Z-2.8
G1 F800.0 X10.4124
G1 X10.652
G0 Z3.0
G0 X-12.8295 Y9.2036
G0 Z-1.4
G1 F300.0 Z-2.8
G1 F800.0 X10.4124
G1 X10.6286
G0 Z3.0
G0 X-7.8531 Y10.0036
G0 Z-1.4
G1 F300.0 Z-2.8
G1 F800.0 X10.5282
G0 Z3.0
G0 X-2.8457 Y10.8036
G0 Z-1.4
G1 F300.0 Z-2.8
G1 F800.0 X10.0124
G1 X10.2555
G0 Z3.0
G0 X-0.1867 Y11.6036
G0 Z-1.4
G1 F300.0 Z-2.8
G1 F800.0 X9.2124
G1 X9.5482
G0 Z3.0
G0 X1.0526 Y12.4036
G0 Z-1.4
G1 F300.0 Z-2.8
G1 F800.0 X8.4124
G1 X8.6365
G0 Z3.0
G0 X4.7877 Y13.2036
G0 Z-1.4
G1 F300.0 Z-2.8
G1 F800.0 X7.6124
G1 X7.8582
G1 F300.0 X7.0415 Y13.6036
G1 Z-3.2
G1 F800.0 X6.8124
G1 X5.3882
G0 Z3.0
G0 X8.3285 Y12.8036
G0 Z-1.8
G1 F300.0 Z-3.2
G1 F800.0 X8.0124
G1 X4.4218
G0 Z3.0
G0 X9.024 Y12.0036
G0 Z-1.8
G1 F300.0 Z-3.2
G1 F800.0 X8.8124
G1 X0.4174
G0 Z3.0
G0 X9.9636 Y11.2036
G0 Z-1.8
G1 F300.0 Z-3.2
G1 F800.0 X9.6124
G1 X-1.8655
G0 Z3.0
G0 X10.4238 Y10.4036
G0 Z-1.8
G1 F300.0 Z-3.2
G1 F800.0 X-3.7435
G0 Z3.0
G0 X10.5799 Y9.6036
G0 Z-1.8
G1 F300.0 Z-3.2
G1 F800.0 X-11.5532
G0 Z3.0
G0 X10.6404 Y8.8036
G0 Z-1.8
G1 F300.0 Z-3.2
G1 F800.0 X10.4124
G1 X-13.6732
G0 Z3.0
G0 X10.6411 Y8.0036
G0 Z-1.8
G1 F300.0 Z-3.2
G1 F800.0 X10.4124
G1 X-18.6712
G0 Z3.0
G0 X10.594 Y7.2036
G0 Z-1.8
G1 F300.0 Z-3.2
G1 F800.0 X-24.987
G0 Z3.0
G0 X12.2289 Y6.4036
G0 Z-1.8
G1 F300.0 Z-3.2
G1 F800.0 X12.0124
G1 X-26.2708
G0 Z3.0
G0 X40.9876 Y5.6036
G0 Z-1.8
G1 F300.0 Z-3.2
G1 F800.0 X-27.0494
G0 Z3.0
G0 X40.9876 Y4.8036
G0 Z-1.8
G1 F300.0 Z-3.2
G1 F800.0 X-27.8326
G0 Z3.0
G0 X-34.201 Y3.6036
G0 Z-1.4
G1 F300.0 Z-2.8
G1 F800.0 X-31.5876
G1 X-31.325
G1 F300.0 X-32.2927 Y4.0036
G1 Z-3.2
G1 F800.0 X-33.3277
G0 Z3.0
G0 X40.9876
G0 Z-1.8
G1 F300.0 Z-3.2
G1 F800.0 X-30.4527
G0 Z3.0
G0 X40.9876 Y3.2036
G0 Z-1.8
G1 F300.0 Z-3.2
G1 F800.0 X-35.1092
G0 Z3.0
G0 X40.9876 Y2.4036
G0 Z-1.8
G1 F300.0 Z-3.2
G1 F800.0 X-36.019
G0 Z3.0
G0 X40.9876 Y1.6036
G0 Z-1.8
G1 F300.0 Z-3.2
G1 F800.0 X-38.1211
G0 Z3.0
G0 X40.9876 Y0.8036
G0 Z-1.8
G1 F300.0 Z-3.2
G1 F800.0 X-39.525
G0 Z3.0
G0 X40.9876 Y0.0036
G0 Z-1.8
G1 F300.0 Z-3.2
G1 F800.0 X-40.1402
G0 Z3.0
G0 X40.9876 Y-0.7964
G0 Z-1.8
G1 F300.0 Z-3.2
G1 F800.0 X-40.4921
G0 Z3.0
G0 X40.9876 Y-1.5964
G0 Z-1.8
G1 F300.0 Z-3.2
G1 F800.0 X-40.7537
G0 Z3.0
G0 X40.9876 Y-2.3964
G0 Z-1.8
G1 F300.0 Z-3.2
G1 F800.0 X-40.9309
G0 Z3.0
G0 X40.9876 Y-3.1964
G0 Z-1.8
G1 F300.0 Z-3.2
G1 F800.0 X-40.959
G0 Z3.0
G0 X40.9876 Y-3.9964
G0 Z-1.8
G1 F300.0 Z-3.2
G1 F800.0 X-40.9876
G0 Z3.0
G0 X40.9876 Y-4.7964
G0 Z-1.8
G1 F300.0 Z-3.2
G1 F800.0 X-40.945
G0 Z3.0
G0 X40.9876 Y-5.5964
G0 Z-1.8
G1 F300.0 Z-3.2
G1 F800.0 X-40.7957
G0 Z3.0
G0 X40.9876 Y-6.3964
G0 Z-1.8
G1 F300.0 Z-3.2
G1 F800.0 X-40.4105
G0 Z3.0
G0 X40.9876 Y-7.1964
G0 Z-1.8
G1 F300.0 Z-3.2
G1 F800.0 X-39.9309
G0 Z3.0
G0 X24.1041 Y-7.9964
G0 Z-1.8
G1 F300.0 Z-3.2
G1 F800.0 X-39.1812
G0 Z3.0
G0 X-31.084 Y-8.7964
G0 Z-1.8
G1 F300.0 Z-3.2
G1 F800.0 X-35.828
G0 Z3.0
G0 X-32.7568 Y-9.5964
G0 Z-1.8
G1 F300.0 Z-3.2
G1 F800.0 X-34.0371
G1 F300.0 X-35.0883 Y-9.1964
G1 Z-3.6
G1 F800.0 X-32.3876
G1 X-32.0091
G0 Z3.0
G0 X-38.4217 Y-8.3964
G0 Z-2.2
G1 F300.0 Z-3.6
G1 F800.0 X-30.7217
G0 Z3.0
G0 X20.6841 Y-8.7964
G0 Z-1.8
G1 F300.0 Z-3.2
G1 F800.0 X20.4124
G1 X-27.9501
G0 Z3.0
G0 X-11.9588 Y-9.5964
G0 Z-1.8
G1 F300.0 Z-3.2
G1 F800.0 X-27.3212
G0 Z3.0
G0 X-12.5446 Y-10.3964
G0 Z-1.8
G1 F300.0 Z-3.2
G1 F800.0 X-12.7876
G1 X-26.4662
G0 Z3.0
G0 X-13.128 Y-11.1964
G0 Z-1.8
G1 F300.0 Z-3.2
G1 F800.0 X-24.5197
G0 Z3.0
G0 X-13.4453 Y-11.9964
G0 Z-1.8
G1 F300.0 Z-3.2
G1 F800.0 X-20.4915
G0 Z3.0
G0 X-13.7375 Y-12.7964
G0 Z-1.8
G1 F300.0 Z-3.2
G1 F800.0 X-13.9876
G1 X-17.9024
G0 Z3.0
G0 X-16.5116 Y-13.1964
G0 Z-2.2
G1 F300.0 Z-3.6
G1 F800.0 X-14.3876
G1 X-14.0644
G0 Z3.0
G0 X-19.2144 Y-12.3964
G0 Z-2.2
G1 F300.0 Z-3.6
G1 F800.0 X-13.5732
G0 Z3.0
G0 X-22.2165 Y-11.5964
G0 Z-2.2
G1 F300.0 Z-3.6
G1 F800.0 X-13.5876
G1 X-13.3291
G0 Z3.0
G0 X-25.8468 Y-10.7964
G0 Z-2.2
G1 F300.0 Z-3.6
G1 F800.0 X-13.1876
G1 X-12.9115
G0 Z3.0
G0 X7.1345 Y-9.5964
G0 Z-1.8
G1 F300.0 Z-3.2
G1 F800.0 X6.8124
G1 X-10.9531
G0 Z3.0
G0 X0.2389 Y-10.3964
G0 Z-1.8
G1 F300.0 Z-3.2
G1 F800.0 X0.0124
G1 X-6.64
G0 Z3.0
G0 X-9.6157 Y-9.9964
G0 Z-2.2
G1 F300.0 Z-3.6
G1 F800.0 X2.5251
G0 Z3.0
G0 X-26.9069
G0 Z-2.2
G1 F300.0 Z-3.6
G1 F800.0 X-12.2404
G0 Z3.0
G0 X-27.7003 Y-9.1964
G0 Z-2.2
G1 F300.0 Z-3.6
G1 F800.0 X9.2124
G1 X9.5484
G0 Z3.0
G0 X-30.4665 Y-8.3964
G0 Z-2.2
G1 F300.0 Z-3.6
G1 F800.0 X-28.6067
G0 Z3.0
G0 X16.4318 Y-9.5964
G0 Z-1.8
G1 F300.0 Z-3.2
G1 F800.0 X13.68
G0 Z3.0
G0 X11.6243 Y-9.1964
G0 Z-2.2
G1 F300.0 Z-3.6
G1 F800.0 X19.2946
G0 Z3.0
G0 X22.2678 Y-8.7964
G0 Z-1.8
G1 F300.0 Z-3.2
G1 F800.0 X22.0124
G1 X21.7458
G0 Z3.0
G0 X40.9876 Y-7.9964
G0 Z-1.8
G1 F300.0 Z-3.2
G1 F800.0 X25.5232
G0 Z3.0
G0 X40.9876 Y-8.7964
G0 Z-1.8
G1 F300.0 Z-3.2
G1 F800.0 X26.4795
G0 Z3.0
G0 X40.9876 Y-9.5964
G0 Z-1.8
G1 F300.0 Z-3.2
G1 F800.0 X26.6492
G0 Z3.0
G0 X40.9876 Y-10.3964
G0 Z-1.8
G1 F300.0 Z-3.2
G1 F800.0 X27.0731
G0 Z3.0
G0 X40.9876 Y-11.1964
G0 Z-1.8
G1 F300.0 Z-3.2
G1 F800.0 X29.6236
G0 Z3.0
G0 X40.9876 Y-11.9964
G0 Z-1.8
G1 F300.0 Z-3.2
G1 F800.0 X30.0578
G0 Z3.0
G0 X40.974 Y-12.7964
G0 Z-1.8
G1 F300.0 Z-3.2
G1 F800.0 X30.7638
G0 Z3.0
G0 X40.2525 Y-13.5964
G0 Z-1.8
G1 F300.0 Z-3.2
G1 F800.0 X40.0124
G1 X32.5572
G1 F300.0 X31.8495 Y-13.1964
G1 Z-3.6
G1 F800.0 X40.8132
G0 Z3.0
G0 X30.3104 Y-12.3964
G0 Z-2.2
G1 F300.0 Z-3.6
G1 F800.0 X40.9876
G0 Z3.0
G0 X29.811 Y-11.5964
G0 Z-2.2
G1 F300.0 Z-3.6
G1 F800.0 X40.9876
G0 Z3.0
G0 X27.6022 Y-10.7964
G0 Z-2.2
G1 F300.0 Z-3.6
G1 F800.0 X40.9876
G0 Z3.0
G0 X26.7692 Y-9.9964
G0 Z-2.2
G1 F300.0 Z-3.6
G1 F800.0 X40.9876
G0 Z3.0
G0 X26.6727 Y-9.1964
G0 Z-2.2
G1 F300.0 Z-3.6
G1 F800.0 X40.9876
G0 Z3.0
G0 X26.1711 Y-8.3964
G0 Z-2.2
G1 F300.0 Z-3.6
G1 F800.0 X40.9876
G0 Z3.0
G0 X-28.1438
G0 Z-2.2
G1 F300.0 Z-3.6
G1 F800.0 X23.3025
G0 Z3.0
G0 X-39.6155 Y-7.5964
G0 Z-2.2
G1 F300.0 Z-3.6
G1 F800.0 X40.9876
G0 Z3.0
G0 X-40.1709 Y-6.7964
G0 Z-2.2
G1 F300.0 Z-3.6
G1 F800.0 X40.9876
G0 Z3.0
G0 X-40.6481 Y-5.9964
G0 Z-2.2
G1 F300.0 Z-3.6
G1 F800.0 X40.9876
G0 Z3.0
G0 X-40.8953 Y-5.1964
G0 Z-2.2
G1 F300.0 Z-3.6
G1 F800.0 X40.9876
G0 Z3.0
G0 X-40.9757 Y-4.3964
G0 Z-2.2
G1 F300.0 Z-3.6
G1 F800.0 X40.9876
G0 Z3.0
G0 X-40.9806 Y-3.5964
G0 Z-2.2
G1 F300.0 Z-3.6
G1 F800.0 X40.9876
G0 Z3.0
G0 X-40.9464 Y-2.7964
G0 Z-2.2
G1 F300.0 Z-3.6
G1 F800.0 X40.9876
G0 Z3.0
G0 X-40.8618 Y-1.9964
G0 Z-2.2
G1 F300.0 Z-3.6
G1 F800.0 X40.9876
G0 Z3.0
G0 X-40.6459 Y-1.1964
G0 Z-2.2
G1 F300.0 Z-3.6
G1 F800.0 X40.9876
G0 Z3.0
G0 X-40.319 Y-0.3964
G0 Z-2.2
G1 F300.0 Z-3.6
G1 F800.0 X40.9876
G0 Z3.0
G0 X-39.9009 Y0.4036
G0 Z-2.2
G1 F300.0 Z-3.6
G1 F800.0 X40.9876
G0 Z3.0
G0 X-38.9437 Y1.2036
G0 Z-2.2
G1 F300.0 Z-3.6
G1 F800.0 X40.9876
G0 Z3.0
G0 X-36.7582 Y2.0036
G0 Z-2.2
G1 F300.0 Z-3.6
G1 F800.0 X40.9876
G0 Z3.0
G0 X-35.696 Y2.8036
G0 Z-2.2
G1 F300.0 Z-3.6
G1 F800.0 X40.9876
G0 Z3.0
G0 X-31.1822 Y3.6036
G0 Z-2.2
G1 F300.0 Z-3.6
G1 F800.0 X40.9876
G0 Z3.0
G0 X-28.4195 Y4.4036
G0 Z-2.2
G1 F300.0 Z-3.6
G1 F800.0 X40.9876
G0 Z3.0
G0 X-27.5125 Y5.2036
G0 Z-2.2
G1 F300.0 Z-3.6
G1 F800.0 X40.9876
G0 Z3.0
G0 X28.4386 Y6.0036
G0 Z-2.2
G1 F300.0 Z-3.6
G1 F800.0 X40.9876
G0 Z3.0
G0 X29.4486 Y6.8036
G0 Z-2.2
G1 F300.0 Z-3.6
G1 F800.0 X40.9876
G0 Z3.0
G0 X30.5856 Y7.6036
G0 Z-2.2
G1 F300.0 Z-3.6
G1 F800.0 X40.9876
G0 Z3.0
G0 X31.3455 Y8.4036
G0 Z-2.2
G1 F300.0 Z-3.6
G1 F800.0 X40.9876
G0 Z3.0
G0 X32.2358 Y9.2036
G0 Z-2.2
G1 F300.0 Z-3.6
G1 F800.0 X40.9876
G0 Z3.0
G0 X33.3034 Y10.0036
G0 Z-2.2
G1 F300.0 Z-3.6
G1 F800.0 X40.9069
G1 F300.0 X40.596 Y10.4036
G1 Z-4.0
G1 F800.0 X34.5126
G0 Z3.0
G0 X40.9876 Y9.6036
G0 Z-2.6
G1 F300.0 Z-4.0
G1 F800.0 X32.7812
G0 Z3.0
G0 X40.9876 Y8.8036
G0 Z-2.6
G1 F300.0 Z-4.0
G1 F800.0 X31.7826
G0 Z3.0
G0 X40.9876 Y8.0036
G0 Z-2.6
G1 F300.0 Z-4.0
G1 F800.0 X30.9795
G0 Z3.0
G0 X40.9876 Y7.2036
G0 Z-2.6
G1 F300.0 Z-4.0
G1 F800.0 X30.2953
G0 Z3.0
G0 X24.8941 Y6.0036
G0 Z-2.2
G1 F300.0 Z-3.6
G1 F800.0 X28.0124
G1 X28.2211
G0 Z3.0
G0 X24.5486
G0 Z-2.2
G1 F300.0 Z-3.6
G1 F800.0 X24.6329
G0 Z3.0
G0 X40.9876 Y6.4036
G0 Z-2.6
G1 F300.0 Z-4.0
G1 F800.0 X28.9492
G0 Z3.0
G0 X-26.7299 Y6.0036
G0 Z-2.2
G1 F300.0 Z-3.6
G1 F800.0 X20.4124
G1 X20.6305
G0 Z3.0
G0 X-25.724 Y6.8036
G0 Z-2.2
G1 F300.0 Z-3.6
G1 F800.0 X10.4124
G1 X10.6183
G0 Z3.0
G0 X-23.5449 Y7.6036
G0 Z-2.2
G1 F300.0 Z-3.6
G1 F800.0 X10.6092
G0 Z3.0
G0 X-14.2852 Y8.4036
G0 Z-2.2
G1 F300.0 Z-3.6
G1 F800.0 X10.4124
G1 X10.652
G0 Z3.0
G0 X-12.8295 Y9.2036
G0 Z-2.2
G1 F300.0 Z-3.6
G1 F800.0 X10.4124
G1 X10.6286
G0 Z3.0
G0 X-7.8531 Y10.0036
G0 Z-2.2
G1 F300.0 Z-3.6
G1 F800.0 X10.5282
G0 Z3.0
G0 X-2.8457 Y10.8036
G0 Z-2.2
G1 F300.0 Z-3.6
G1 F800.0 X10.0124
G1 X10.2555
G0 Z3.0
G0 X-0.1867 Y11.6036
G0 Z-2.2
G1 F300.0 Z-3.6
G1 F800.0 X9.2124
G1 X9.5482
G0 Z3.0
G0 X1.0526 Y12.4036
G0 Z-2.2
G1 F300.0 Z-3.6
G1 F800.0 X8.4124
G1 X8.6365
G0 Z3.0
G0 X4.7877 Y13.2036
G0 Z-2.2
G1 F300.0 Z-3.6
G1 F800.0 X7.6124
G1 X7.8582
G1 F300.0 X7.0415 Y13.6036
G1 Z-4.0
G1 F800.0 X6.8124
G1 X5.3882
G0 Z3.0
G0 X8.3285 Y12.8036
G0 Z-2.6
G1 F300.0 Z-4.0
G1 F800.0 X8.0124
G1 X4.4218
G0 Z3.0
G0 X9.024 Y12.0036
G0 Z-2.6
G1 F300.0 Z-4.0
G1 F800.0 X8.8124
G1 X0.4174
G0 Z3.0
G0 X9.9636 Y11.2036
G0 Z-2.6
G1 F300.0 Z-4.0
G1 F800.0 X9.6124
G1 X-1.8655
G0 Z3.0
G0 X10.4238 Y10.4036
G0 Z-2.6
G1 F300.0 Z-4.0
G1 F800.0 X-3.7435
G0 Z3.0
G0 X10.5799 Y9.6036
G0 Z-2.6
G1 F300.0 Z-4.0
G1 F800.0 X-11.5532
G0 Z3.0
G0 X10.6404 Y8.8036
G0 Z-2.6
G1 F300.0 Z-4.0
G1 F800.0 X10.4124
G1 X-13.6732
G0 Z3.0
G0 X10.6411 Y8.0036
G0 Z-2.6
G1 F300.0 Z-4.0
G1 F800.0 X10.4124
G1 X-18.6712
G0 Z3.0
G0 X10.594 Y7.2036
G0 Z-2.6
G1 F300.0 Z-4.0
G1 F800.0 X-24.987
G0 Z3.0
G0 X12.2289 Y6.4036
G0 Z-2.6
G1 F300.0 Z-4.0
G1 F800.0 X12.0124
G1 X-26.2708
G0 Z3.0
G0 X40.9876 Y5.6036
G0 Z-2.6
G1 F300.0 Z-4.0
G1 F800.0 X-27.0494
G0 Z3.0
G0 X40.9876 Y4.8036
G0 Z-2.6
G1 F300.0 Z-4.0
G1 F800.0 X-27.8326
G0 Z3.0
G0 X-34.201 Y3.6036
G0 Z-2.2
G1 F300.0 Z-3.6
G1 F800.0 X-31.5876
G1 X-31.325
G1 F300.0 X-32.2927 Y4.0036
G1 Z-4.0
G1 F800.0 X-33.3277
G0 Z3.0
G0 X40.9876
G0 Z-2.6
G1 F300.0 Z-4.0
G1 F800.0 X-30.4527
G0 Z3.0
G0 X40.9876 Y3.2036
G0 Z-2.6
G1 F300.0 Z-4.0
G1 F800.0 X-35.1092
G0 Z3.0
G0 X40.9876 Y2.4036
G0 Z-2.6
G1 F300.0 Z-4.0
G1 F800.0 X-36.019
G0 Z3.0
G0 X40.9876 Y1.6036
G0 Z-2.6
G1 F300.0 Z-4.0
G1 F800.0 X-38.1211
G0 Z3.0
G0 X40.9876 Y0.8036
G0 Z-2.6
G1 F300.0 Z-4.0
G1 F800.0 X-39.525
G0 Z3.0
G0 X40.9876 Y0.0036
G0 Z-2.6
G1 F300.0 Z-4.0
G1 F800.0 X-40.1402
G0 Z3.0
G0 X40.9876 Y-0.7964
G0 Z-2.6
G1 F300.0 Z-4.0
G1 F800.0 X-40.4921
G0 Z3.0
G0 X40.9876 Y-1.5964
G0 Z-2.6
G1 F300.0 Z-4.0
G1 F800.0 X-40.7537
G0 Z3.0
G0 X40.9876 Y-2.3964
G0 Z-2.6
G1 F300.0 Z-4.0
G1 F800.0 X-40.9309
G0 Z3.0
G0 X40.9876 Y-3.1964
G0 Z-2.6
G1 F300.0 Z-4.0
G1 F800.0 X-40.959
G0 Z3.0
G0 X40.9876 Y-3.9964
G0 Z-2.6
G1 F300.0 Z-4.0
G1 F800.0 X-40.9876
G0 Z3.0
G0 X40.9876 Y-4.7964
G0 Z-2.6
G1 F300.0 Z-4.0
G1 F800.0 X-40.945
G0 Z3.0
G0 X40.9876 Y-5.5964
G0 Z-2.6
G1 F300.0 Z-4.0
G1 F800.0 X-40.7957
G0 Z3.0
G0 X40.9876 Y-6.3964
G0 Z-2.6
G1 F300.0 Z-4.0
G1 F800.0 X-40.4105
G0 Z3.0
G0 X40.9876 Y-7.1964
G0 Z-2.6
G1 F300.0 Z-4.0
G1 F800.0 X-39.9309
G0 Z3.0
G0 X24.1041 Y-7.9964
G0 Z-2.6
G1 F300.0 Z-4.0
G1 F800.0 X-39.1812
G0 Z3.0
G0 X-31.084 Y-8.7964
G0 Z-2.6
G1 F300.0 Z-4.0
G1 F800.0 X-35.828
G0 Z3.0
G0 X-32.7568 Y-9.5964
G0 Z-2.6
G1 F300.0 Z-4.0
G1 F800.0 X-34.0371
G1 F300.0 X-35.0883 Y-9.1964
G1 Z-4.4
G1 F800.0 X-32.3876
G1 X-32.0091
G0 Z3.0
G0 X-38.4217 Y-8.3964
G0 Z-3.0
G1 F300.0 Z-4.4
G1 F800.0 X-30.7217
G0 Z3.0
G0 X20.6841 Y-8.7964
G0 Z-2.6
G1 F300.0 Z-4.0
G1 F800.0 X20.4124
G1 X-27.9501
G0 Z3.0
G0 X-11.9588 Y-9.5964
G0 Z-2.6
G1 F300.0 Z-4.0
G1 F800.0 X-27.3212
G0 Z3.0
G0 X-12.5446 Y-10.3964
G0 Z-2.6
G1 F300.0 Z-4.0
G1 F800.0 X-12.7876
G1 X-26.4662
G0 Z3.0
G0 X-13.128 Y-11.1964
G0 Z-2.6
G1 F300.0 Z-4.0
G1 F800.0 X-24.5197
G0 Z3.0
G0 X-13.4453 Y-11.9964
G0 Z-2.6
G1 F300.0 Z-4.0
G1 F800.0 X-20.4915
G0 Z3.0
G0 X-13.7375 Y-12.7964
G0 Z-2.6
G1 F300.0 Z-4.0
G1 F800.0 X-13.9876
G1 X-17.9024
G0 Z3.0
G0 X-16.5116 Y-13.1964
G0 Z-3.0
G1 F300.0 Z-4.4
G1 F800.0 X-14.3876
G1 X-14.0644
G0 Z3.0
G0 X-19.2144 Y-12.3964
G0 Z-3.0
G1 F300.0 Z-4.4
G1 F800.0 X-13.5732
G0 Z3.0
G0 X-22.2165 Y-11.5964
G0 Z-3.0
G1 F300.0 Z-4.4
G1 F800.0 X-13.5876
G1 X-13.3291
G0 Z3.0
G0 X-25.8468 Y-10.7964
G0 Z-3.0
G1 F300.0 Z-4.4
G1 F800.0 X-13.1876
G1 X-12.9115
G0 Z3.0
G0 X7.1345 Y-9.5964
G0 Z-2.6
G1 F300.0 Z-4.0
G1 F800.0 X6.8124
G1 X-10.9531
G0 Z3.0
G0 X0.2389 Y-10.3964
G0 Z-2.6
G1 F300.0 Z-4.0
G1 F800.0 X0.0124
G1 X-6.64
G0 Z3.0
G0 X-9.6157 Y-9.9964
G0 Z-3.0
G1 F300.0 Z-4.4
G1 F800.0 X2.5251
G0 Z3.0
G0 X-26.9069
G0 Z-3.0
G1 F300.0 Z-4.4
G1 F800.0 X-12.2404
G0 Z3.0
G0 X-27.7003 Y-9.1964
G0 Z-3.0
G1 F300.0 Z-4.4
G1 F800.0 X9.2124
G1 X9.5484
G0 Z3.0
G0 X-30.4665 Y-8.3964
G0 Z-3.0
G1 F300.0 Z-4.4
G1 F800.0 X-28.6067
G0 Z3.0
G0 X16.4318 Y-9.5964
G0 Z-2.6
G1 F300.0 Z-4.0
G1 F800.0 X13.68
G0 Z3.0
G0 X11.6243 Y-9.1964
G0 Z-3.0
G1 F300.0 Z-4.4
G1 F800.0 X19.2946
G0 Z3.0
G0 X22.2678 Y-8.7964
G0 Z-2.6
G1 F300.0 Z-4.0
G1 F800.0 X22.0124
G1 X21.7458
G0 Z3.0
G0 X40.9876 Y-7.9964
G0 Z-2.6
G1 F300.0 Z-4.0
G1 F800.0 X25.5232
G0 Z3.0
G0 X40.9876 Y-8.7964
G0 Z-2.6
G1 F300.0 Z-4.0
G1 F800.0 X26.4795
G0 Z3.0
G0 X40.9876 Y-9.5964
G0 Z-2.6
G1 F300.0 Z-4.0
G1 F800.0 X26.6492
G0 Z3.0
G0 X40.9876 Y-10.3964
G0 Z-2.6
G1 F300.0 Z-4.0
G1 F800.0 X27.0731
G0 Z3.0
G0 X40.9876 Y-11.1964
G0 Z-2.6
G1 F300.0 Z-4.0
G1 F800.0 X29.6236
G0 Z3.0
G0 X40.9876 Y-11.9964
G0 Z-2.6
G1 F300.0 Z-4.0
G1 F800.0 X30.0578
G0 Z3.0
G0 X40.974 Y-12.7964
G0 Z-2.6
G1 F300.0 Z-4.0
G1 F800.0 X30.7638
G0 Z3.0
G0 X40.2525 Y-13.5964
G0 Z-2.6
G1 F300.0 Z-4.0
G1 F800.0 X40.0124
G1 X32.5572
G1 F300.0 X31.8495 Y-13.1964
G1 Z-4.4
G1 F800.0 X40.8132
G0 Z3.0
G0 X30.3104 Y-12.3964
G0 Z-3.0
G1 F300.0 Z-4.4
G1 F800.0 X40.9876
G0 Z3.0
G0 X29.811 Y-11.5964
G0 Z-3.0
G1 F300.0 Z-4.4
G1 F800.0 X40.9876
G0 Z3.0
G0 X27.6022 Y-10.7964
G0 Z-3.0
G1 F300.0 Z-4.4
G1 F800.0 X40.9876
G0 Z3.0
G0 X26.7692 Y-9.9964
G0 Z-3.0
G1 F300.0 Z-4.4
G1 F800.0 X40.9876
G0 Z3.0
G0 X26.6727 Y-9.1964
G0 Z-3.0
G1 F300.0 Z-4.4
G1 F800.0 X40.9876
G0 Z3.0
G0 X26.1711 Y-8.3964
G0 Z-3.0
G1 F300.0 Z-4.4
G1 F800.0 X40.9876
G0 Z3.0
G0 X-28.1438
G0 Z-3.0
G1 F300.0 Z-4.4
G1 F800.0 X23.3025
G0 Z3.0
G0 X-39.6155 Y-7.5964
G0 Z-3.0
G1 F300.0 Z-4.4
G1 F800.0 X40.9876
G0 Z3.0
G0 X-40.1709 Y-6.7964
G0 Z-3.0
G1 F300.0 Z-4.4
G1 F800.0 X40.9876
G0 Z3.0
G0 X-40.6481 Y-5.9964
G0 Z-3.0
G1 F300.0 Z-4.4
G1 F800.0 X40.9876
G0 Z3.0
G0 X-40.8953 Y-5.1964
G0 Z-3.0
G1 F300.0 Z-4.4
G1 F800.0 X-34.7876
G1 X-34.3876 Z-4.3788
G1 X-33.9876 Z-4.3561
G1 X-33.1876
G1 X-32.7876 Z-4.4
G1 X40.9876
G0 Z3.0
G0 X-40.9757 Y-4.3964
G0 Z-3.0
G1 F300.0 Z-4.4
G1 F800.0 X-35.1876
G1 X-34.7876 Z-4.3788
G1 X-34.3876 Z-4.3561
G1 X-32.7876
G1 X-32.3876 Z-4.4
G1 X40.9876
G0 Z3.0
G0 X-40.9806 Y-3.5964
G0 Z-3.0
G1 F300.0 Z-4.4
G1 F800.0 X-35.5876
G1 X-35.1876 Z-4.3788
G1 X-34.7876 Z-4.3561
G1 X-32.3876
G1 X-31.9876 Z-4.4
G1 X40.9876
G0 Z3.0
G0 X-40.9464 Y-2.7964
G0 Z-3.0
G1 F300.0 Z-4.4
G1 F800.0 X-35.5876
G1 X-35.1876 Z-4.3816
G1 X-34.7876 Z-4.3561
G1 X-32.3876
G1 X-31.9876 Z-4.4
G1 X40.9876
G0 Z3.0
G0 X-40.8618 Y-1.9964
G0 Z-3.0
G1 F300.0 Z-4.4
G1 F800.0 X-35.1876
G1 X-34.7876 Z-4.3816
G1 X-34.3876 Z-4.3561
G1 X-32.7876
G1 X-32.3876 Z-4.4
G1 X40.9876
G0 Z3.0
G0 X-40.6459 Y-1.1964
G0 Z-3.0
G1 F300.0 Z-4.4
G1 F800.0 X-34.7876
G1 X-34.3876 Z-4.3816
G1 X-33.9876 Z-4.3561
G1 X-33.1876
G1 X-32.7876 Z-4.4
G1 X40.9876
G0 Z3.0
G0 X-40.319 Y-0.3964
G0 Z-3.0
G1 F300.0 Z-4.4
G1 F800.0 X40.9876
G0 Z3.0
G0 X-39.9009 Y0.4036
G0 Z-3.0
G1 F300.0 Z-4.4
G1 F800.0 X40.9876
G0 Z3.0
G0 X-38.9437 Y1.2036
G0 Z-3.0
G1 F300.0 Z-4.4
G1 F800.0 X40.9876
G0 Z3.0
G0 X-36.7582 Y2.0036
G0 Z-3.0
G1 F300.0 Z-4.4
G1 F800.0 X40.9876
G0 Z3.0
G0 X-35.696 Y2.8036
G0 Z-3.0
G1 F300.0 Z-4.4
G1 F800.0 X40.9876
G0 Z3.0
G0 X-31.1822 Y3.6036
G0 Z-3.0
G1 F300.0 Z-4.4
G1 F800.0 X40.9876
G0 Z3.0
G0 X-28.4195 Y4.4036
G0 Z-3.0
G1 F300.0 Z-4.4
G1 F800.0 X40.9876
G0 Z3.0
G0 X-27.5125 Y5.2036
G0 Z-3.0
G1 F300.0 Z-4.4
G1 F800.0 X40.9876
G0 Z3.0
G0 X28.4386 Y6.0036
G0 Z-3.0
G1 F300.0 Z-4.4
G1 F800.0 X40.9876
G0 Z3.0
G0 X29.4486 Y6.8036
G0 Z-3.0
G1 F300.0 Z-4.4
G1 F800.0 X40.9876
G0 Z3.0
G0 X30.5856 Y7.6036
G0 Z-3.0
G1 F300.0 Z-4.4
G1 F800.0 X40.9876
G0 Z3.0
G0 X31.3455 Y8.4036
G0 Z-3.0
G1 F300.0 Z-4.4
G1 F800.0 X40.9876
G0 Z3.0
G0 X32.2358 Y9.2036
G0 Z-3.0
G1 F300.0 Z-4.4
G1 F800.0 X40.9876
G0 Z3.0
G0 X33.3034 Y10.0036
G0 Z-3.0
G1 F300.0 Z-4.4
G1 F800.0 X40.9069
G1 F300.0 X40.596 Y10.4036
G1 Z-4.8
G1 F800.0 X34.5126
G0 Z3.0
G0 X40.9876 Y9.6036
G0 Z-3.4
G1 F300.0 Z-4.8
G1 F800.0 X32.7812
G0 Z3.0
G0 X40.9876 Y8.8036
G0 Z-3.4
G1 F300.0 Z-4.8
G1 F800.0 X31.7826
G0 Z3.0
G0 X40.9876 Y8.0036
G0 Z-3.4
G1 F300.0 Z-4.8
G1 F800.0 X30.9795
G0 Z3.0
G0 X40.9876 Y7.2036
G0 Z-3.4
G1 F300.0 Z-4.8
G1 F800.0 X30.2953
G0 Z3.0
G0 X24.8941 Y6.0036
G0 Z-3.0
G1 F300.0 Z-4.4
G1 F800.0 X28.0124
G1 X28.2211
G0 Z3.0
G0 X24.5486
G0 Z-3.0
G1 F300.0 Z-4.4
G1 F800.0 X24.6329
G0 Z3.0
G0 X40.9876 Y6.4036
G0 Z-3.4
G1 F300.0 Z-4.8
G1 F800.0 X28.9492
G0 Z3.0
G0 X-26.7299 Y6.0036
G0 Z-3.0
G1 F300.0 Z-4.4
G1 F800.0 X20.4124
G1 X20.6305
G0 Z3.0
G0 X-25.724 Y6.8036
G0 Z-3.0
G1 F300.0 Z-4.4
G1 F800.0 X10.4124
G1 X10.6183
G0 Z3.0
G0 X-23.5449 Y7.6036
G0 Z-3.0
G1 F300.0 Z-4.4
G1 F800.0 X10.6092
G0 Z3.0
G0 X-14.2852 Y8.4036
G0 Z-3.0
G1 F300.0 Z-4.4
G1 F800.0 X10.4124
G1 X10.652
G0 Z3.0
G0 X-12.8295 Y9.2036
G0 Z-3.0
G1 F300.0 Z-4.4
G1 F800.0 X10.4124
G1 X10.6286
G0 Z3.0
G0 X-7.8531 Y10.0036
G0 Z-3.0
G1 F300.0 Z-4.4
G1 F800.0 X10.5282
G0 Z3.0
G0 X-2.8457 Y10.8036
G0 Z-3.0
G1 F300.0 Z-4.4
G1 F800.0 X10.0124
G1 X10.2555
G0 Z3.0
G0 X-0.1867 Y11.6036
G0 Z-3.0
G1 F300.0 Z-4.4
G1 F800.0 X9.2124
G1 X9.5482
G0 Z3.0
G0 X1.0526 Y12.4036
G0 Z-3.0
G1 F300.0 Z-4.4
G1 F800.0 X8.4124
G1 X8.6365
G0 Z3.0
G0 X4.7877 Y13.2036
G0 Z-3.0
G1 F300.0 Z-4.4
G1 F800.0 X7.6124
G1 X7.8582
G1 F300.0 X7.0415 Y13.6036
G1 Z-4.8
G1 F800.0 X6.8124
G1 X5.3882
G0 Z3.0
G0 X8.3285 Y12.8036
G0 Z-3.4
G1 F300.0 Z-4.8
G1 F800.0 X8.0124
G1 X4.4218
G0 Z3.0
G0 X9.024 Y12.0036
G0 Z-3.4
G1 F300.0 Z-4.8
G1 F800.0 X8.8124
G1 X0.4174
G0 Z3.0
G0 X9.9636 Y11.2036
G0 Z-3.4
G1 F300.0 Z-4.8
G1 F800.0 X9.6124
G1 X-1.8655
G0 Z3.0
G0 X10.4238 Y10.4036
G0 Z-3.4
G1 F300.0 Z-4.8
G1 F800.0 X-3.7435
G0 Z3.0
G0 X10.5799 Y9.6036
G0 Z-3.4
G1 F300.0 Z-4.8
G1 F800.0 X-11.5532
G0 Z3.0
G0 X10.6404 Y8.8036
G0 Z-3.4
G1 F300.0 Z-4.8
G1 F800.0 X10.4124
G1 X-13.6732
G0 Z3.0
G0 X10.6411 Y8.0036
G0 Z-3.4
G1 F300.0 Z-4.8
G1 F800.0 X10.4124
G1 X-18.6712
G0 Z3.0
G0 X10.594 Y7.2036
G0 Z-3.4
G1 F300.0 Z-4.8
G1 F800.0 X-24.987
G0 Z3.0
G0 X12.2289 Y6.4036
G0 Z-3.4
G1 F300.0 Z-4.8
G1 F800.0 X12.0124
G1 X-26.2708
G0 Z3.0
G0 X40.9876 Y5.6036
G0 Z-3.4
G1 F300.0 Z-4.8
G1 F800.0 X-27.0494
G0 Z3.0
G0 X40.9876 Y4.8036
G0 Z-3.4
G1 F300.0 Z-4.8
G1 F800.0 X-27.8326
G0 Z3.0
G0 X-34.201 Y3.6036
G0 Z-3.0
G1 F300.0 Z-4.4
G1 F800.0 X-31.5876
G1 X-31.325
G1 F300.0 X-32.2927 Y4.0036
G1 Z-4.8
G1 F800.0 X-33.3277
G0 Z3.0
G0 X40.9876
G0 Z-3.4
G1 F300.0 Z-4.8
G1 F800.0 X-30.4527
G0 Z3.0
G0 X40.9876 Y3.2036
G0 Z-3.4
G1 F300.0 Z-4.8
G1 F800.0 X-35.1092
G0 Z3.0
G0 X40.9876 Y2.4036
G0 Z-3.4
G1 F300.0 Z-4.8
G1 F800.0 X-36.019
G0 Z3.0
G0 X40.9876 Y1.6036
G0 Z-3.4
G1 F300.0 Z-4.8
G1 F800.0 X-38.1211
G0 Z3.0
G0 X40.9876 Y0.8036
G0 Z-3.4
G1 F300.0 Z-4.8
G1 F800.0 X-39.525
G0 Z3.0
G0 X40.9876 Y0.0036
G0 Z-3.4
G1 F300.0 Z-4.8
G1 F800.0 X-40.1402
G0 Z3.0
G0 X40.9876 Y-0.7964
G0 Z-3.4
G1 F300.0 Z-4.8
G1 F800.0 X36.0124
G1 X35.6124 Z-4.7721
G1 X34.8124
G1 X34.4124 Z-4.8
G1 X-32.7876
G1 X-33.1876 Z-4.4169
G1 X-33.9876
G1 X-34.3876 Z-4.4939
G1 X-34.7876 Z-4.8
G1 X-40.4921
G0 Z3.0
G0 X40.9876 Y-1.5964
G0 Z-3.4
G1 F300.0 Z-4.8
G1 F800.0 X36.4124
G1 X36.0124 Z-4.7721
G1 X35.6124 Z-4.7282
G1 X34.8124
G1 X34.4124 Z-4.7721
G1 X34.0124 Z-4.8
G1 X-32.3876
G1 X-32.7876 Z-4.4169
G1 X-33.1876 Z-4.3561
G1 X-33.9876
G1 X-34.3876 Z-4.3788
G1 X-34.7876 Z-4.4939
G1 X-35.1876 Z-4.7246
G1 X-35.5876 Z-4.8
G1 X-40.7537
G0 Z3.0
G0 X40.9876 Y-2.3964
G0 Z-3.4
G1 F300.0 Z-4.8
G1 F800.0 X36.8124
G1 X36.4124 Z-4.7721
G1 X36.0124 Z-4.7282
G1 X34.4124
G1 X34.0124 Z-4.7721
G1 X33.6124 Z-4.8
G1 X-31.9876
G1 X-32.3876 Z-4.4169
G1 X-32.7876 Z-4.3561
G1 X-34.3876
G1 X-34.7876 Z-4.3788
G1 X-35.1876 Z-4.4939
G1 X-35.5876 Z-4.7246
G1 X-35.9876 Z-4.8
G1 X-40.9309
G0 Z3.0
G0 X40.9876 Y-3.1964
G0 Z-3.4
G1 F300.0 Z-4.8
G1 F800.0 X36.8124
G1 X36.4124 Z-4.7282
G1 X34.0124
G1 X33.6124 Z-4.7822
G1 X33.2124 Z-4.8
G1 X-31.9876
G1 X-32.3876 Z-4.3561
G1 X-34.7876
G1 X-35.1876 Z-4.3788
G1 X-35.5876 Z-4.5232
G1 X-35.9876 Z-4.7246
G1 X-36.3876 Z-4.8
G1 X-40.959
G0 Z3.0
G0 X40.9876 Y-3.9964
G0 Z-3.4
G1 F300.0 Z-4.8
G1 F800.0 X36.8124
G1 X36.4124 Z-4.7282
G1 X34.0124
G1 X33.6124 Z-4.7822
G1 X33.2124 Z-4.8
G1 X-31.9876
G1 X-32.3876 Z-4.4939
G1 X-32.7876 Z-4.3561
G1 X-34.3876
G1 X-34.7876 Z-4.3788
G1 X-35.1876
G1 X-35.5876 Z-4.5232
G1 X-35.9876 Z-4.6635
G1 X-36.3876 Z-4.8
G1 X-40.9876
G0 Z3.0
G0 X40.9876 Y-4.7964
G0 Z-3.4
G1 F300.0 Z-4.8
G1 F800.0 X36.4124
G1 X36.0124 Z-4.7282
G1 X34.4124
G1 X34.0124 Z-4.7822
G1 X33.6124 Z-4.8
G1 X-32.3876
G1 X-32.7876 Z-4.4939
G1 X-33.1876 Z-4.3561
G1 X-33.9876
G1 X-34.3876 Z-4.3788
G1 X-34.7876
G1 X-35.1876 Z-4.5232
G1 X-35.5876 Z-4.6635
G1 X-35.9876 Z-4.8
G1 X-40.945
G0 Z3.0
G0 X40.9876 Y-5.5964
G0 Z-3.4
G1 F300.0 Z-4.8
G1 F800.0 X36.0124
G1 X35.6124 Z-4.7282
G1 X34.8124
G1 X34.4124 Z-4.7822
G1 X34.0124 Z-4.8
G1 X-32.7876
G1 X-33.1876 Z-4.4939
G1 X-33.5876 Z-4.3788
G1 X-34.3876
G1 X-34.7876 Z-4.5232
G1 X-35.1876 Z-4.6635
G1 X-35.5876 Z-4.8
G1 X-40.7957
G0 Z3.0
G0 X40.9876 Y-6.3964
G0 Z-3.4
G1 F300.0 Z-4.8
G1 F800.0 X-40.4105
G0 Z3.0
G0 X40.9876 Y-7.1964
G0 Z-3.4
G1 F300.0 Z-4.8
G1 F800.0 X-39.9309
G0 Z3.0
G0 X24.1041 Y-7.9964
G0 Z-3.4
G1 F300.0 Z-4.8
G1 F800.0 X-39.1812
G0 Z3.0
G0 X-31.084 Y-8.7964
G0 Z-3.4
G1 F300.0 Z-4.8
G1 F800.0 X-35.828
G0 Z3.0
G0 X-32.7568 Y-9.5964
G0 Z-3.4
G1 F300.0 Z-4.8
G1 F800.0 X-34.0371
G1 F300.0 X-35.0883 Y-9.1964
G1 Z-5.2
G1 F800.0 X-32.3876
G1 X-32.0091
G0 Z3.0
G0 X-38.4217 Y-8.3964
G0 Z-3.8
G1 F300.0 Z-5.2
G1 F800.0 X-30.7217
G0 Z3.0
G0 X20.6841 Y-8.7964
G0 Z-3.4
G1 F300.0 Z-4.8
G1 F800.0 X20.4124
G1 X-27.9501
G0 Z3.0
G0 X-11.9588 Y-9.5964
G0 Z-3.4
G1 F300.0 Z-4.8
G1 F800.0 X-27.3212
G0 Z3.0
G0 X-12.5446 Y-10.3964
G0 Z-3.4
G1 F300.0 Z-4.8
G1 F800.0 X-12.7876
G1 X-26.4662
G0 Z3.0
G0 X-13.128 Y-11.1964
G0 Z-3.4
G1 F300.0 Z-4.8
G1 F800.0 X-24.5197
G0 Z3.0
G0 X-13.4453 Y-11.9964
G0 Z-3.4
G1 F300.0 Z-4.8
G1 F800.0 X-20.4915
G0 Z3.0
G0 X-13.7375 Y-12.7964
G0 Z-3.4
G1 F300.0 Z-4.8
G1 F800.0 X-13.9876
G1 X-17.9024
G0 Z3.0
G0 X-16.5116 Y-13.1964
G0 Z-3.8
G1 F300.0 Z-5.2
G1 F800.0 X-14.3876
G1 X-14.0644
G0 Z3.0
G0 X-19.2144 Y-12.3964
G0 Z-3.8
G1 F300.0 Z-5.2
G1 F800.0 X-13.5732
G0 Z3.0
G0 X-22.2165 Y-11.5964
G0 Z-3.8
G1 F300.0 Z-5.2
G1 F800.0 X-13.5876
G1 X-13.3291
G0 Z3.0
G0 X-25.8468 Y-10.7964
G0 Z-3.8
G1 F300.0 Z-5.2
G1 F800.0 X-13.1876
G1 X-12.9115
G0 Z3.0
G0 X7.1345 Y-9.5964
G0 Z-3.4
G1 F300.0 Z-4.8
G1 F800.0 X6.8124
G1 X-10.9531
G0 Z3.0
G0 X0.2389 Y-10.3964
G0 Z-3.4
G1 F300.0 Z-4.8
G1 F800.0 X0.0124
G1 X-6.64
G0 Z3.0
G0 X-9.6157 Y-9.9964
G0 Z-3.8
G1 F300.0 Z-5.2
G1 F800.0 X2.5251
G0 Z3.0
G0 X-26.9069
G0 Z-3.8
G1 F300.0 Z-5.2
G1 F800.0 X-12.2404
G0 Z3.0
G0 X-27.7003 Y-9.1964
G0 Z-3.8
G1 F300.0 Z-5.2
G1 F800.0 X9.2124
G1 X9.5484
G0 Z3.0
G0 X-30.4665 Y-8.3964
G0 Z-3.8
G1 F300.0 Z-5.2
G1 F800.0 X-28.6067
G0 Z3.0
G0 X16.4318 Y-9.5964
G0 Z-3.4
G1 F300.0 Z-4.8
G1 F800.0 X13.68
G0 Z3.0
G0 X11.6243 Y-9.1964
G0 Z-3.8
G1 F300.0 Z-5.2
G1 F800.0 X19.2946
G0 Z3.0
G0 X22.2678 Y-8.7964
G0 Z-3.4
G1 F300.0 Z-4.8
G1 F800.0 X22.0124
G1 X21.7458
G0 Z3.0
G0 X40.9876 Y-7.9964
G0 Z-3.4
G1 F300.0 Z-4.8
G1 F800.0 X25.5232
G0 Z3.0
G0 X40.9876 Y-8.7964
G0 Z-3.4
G1 F300.0 Z-4.8
G1 F800.0 X26.4795
G0 Z3.0
G0 X40.9876 Y-9.5964
G0 Z-3.4
G1 F300.0 Z-4.8
G1 F800.0 X26.6492
G0 Z3.0
G0 X40.9876 Y-10.3964
G0 Z-3.4
G1 F300.0 Z-4.8
G1 F800.0 X27.0731
G0 Z3.0
G0 X40.9876 Y-11.1964
G0 Z-3.4
G1 F300.0 Z-4.8
G1 F800.0 X29.6236
G0 Z3.0
G0 X40.9876 Y-11.9964
G0 Z-3.4
G1 F300.0 Z-4.8
G1 F800.0 X30.0578
G0 Z3.0
G0 X40.974 Y-12.7964
G0 Z-3.4
G1 F300.0 Z-4.8
G1 F800.0 X30.7638
G0 Z3.0
G0 X40.2525 Y-13.5964
G0 Z-3.4
G1 F300.0 Z-4.8
G1 F800.0 X40.0124
G1 X32.5572
G1 F300.0 X31.8495 Y-13.1964
G1 Z-5.2
G1 F800.0 X34.0124
G1 X34.4124 Z-5.0211
G1 X34.8124 Z-4.9389
G1 X35.2124 Z-4.9106
G1 X35.6124 Z-4.9043
G1 X36.0124 Z-4.8739
G1 X36.8124 Z-4.8399
G1 X37.6124
G1 X38.0124 Z-4.8452
G1 X38.4124
G1 X38.8124 Z-4.8516
G1 X39.2124 Z-4.8244
G1 X40.0124
G1 X40.4124 Z-4.8761
G1 X40.8132 Z-5.2
G0 Z3.0
G0 X30.3104 Y-12.3964
G0 Z-3.8
G1 F300.0 Z-5.2
G1 F800.0 X33.6124
G1 X34.0124 Z-5.0211
G1 X34.4124 Z-4.9389
G1 X34.8124 Z-4.9106
G1 X35.2124 Z-4.8951
G1 X35.6124 Z-4.8722
G1 X36.0124 Z-4.8309
G1 X36.8124
G1 X37.2124 Z-4.8337
G1 X37.6124 Z-4.8399
G1 X38.0124
G1 X38.4124 Z-4.8409
G1 X38.8124 Z-4.8225
G1 X39.2124 Z-4.8032
G1 X40.0124
G1 X40.4124 Z-4.8244
G1 X40.9876 Z-4.8761
G0 Z3.0
G0 X29.811 Y-11.5964
G0 Z-3.8
G1 F300.0 Z-5.2
G1 F800.0 X33.2124
G1 X33.6124 Z-5.0211
G1 X34.0124 Z-4.9389
G1 X34.4124 Z-4.9106
G1 X34.8124 Z-4.8951
G1 X35.2124 Z-4.8722
G1 X35.6124 Z-4.8309
G1 X37.2124
G1 X37.6124 Z-4.8337
G1 X38.0124 Z-4.8399
G1 X38.4124 Z-4.8225
G1 X38.8124 Z-4.8032
G1 X40.4124
G1 X40.9876 Z-4.8244
G0 Z3.0
G0 X27.6022 Y-10.7964
G0 Z-3.8
G1 F300.0 Z-5.2
G1 F800.0 X33.2124
G1 X33.6124 Z-5.0211
G1 X34.0124 Z-4.9224
G1 X34.4124 Z-4.8951
G1 X34.8124 Z-4.8722
G1 X35.2124 Z-4.8309
G1 X37.6124
G1 X38.0124 Z-4.8225
G1 X38.4124 Z-4.8032
G1 X40.9876
G0 Z3.0
G0 X26.7692 Y-9.9964
G0 Z-3.8
G1 F300.0 Z-5.2
G1 F800.0 X33.2124
G1 X33.6124 Z-5.1667
G1 X34.0124 Z-4.9785
G1 X34.4124 Z-4.9215
G1 X34.8124 Z-4.8722
G1 X35.2124 Z-4.8309
G1 X37.6124
G1 X38.0124 Z-4.8225
G1 X38.4124 Z-4.8032
G1 X40.9876
G0 Z3.0
G0 X26.6727 Y-9.1964
G0 Z-3.8
G1 F300.0 Z-5.2
G1 F800.0 X33.2124
G1 X33.6124 Z-5.176
G1 X34.0124 Z-5.1126
G1 X34.4124 Z-4.9785
G1 X34.8124 Z-4.9215
G1 X35.2124 Z-4.8722
G1 X35.6124 Z-4.8309
G1 X37.2124
G1 X37.6124 Z-4.835
G1 X38.0124 Z-4.8277
G1 X38.4124 Z-4.82
G1 X38.8124 Z-4.8032
G1 X40.4124
G1 X40.9876 Z-4.82
G0 Z3.0
G0 X26.1711 Y-8.3964
G0 Z-3.8
G1 F300.0 Z-5.2
G1 F800.0 X33.2124
G1 X33.6124 Z-5.1925
G1 X34.0124 Z-5.1324
G1 X34.4124 Z-5.0622
G1 X34.8124 Z-4.9659
G1 X35.2124 Z-4.9127
G1 X35.6124 Z-4.8722
G1 X36.0124 Z-4.8309
G1 X36.8124
G1 X37.2124 Z-4.8401
G1 X37.6124 Z-4.8346
G1 X38.0124 Z-4.8273
G1 X38.4124 Z-4.8204
G1 X38.8124 Z-4.82
G1 X39.2124 Z-4.8032
G1 X40.0124
G1 X40.4124 Z-4.82
G1 X40.9876 Z-4.8204
G0 Z3.0
G0 X-28.1438
G0 Z-3.8
G1 F300.0 Z-5.2
G1 F800.0 X23.3025
G0 Z3.0
G0 X-39.6155 Y-7.5964
G0 Z-3.8
G1 F300.0 Z-5.2
G1 F800.0 X32.8124
G1 X33.2124 Z-5.133
G1 X33.6124
G1 X34.0124 Z-5.0622
G1 X34.4124 Z-4.9854
G1 X34.8124 Z-4.9127
G1 X35.2124 Z-4.8951
G1 X35.6124 Z-4.8626
G1 X36.0124 Z-4.8436
G1 X36.4124 Z-4.8412
G1 X36.8124 Z-4.8401
G1 X37.2124 Z-4.8384
G1 X37.6124 Z-4.8342
G1 X38.0124 Z-4.8269
G1 X38.4124 Z-4.8223
G1 X38.8124 Z-4.8204
G1 X39.2124 Z-4.8193
G1 X40.0124
G1 X40.4124 Z-4.8204
G1 X40.9876 Z-4.8223
G0 Z3.0
G0 X-40.1709 Y-6.7964
G0 Z-3.8
G1 F300.0 Z-5.2
G1 F800.0 X32.4124
G1 X32.8124 Z-5.133
G1 X33.2124
G1 X33.6124 Z-5.0532
G1 X34.0124 Z-4.9867
G1 X34.4124 Z-4.9366
G1 X34.8124 Z-4.9127
G1 X35.2124 Z-4.8951
G1 X35.6124 Z-4.8701
G1 X36.0124 Z-4.846
G1 X36.4124 Z-4.8412
G1 X36.8124 Z-4.8384
G1 X37.2124 Z-4.8366
G1 X37.6124 Z-4.8337
G1 X38.0124 Z-4.8269
G1 X38.4124 Z-4.8248
G1 X38.8124 Z-4.8193
G1 X40.4124
G1 X40.9876 Z-4.8248
G0 Z3.0
G0 X-40.6481 Y-5.9964
G0 Z-3.8
G1 F300.0 Z-5.2
G1 F800.0 X-37.1876
G1 X-36.7876 Z-5.194
G1 X-36.3876 Z-5.1191
G1 X-35.9876 Z-5.0906
G1 X-35.5876 Z-4.8748
G1 X-35.1876 Z-4.6635
G1 X-34.7876 Z-4.5569
G1 X-34.3876 Z-4.5558
G1 X-33.5876
G1 X-33.1876 Z-4.9489
G1 X-32.7876 Z-5.2
G1 X32.0124
G1 X32.4124 Z-5.133
G1 X32.8124
G1 X33.2124 Z-5.0532
G1 X33.6124 Z-4.9867
G1 X34.0124 Z-4.9076
G1 X34.4124 Z-4.7878
G1 X34.8124 Z-4.7623
G1 X35.6124
G1 X36.0124 Z-4.8517
G1 X36.8124 Z-4.8384
G1 X37.2124 Z-4.832
G1 X37.6124
G1 X38.0124 Z-4.8272
G1 X38.4124 Z-4.8193
G1 X40.9876
G0 Z3.0
G0 X-40.8953 Y-5.1964
G0 Z-3.8
G1 F300.0 Z-5.2
G1 F800.0 X-37.5876
G1 X-37.1876 Z-5.194
G1 X-36.7876 Z-5.1191
G1 X-36.3876 Z-4.9781
G1 X-35.9876 Z-4.8748
G1 X-35.5876 Z-4.6635
G1 X-35.1876 Z-4.5569
G1 X-34.7876 Z-4.5232
G1 X-34.3876 Z-4.3788
G1 X-33.9876 Z-4.3561
G1 X-33.1876
G1 X-32.7876 Z-4.9489
G1 X-32.3876 Z-5.2
G1 X32.0124
G1 X32.4124 Z-5.133
G1 X32.8124 Z-5.0532
G1 X33.2124 Z-4.9867
G1 X33.6124 Z-4.9076
G1 X34.0124 Z-4.7878
G1 X34.4124 Z-4.7623
G1 X34.8124 Z-4.7282
G1 X35.6124
G1 X36.0124 Z-4.7623
G1 X36.4124 Z-4.8413
G1 X36.8124 Z-4.832
G1 X37.6124
G1 X38.0124 Z-4.8272
G1 X38.4124 Z-4.8193
G1 X40.9876
G0 Z3.0
G0 X-40.9757 Y-4.3964
G0 Z-3.8
G1 F300.0 Z-5.2
G1 F800.0 X-37.9876
G1 X-37.5876 Z-5.194
G1 X-37.1876 Z-5.1191
G1 X-36.7876 Z-4.9781
G1 X-36.3876 Z-4.8748
G1 X-35.9876 Z-4.6635
G1 X-35.5876 Z-4.5569
G1 X-35.1876 Z-4.5232
G1 X-34.7876 Z-4.3788
G1 X-34.3876 Z-4.3561
G1 X-32.7876
G1 X-32.3876 Z-4.9489
G1 X-31.9876 Z-5.2
G1 X32.0124
G1 X32.4124 Z-5.1853
G1 X32.8124 Z-5.0493
G1 X33.2124 Z-4.9076
G1 X33.6124 Z-4.7878
G1 X34.0124 Z-4.7623
G1 X34.4124 Z-4.7282
G1 X36.0124
G1 X36.4124 Z-4.7623
G1 X36.8124 Z-4.832
G1 X37.6124
G1 X38.0124 Z-4.828
G1 X38.4124 Z-4.823
G1 X38.8124 Z-4.8193
G1 X40.4124
G1 X40.9876 Z-4.823
G0 Z3.0
G0 X-40.9806 Y-3.5964
G0 Z-3.8
G1 F300.0 Z-5.2
G1 F800.0 X-37.9876
G1 X-37.5876 Z-5.1271
G1 X-37.1876 Z-4.9781
G1 X-36.7876 Z-4.9084
G1 X-36.3876 Z-4.8563
G1 X-35.9876 Z-4.6635
G1 X-35.5876 Z-4.5232
G1 X-35.1876 Z-4.3788
G1 X-34.7876 Z-4.3561
G1 X-32.3876
G1 X-31.9876 Z-5.2
G1 X32.4124
G1 X32.8124 Z-5.1372
G1 X33.2124 Z-4.9412
G1 X33.6124 Z-4.7822
G1 X34.0124 Z-4.7282
G1 X36.4124
G1 X36.8124 Z-4.8243
G1 X37.2124 Z-4.832
G1 X37.6124
G1 X38.0124 Z-4.8281
G1 X38.4124 Z-4.8232
G1 X38.8124 Z-4.823
G1 X39.2124 Z-4.8193
G1 X40.0124
G1 X40.4124 Z-4.823
G1 X40.9876 Z-4.8232
G0 Z3.0
G0 X-40.9464 Y-2.7964
G0 Z-3.8
G1 F300.0 Z-5.2
G1 F800.0 X-37.9876
G1 X-37.5876 Z-5.1297
G1 X-37.1876 Z-4.9781
G1 X-36.7876 Z-4.9084
G1 X-36.3876 Z-4.8563
G1 X-35.9876 Z-4.8473
G1 X-35.5876 Z-4.6635
G1 X-35.1876 Z-4.3816
G1 X-34.7876 Z-4.3561
G1 X-32.3876
G1 X-31.9876 Z-5.2
G1 X32.8124
G1 X33.2124 Z-5.0239
G1 X33.6124 Z-4.8161
G1 X34.0124 Z-4.738
G1 X34.4124 Z-4.7282
G1 X36.0124
G1 X36.4124 Z-4.738
G1 X36.8124 Z-4.8079
G1 X37.2124 Z-4.832
G1 X37.6124
G1 X38.0124 Z-4.8283
G1 X38.4124 Z-4.8233
G1 X38.8124 Z-4.8232
G1 X39.2124 Z-4.823
G1 X40.0124
G1 X40.4124 Z-4.8232
G1 X40.9876 Z-4.8233
G0 Z3.0
G0 X-40.8618 Y-1.9964
G0 Z-3.8
G1 F300.0 Z-5.2
G1 F800.0 X-37.5876
G1 X-37.1876 Z-5.1152
G1 X-36.7876 Z-4.9781
G1 X-36.3876 Z-4.8919
G1 X-35.9876 Z-4.8416
G1 X-35.5876
G1 X-35.1876 Z-4.6613
G1 X-34.7876 Z-4.3816
G1 X-34.3876 Z-4.3561
G1 X-32.7876
G1 X-32.3876 Z-4.6811
G1 X-31.9876 Z-5.2
G1 X32.8124
G1 X33.2124 Z-5.0862
G1 X33.6124 Z-4.9046
G1 X34.0124 Z-4.7943
G1 X34.4124 Z-4.738
G1 X34.8124 Z-4.7282
G1 X35.6124
G1 X36.0124 Z-4.738
G1 X36.4124 Z-4.7943
G1 X36.8124 Z-4.8344
G1 X37.2124 Z-4.832
G1 X37.6124
G1 X38.0124 Z-4.8274
G1 X38.4124 Z-4.8233
G1 X38.8124
G1 X39.2124 Z-4.8232
G1 X40.0124
G1 X40.4124 Z-4.8233
G1 X40.9876
G0 Z3.0
G0 X-40.6459 Y-1.1964
G0 Z-3.8
G1 F300.0 Z-5.2
G1 F800.0 X-37.1876
G1 X-36.7876 Z-5.0886
G1 X-36.3876 Z-4.8919
G1 X-35.9876 Z-4.8416
G1 X-35.1876
G1 X-34.7876 Z-4.6613
G1 X-34.3876 Z-4.3816
G1 X-33.9876 Z-4.3561
G1 X-33.1876
G1 X-32.7876 Z-4.6811
G1 X-32.3876 Z-5.2
G1 X32.4124
G1 X32.8124 Z-5.1807
G1 X33.2124 Z-5.0434
G1 X33.6124 Z-4.9084
G1 X34.0124 Z-4.8409
G1 X34.4124 Z-4.7943
G1 X34.8124 Z-4.738
G1 X35.6124
G1 X36.0124 Z-4.7943
G1 X36.4124 Z-4.8344
G1 X36.8124 Z-4.8421
G1 X37.2124 Z-4.8383
G1 X37.6124 Z-4.832
G1 X38.0124 Z-4.8274
G1 X38.4124
G1 X38.8124 Z-4.8233
G1 X40.4124
G1 X40.9876 Z-4.829
G0 Z3.0
G0 X-40.319 Y-0.3964
G0 Z-3.8
G1 F300.0 Z-5.2
G1 F800.0 X-36.7876
G1 X-36.3876 Z-5.0886
G1 X-35.9876 Z-4.8919
G1 X-35.5876 Z-4.8416
G1 X-34.7876
G1 X-34.3876 Z-4.6613
G1 X-33.5876
G1 X-33.1876 Z-4.6811
G1 X-32.7876 Z-5.2
G1 X32.4124
G1 X32.8124 Z-5.17
G1 X33.2124 Z-5.0434
G1 X33.6124 Z-5.0128
G1 X34.0124 Z-4.9084
G1 X34.4124 Z-4.8409
G1 X34.8124 Z-4.7943
G1 X35.6124
G1 X36.0124 Z-4.8344
G1 X36.4124 Z-4.8522
G1 X37.2124 Z-4.8421
G1 X37.6124 Z-4.8383
G1 X38.0124 Z-4.8324
G1 X38.4124 Z-4.8274
G1 X38.8124
G1 X39.2124 Z-4.8233
G1 X40.0124
G1 X40.4124 Z-4.829
G1 X40.9876 Z-4.8341
G0 Z3.0
G0 X-39.9009 Y0.4036
G0 Z-3.8
G1 F300.0 Z-5.2
G1 F800.0 X-36.3876
G1 X-35.9876 Z-5.0886
G1 X-35.5876 Z-4.8919
G1 X-35.1876 Z-4.8416
G1 X-34.3876
G1 X-33.9876 Z-4.9178
G1 X-33.5876 Z-5.1421
G1 X-33.1876 Z-5.2
G1 X32.8124
G1 X33.2124 Z-5.17
G1 X33.6124 Z-5.0434
G1 X34.0124 Z-5.0128
G1 X34.4124 Z-4.9084
G1 X34.8124 Z-4.8409
G1 X35.6124
G1 X36.0124 Z-4.8685
G1 X36.4124 Z-4.8634
G1 X36.8124 Z-4.8522
G1 X37.6124 Z-4.8421
G1 X38.0124 Z-4.8383
G1 X38.4124 Z-4.8342
G1 X38.8124 Z-4.8274
G1 X39.6124
G1 X40.0124 Z-4.829
G1 X40.4124 Z-4.8341
G1 X40.9876 Z-4.8548
G0 Z3.0
G0 X-38.9437 Y1.2036
G0 Z-3.8
G1 F300.0 Z-5.2
G1 F800.0 X-35.9876
G1 X-35.5876 Z-5.0982
G1 X-35.1876 Z-5.042
G1 X-34.3876
G1 X-33.9876 Z-5.2
G1 X33.2124
G1 X33.6124 Z-5.17
G1 X34.0124 Z-5.0434
G1 X34.4124 Z-5.0128
G1 X34.8124 Z-4.9596
G1 X35.2124 Z-4.9214
G1 X35.6124 Z-4.8897
G1 X36.0124 Z-4.8805
G1 X36.4124 Z-4.8685
G1 X37.2124 Z-4.8584
G1 X37.6124 Z-4.854
G1 X38.4124 Z-4.8483
G1 X38.8124 Z-4.8435
G1 X39.2124 Z-4.8341
G1 X40.0124
G1 X40.9876 Z-4.8755
G0 Z3.0
G0 X-36.7582 Y2.0036
G0 Z-3.8
G1 F300.0 Z-5.2
G1 F800.0 X33.6124
G1 X34.0124 Z-5.1275
G1 X34.4124 Z-5.0044
G1 X34.8124 Z-4.9657
G1 X35.2124 Z-4.9463
G1 X35.6124 Z-4.8985
G1 X36.0124 Z-4.8897
G1 X36.4124 Z-4.8805
G1 X38.8124 Z-4.8632
G1 X39.2124 Z-4.8548
G1 X40.0124
G1 X40.4124 Z-4.8755
G1 X40.9876 Z-4.896
G0 Z3.0
G0 X-35.696 Y2.8036
G0 Z-3.8
G1 F300.0 Z-5.2
G1 F800.0 X33.6124
G1 X34.0124 Z-5.0437
G1 X34.4124 Z-4.9657
G1 X34.8124 Z-4.9463
G1 X35.2124
G1 X35.6124 Z-4.9259
G1 X36.0124 Z-4.8985
G1 X36.4124 Z-4.8897
G1 X37.2124
G1 X37.6124
G1 X38.8124 Z-4.8811
G1 X39.2124 Z-4.8755
G1 X40.0124
G1 X40.4124 Z-4.896
G1 X40.9876 Z-4.9026
G0 Z3.0
G0 X-31.1822 Y3.6036
G0 Z-3.8
G1 F300.0 Z-5.2
G1 F800.0 X33.2124
G1 X33.6124 Z-5.132
G1 X34.0124 Z-4.9736
G1 X34.4124 Z-4.9463
G1 X34.8124
G1 X35.2124 Z-4.9295
G1 X35.6124 Z-4.9208
G1 X36.0124 Z-4.9082
G1 X36.4124 Z-4.8985
G1 X36.8124 Z-4.8959
G1 X37.6124
G1 X38.8124 Z-4.8962
G1 X39.2124 Z-4.896
G1 X40.0124
G1 X40.4124 Z-4.9026
G1 X40.9876 Z-4.909
G0 Z3.0
G0 X-28.4195 Y4.4036
G0 Z-3.8
G1 F300.0 Z-5.2
G1 F800.0 X33.2124
G1 X33.6124 Z-5.132
G1 X34.0124 Z-4.9736
G1 X34.4124 Z-4.9463
G1 X34.8124 Z-4.9402
G1 X35.2124 Z-4.9295
G1 X36.0124 Z-4.9121
G1 X36.4124 Z-4.9082
G1 X36.8124 Z-4.9021
G1 X37.6124
G1 X38.0124 Z-4.9022
G1 X38.4124 Z-4.9017
G1 X38.8124 Z-4.9002
G1 X39.2124 Z-4.8945
G1 X40.0124
G1 X40.4124 Z-4.9089
G1 X40.9876 Z-4.9153
G0 Z3.0
G0 X-27.5125 Y5.2036
G0 Z-3.8
G1 F300.0 Z-5.2
G1 F800.0 X33.6124
G1 X34.0124 Z-5.1243
G1 X34.4124 Z-4.9611
G1 X34.8124 Z-4.9422
G1 X36.0124 Z-4.9161
G1 X36.4124 Z-4.912
G1 X36.8124 Z-4.9082
G1 X37.2124 Z-4.9081
G1 X38.0124 Z-4.9051
G1 X38.4124 Z-4.9006
G1 X38.8124 Z-4.8945
G1 X39.2124 Z-4.8896
G1 X40.0124
G1 X40.4124 Z-4.8945
G1 X40.9876 Z-4.9089
G0 Z3.0
G0 X28.4386 Y6.0036
G0 Z-3.8
G1 F300.0 Z-5.2
G1 F800.0 X34.0124
G1 X34.4124 Z-4.9971
G1 X34.8124 Z-4.9611
G1 X35.2124 Z-4.9422
G1 X35.6124 Z-4.9287
G1 X36.0124 Z-4.92
G1 X36.4124 Z-4.9102
G1 X36.8124 Z-4.8898
G1 X37.6124
G1 X38.0124 Z-4.8988
G1 X38.4124 Z-4.8945
G1 X38.8124 Z-4.8896
G1 X40.4124
G1 X40.9876 Z-4.8945
G0 Z3.0
G0 X29.4486 Y6.8036
G0 Z-3.8
G1 F300.0 Z-5.2
G1 F800.0 X34.0124
G1 X34.4124 Z-5.0688
G1 X34.8124 Z-4.9754
G1 X35.2124 Z-4.9493
G1 X35.6124 Z-4.9361
G1 X36.0124 Z-4.9102
G1 X36.4124 Z-4.8898
G1 X36.8124 Z-4.8854
G1 X37.6124
G1 X38.0124 Z-4.8898
G1 X38.4124 Z-4.8896
G1 X40.9876
G0 Z3.0
G0 X30.5856 Y7.6036
G0 Z-3.8
G1 F300.0 Z-5.2
G1 F800.0 X34.0124
G1 X34.4124 Z-5.0664
G1 X34.8124 Z-4.9875
G1 X35.2124 Z-4.9395
G1 X35.6124 Z-4.9102
G1 X36.0124 Z-4.8898
G1 X36.4124 Z-4.8854
G1 X38.0124
G1 X38.4124 Z-4.8898
G1 X38.8124 Z-4.8896
G1 X40.4124
G1 X40.9876 Z-4.8908
G0 Z3.0
G0 X31.3455 Y8.4036
G0 Z-3.8
G1 F300.0 Z-5.2
G1 F800.0 X34.0124
G1 X34.4124 Z-5.0677
G1 X34.8124 Z-4.9746
G1 X35.2124 Z-4.92
G1 X35.6124 Z-4.8972
G1 X36.0124 Z-4.8854
G1 X38.4124
G1 X38.8124 Z-4.8908
G1 X39.2124 Z-4.8896
G1 X40.0124
G1 X40.4124 Z-4.8908
G1 X40.9876 Z-4.8937
G0 Z3.0
G0 X32.2358 Y9.2036
G0 Z-3.8
G1 F300.0 Z-5.2
G1 F800.0 X34.0124
G1 X34.4124 Z-5.196
G1 X34.8124 Z-5.0562
G1 X35.2124 Z-4.9406
G1 X35.6124 Z-4.92
G1 X36.0124 Z-4.8972
G1 X36.4124 Z-4.8854
G1 X38.0124
G1 X38.4124 Z-4.8937
G1 X38.8124
G1 X39.2124 Z-4.8908
G1 X40.0124
G1 X40.4124 Z-4.8937
G1 X40.9876 Z-4.97
G0 Z3.0
G0 X33.3034 Y10.0036
G0 Z-3.8
G1 F300.0 Z-5.2
G1 F800.0 X34.4124
G1 X34.8124 Z-5.196
G1 X35.2124 Z-5.0562
G1 X35.6124 Z-4.9406
G1 X36.0124 Z-4.92
G1 X36.4124 Z-4.8972
G1 X36.8124 Z-4.8854
G1 X37.6124
G1 X38.0124 Z-4.8937
G1 X38.4124 Z-4.9054
G1 X39.2124 Z-4.8937
G1 X40.0124
G1 X40.4124 Z-4.97
G1 X40.9069 Z-5.2
G1 F300.0 X40.596 Y10.4036
G1 Z-5.6
G1 F800.0 X40.0124 Z-4.922
G1 X39.6124 Z-4.9139
G1 X39.2124 Z-4.9074
G1 X38.4124
G1 X38.0124 Z-4.8937
G1 X37.6124 Z-4.8854
G1 X36.8124
G1 X36.4124 Z-4.8972
G1 X36.0124 Z-4.92
G1 X35.6124 Z-4.9746
G1 X35.2124 Z-5.102
G1 X34.8124 Z-5.3453
G1 X34.5126 Z-5.6
G0 Z3.0
G0 X40.9876 Y9.6036
G0 Z-4.2
G1 F300.0 Z-5.6
G1 F800.0 X40.4124 Z-4.922
G1 X40.0124 Z-4.8921
G1 X39.2124
G1 X38.8124 Z-4.8976
G1 X38.4124 Z-4.8937
G1 X38.0124 Z-4.8854
G1 X36.4124
G1 X36.0124 Z-4.8972
G1 X35.6124 Z-4.92
G1 X35.2124 Z-4.9746
G1 X34.8124 Z-5.102
G1 X34.4124 Z-5.3453
G1 X34.0124 Z-5.6
G1 X32.7812
G0 Z3.0
G0 X40.9876 Y8.8036
G0 Z-3.8
G1 F300.0 Z-4.922
G1 F800.0 X40.4124 Z-4.8921
G1 X40.0124 Z-4.8896
G1 X39.2124
G1 X38.8124 Z-4.8921
G1 X38.4124 Z-4.8854
G1 X36.0124
G1 X35.6124 Z-4.8972
G1 X35.2124 Z-4.92
G1 X34.8124 Z-4.9746
G1 X34.4124 Z-5.102
G1 X34.0124 Z-5.3453
G1 X33.6124 Z-5.6
G1 X31.7826
G0 Z3.0
G0 X40.9876 Y8.0036
G0 Z-3.8
G1 F300.0 Z-4.8921
G1 F800.0 X40.4124 Z-4.8896
G1 X38.8124
G1 X38.4124 Z-4.8854
G1 X36.0124
G1 X35.6124 Z-4.8972
G1 X35.2124 Z-4.92
G1 X34.8124 Z-4.9746
G1 X34.4124 Z-5.0664
G1 X34.0124 Z-5.2735
G1 X33.6124 Z-5.59
G1 X33.2124 Z-5.6
G1 X30.9795
G0 Z3.0
G0 X40.9876 Y7.2036
G0 Z-3.8
G1 F300.0 Z-4.8896
G1 F800.0 X38.4124
G1 X38.0124 Z-4.8854
G1 X36.4124
G1 X36.0124 Z-4.8972
G1 X35.6124 Z-4.92
G1 X35.2124 Z-4.9493
G1 X34.8124 Z-4.9851
G1 X34.4124 Z-5.0664
G1 X34.0124 Z-5.2729
G1 X33.6124 Z-5.5607
G1 X33.2124 Z-5.6
G1 X30.2953
G0 Z3.0
G0 X24.8941 Y6.0036
G0 Z-3.8
G1 F300.0 Z-5.2
G1 F800.0 X28.0124
G1 X28.2211
G0 Z3.0
G0 X24.5486
G0 Z-3.8
G1 F300.0 Z-5.2
G1 F800.0 X24.6329
G0 Z3.0
G0 X40.9876 Y6.4036
G0 Z-3.8
G1 F300.0 Z-4.8896
G1 F800.0 X38.4124
G1 X38.0124 Z-4.8937
G1 X37.6124 Z-4.8854
G1 X36.8124
G1 X36.4124 Z-4.8972
G1 X36.0124 Z-4.92
G1 X35.6124 Z-4.9347
G1 X35.2124 Z-4.9489
G1 X34.8124 Z-4.9754
G1 X34.4124 Z-5.0567
G1 X34.0124 Z-5.2391
G1 X33.6124 Z-5.5053
G1 X33.2124 Z-5.6
G1 X28.9492
G0 Z3.0
G0 X-26.7299 Y6.0036
G0 Z-3.8
G1 F300.0 Z-5.2
G1 F800.0 X20.4124
G1 X20.6305
G0 Z3.0
G0 X-25.724 Y6.8036
G0 Z-3.8
G1 F300.0 Z-5.2
G1 F800.0 X10.4124
G1 X10.6183
G0 Z3.0
G0 X-23.5449 Y7.6036
G0 Z-3.8
G1 F300.0 Z-5.2
G1 F800.0 X10.6092
G0 Z3.0
G0 X-14.2852 Y8.4036
G0 Z-3.8
G1 F300.0 Z-5.2
G1 F800.0 X10.4124
G1 X10.652
G0 Z3.0
G0 X-12.8295 Y9.2036
G0 Z-3.8
G1 F300.0 Z-5.2
G1 F800.0 X10.4124
G1 X10.6286
G0 Z3.0
G0 X-7.8531 Y10.0036
G0 Z-3.8
G1 F300.0 Z-5.2
G1 F800.0 X10.5282
G0 Z3.0
G0 X-2.8457 Y10.8036
G0 Z-3.8
G1 F300.0 Z-5.2
G1 F800.0 X10.0124
G1 X10.2555
G0 Z3.0
G0 X-0.1867 Y11.6036
G0 Z-3.8
G1 F300.0 Z-5.2
G1 F800.0 X9.2124
G1 X9.5482
G0 Z3.0
G0 X1.0526 Y12.4036
G0 Z-3.8
G1 F300.0 Z-5.2
G1 F800.0 X8.4124
G1 X8.6365
G0 Z3.0
G0 X4.7877 Y13.2036
G0 Z-3.8
G1 F300.0 Z-5.2
G1 F800.0 X7.6124
G1 X7.8582
G1 F300.0 X7.0415 Y13.6036
G1 Z-5.6
G1 F800.0 X6.8124
G1 X5.3882
G0 Z3.0
G0 X8.3285 Y12.8036
G0 Z-4.2
G1 F300.0 Z-5.6
G1 F800.0 X8.0124
G1 X4.4218
G0 Z3.0
G0 X9.024 Y12.0036
G0 Z-4.2
G1 F300.0 Z-5.6
G1 F800.0 X8.8124
G1 X0.4174
G0 Z3.0
G0 X9.9636 Y11.2036
G0 Z-4.2
G1 F300.0 Z-5.6
G1 F800.0 X9.6124
G1 X-1.8655
G0 Z3.0
G0 X10.4238 Y10.4036
G0 Z-4.2
G1 F300.0 Z-5.6
G1 F800.0 X-3.7435
G0 Z3.0
G0 X10.5799 Y9.6036
G0 Z-4.2
G1 F300.0 Z-5.6
G1 F800.0 X-11.5532
G0 Z3.0
G0 X10.6404 Y8.8036
G0 Z-4.2
G1 F300.0 Z-5.6
G1 F800.0 X10.4124
G1 X-13.6732
G0 Z3.0
G0 X10.6411 Y8.0036
G0 Z-4.2
G1 F300.0 Z-5.6
G1 F800.0 X10.4124
G1 X-18.6712
G0 Z3.0
G0 X10.594 Y7.2036
G0 Z-4.2
G1 F300.0 Z-5.6
G1 F800.0 X-24.987
G0 Z3.0
G0 X12.2289 Y6.4036
G0 Z-4.2
G1 F300.0 Z-5.6
G1 F800.0 X12.0124
G1 X-26.2708
G0 Z3.0
G0 X40.9876 Y5.6036
G0 Z-3.8
G1 F300.0 Z-4.9017
G1 F800.0 X40.4124 Z-4.8896
G1 X38.8124
G1 X38.0124 Z-4.9006
G1 X37.6124 Z-4.9038
G1 X37.2124
G1 X36.8124 Z-4.9057
G1 X36.4124 Z-4.9129
G1 X36.0124 Z-4.918
G1 X35.2124 Z-4.9354
G1 X34.8124 Z-4.9489
G1 X34.4124 Z-4.9788
G1 X34.0124 Z-5.1643
G1 X33.6124 Z-5.405
G1 X33.2124 Z-5.5668
G1 X32.8124 Z-5.6
G1 X-27.0494
G0 Z3.0
G0 X40.9876 Y4.8036
G0 Z-3.8
G1 F300.0 Z-4.9161
G1 F800.0 X40.4124 Z-4.9017
G1 X40.0124 Z-4.8896
G1 X39.2124
G1 X38.4124 Z-4.9006
G1 X38.0124 Z-4.9041
G1 X37.6124 Z-4.9052
G1 X36.8124
G1 X36.4124 Z-4.9105
G1 X36.0124 Z-4.9141
G1 X34.8124 Z-4.9402
G1 X34.4124 Z-4.9489
G1 X34.0124 Z-5.0401
G1 X33.6124 Z-5.2226
G1 X33.2124 Z-5.429
G1 X32.8124 Z-5.5668
G1 X32.4124 Z-5.6
G1 X-27.8326
G0 Z3.0
G0 X-34.201 Y3.6036
G0 Z-3.8
G1 F300.0 Z-5.2
G1 F800.0 X-31.5876
G1 X-31.325
G1 F300.0 X-32.2927 Y4.0036
G1 Z-5.6
G1 F800.0 X-33.3277
G0 Z3.0
G0 X40.9876
G0 Z-3.8
G1 F300.0 Z-4.9122
G1 F800.0 X40.4124 Z-4.9058
G1 X40.0124 Z-4.8994
G1 X39.6124 Z-4.8992
G1 X38.8124
G1 X38.4124
G1 X37.6124 Z-4.899
G1 X36.8124
G1 X36.4124 Z-4.9052
G1 X36.0124 Z-4.9105
G1 X35.6124 Z-4.9208
G1 X35.2124 Z-4.9295
G1 X34.8124 Z-4.9402
G1 X34.4124 Z-4.9463
G1 X34.0124 Z-4.9736
G1 X33.6124 Z-5.132
G1 X33.2124 Z-5.2985
G1 X32.8124 Z-5.453
G1 X32.4124 Z-5.6
G1 X-30.4527
G0 Z3.0
G0 X40.9876 Y3.2036
G0 Z-3.8
G1 F300.0 Z-4.9058
G1 F800.0 X40.4124 Z-4.8994
G1 X40.0124 Z-4.8859
G1 X39.2124
G1 X38.8124 Z-4.89
G1 X38.4124 Z-4.8929
G1 X38.0124
G1 X37.2124 Z-4.8927
G1 X36.4124
G1 X36.0124 Z-4.9052
G1 X35.6124 Z-4.9269
G1 X35.2124 Z-4.9402
G1 X34.8124 Z-4.9463
G1 X34.4124 Z-4.9471
G1 X34.0124 Z-4.9997
G1 X33.6124 Z-5.154
G1 X33.2124 Z-5.2985
G1 X32.8124 Z-5.453
G1 X32.4124 Z-5.6
G1 X-35.1092
G0 Z3.0
G0 X40.9876 Y2.4036
G0 Z-3.8
G1 F300.0 Z-4.8994
G1 F800.0 X40.4124 Z-4.8859
G1 X40.0124 Z-4.8652
G1 X39.2124
G1 X38.8124 Z-4.8721
G1 X36.8124 Z-4.8866
G1 X36.4124
G1 X36.0124 Z-4.8927
G1 X35.6124 Z-4.9122
G1 X35.2124 Z-4.9463
G1 X34.8124 Z-4.9471
G1 X34.4124 Z-4.9949
G1 X34.0124 Z-5.1232
G1 X33.6124 Z-5.2359
G1 X33.2124 Z-5.3351
G1 X32.8124 Z-5.3591
G1 X32.4124
G1 X32.0124 Z-5.3674
G1 X31.6124 Z-5.5047
G1 X31.2124 Z-5.6
G1 X-36.019
G0 Z3.0
G0 X40.9876 Y1.6036
G0 Z-3.8
G1 F300.0 Z-4.8859
G1 F800.0 X40.0124 Z-4.8445
G1 X39.2124
G1 X38.8124 Z-4.8539
G1 X38.4124 Z-4.8572
G1 X37.2124 Z-4.8658
G1 X36.8124 Z-4.8691
G1 X36.4124 Z-4.8741
G1 X36.0124 Z-4.8866
G1 X35.6124 Z-4.8927
G1 X35.2124 Z-4.9358
G1 X34.8124 Z-4.9682
G1 X34.4124 Z-5.014
G1 X34.0124 Z-5.1054
G1 X33.6124 Z-5.17
G1 X33.2124 Z-5.2431
G1 X32.8124 Z-5.267
G1 X32.4124 Z-5.2882
G1 X32.0124 Z-5.3064
G1 X31.6124 Z-5.3674
G1 X31.2124 Z-5.5047
G1 X30.8124 Z-5.6
G1 X-33.5876
G1 X-33.9876 Z-5.5638
G1 X-34.3876 Z-5.3035
G1 X-34.7876 Z-5.2977
G1 X-35.5876
G1 X-35.9876 Z-5.6
G1 X-38.1211
G0 Z3.0
G0 X40.9876 Y0.8036
G0 Z-3.8
G1 F300.0 Z-4.8652
G1 F800.0 X40.4124 Z-4.8445
G1 X40.0124 Z-4.8317
G1 X39.2124
G1 X38.8124 Z-4.8332
G1 X38.4124 Z-4.8393
G1 X38.0124 Z-4.8427
G1 X36.8124 Z-4.8578
G1 X36.4124 Z-4.8685
G1 X36.0124 Z-4.8741
G1 X35.6124 Z-4.8866
G1 X35.2124 Z-4.9071
G1 X34.8124 Z-4.9103
G1 X34.4124 Z-4.9313
G1 X34.0124 Z-5.0434
G1 X33.6124 Z-5.1444
G1 X33.2124 Z-5.17
G1 X32.8124 Z-5.2431
G1 X32.4124 Z-5.267
G1 X32.0124 Z-5.2848
G1 X31.6124 Z-5.3064
G1 X31.2124 Z-5.3674
G1 X30.8124 Z-5.5047
G1 X30.4124 Z-5.6
G1 X-33.1876
G1 X-33.5876 Z-5.4409
G1 X-33.9876 Z-5.0472
G1 X-34.3876 Z-4.8766
G1 X-35.1876
G1 X-35.5876 Z-4.962
G1 X-35.9876 Z-5.2564
G1 X-36.3876 Z-5.5965
G1 X-36.7876 Z-5.6
G1 X-39.525
G0 Z3.0
G0 X40.9876 Y0.0036
G0 Z-3.8
G1 F300.0 Z-4.8445
G1 F800.0 X40.4124 Z-4.8317
G1 X40.0124 Z-4.8233
G1 X39.2124
G1 X38.8124 Z-4.8274
G1 X38.4124 Z-4.832
G1 X38.0124 Z-4.8383
G1 X37.6124 Z-4.8421
G1 X36.8124 Z-4.8522
G1 X36.4124 Z-4.8578
G1 X36.0124 Z-4.8685
G1 X35.6124 Z-4.8166
G1 X34.8124
G1 X34.4124 Z-4.9065
G1 X34.0124 Z-4.9313
G1 X33.6124 Z-5.0434
G1 X33.2124 Z-5.1444
G1 X32.8124 Z-5.17
G1 X32.4124 Z-5.2431
G1 X32.0124 Z-5.2629
G1 X31.6124 Z-5.2848
G1 X31.2124 Z-5.3064
G1 X30.8124 Z-5.4471
G1 X30.4124 Z-5.6
G1 X-32.7876
G1 X-33.1876 Z-5.035
G1 X-33.5876 Z-4.8583
G1 X-33.9876
G1 X-34.3876 Z-4.8416
G1 X-35.1876
G1 X-35.5876 Z-4.8766
G1 X-35.9876 Z-4.962
G1 X-36.3876 Z-5.185
G1 X-36.7876 Z-5.3458
G1 X-37.1876 Z-5.5162
G1 X-37.5876 Z-5.6
G1 X-40.1402
G0 Z3.0
G0 X40.9876 Y-0.7964
G0 Z-3.8
G1 F300.0 Z-4.8317
G1 F800.0 X40.4124 Z-4.8233
G1 X38.8124
G1 X38.4124 Z-4.8274
G1 X38.0124 Z-4.832
G1 X37.6124 Z-4.8377
G1 X37.2124 Z-4.8421
G1 X36.4124 Z-4.8522
G1 X36.0124 Z-4.8079
G1 X35.6124 Z-4.7721
G1 X34.8124
G1 X34.4124 Z-4.8166
G1 X34.0124 Z-4.9065
G1 X33.6124 Z-4.9313
G1 X33.2124 Z-5.0434
G1 X32.8124 Z-5.17
G1 X32.4124 Z-5.2247
G1 X32.0124 Z-5.2629
G1 X31.6124
G1 X31.2124 Z-5.2848
G1 X30.8124 Z-5.4531
G1 X30.4124 Z-5.6
G1 X-32.3876
G1 X-32.7876 Z-5.035
G1 X-33.1876 Z-4.4169
G1 X-33.9876
G1 X-34.3876 Z-4.4939
G1 X-34.7876 Z-4.8416
G1 X-35.5876
G1 X-35.9876 Z-4.8766
G1 X-36.3876 Z-4.962
G1 X-36.7876 Z-5.1697
G1 X-37.1876 Z-5.3458
G1 X-37.5876 Z-5.5162
G1 X-37.9876 Z-5.6
G1 X-40.4921
G0 Z3.0
G0 X40.9876 Y-1.5964
G0 Z-3.8
G1 F300.0 Z-4.8233
G1 F800.0 X40.4124
G1 X40.0124
G1 X39.2124
G1 X38.8124
G1 X38.4124
G1 X38.0124 Z-4.8274
G1 X37.6124 Z-4.832
G1 X37.2124 Z-4.8359
G1 X36.8124 Z-4.8421
G1 X36.4124 Z-4.8079
G1 X36.0124 Z-4.7721
G1 X35.6124 Z-4.7282
G1 X34.8124
G1 X34.4124 Z-4.7721
G1 X34.0124 Z-4.8166
G1 X33.6124 Z-4.9065
G1 X33.2124 Z-5.0859
G1 X32.8124 Z-5.2247
G1 X32.0124
G1 X31.6124 Z-5.2629
G1 X31.2124
G1 X30.8124 Z-5.5785
G1 X30.4124 Z-5.6
G1 X-31.9876
G1 X-32.3876 Z-5.035
G1 X-32.7876 Z-4.4169
G1 X-33.1876 Z-4.3561
G1 X-33.9876
G1 X-34.3876 Z-4.3788
G1 X-34.7876 Z-4.4939
G1 X-35.1876 Z-4.7246
G1 X-35.5876 Z-4.8416
G1 X-35.9876
G1 X-36.3876 Z-4.8919
G1 X-36.7876 Z-5.0424
G1 X-37.1876 Z-5.1697
G1 X-37.5876 Z-5.3458
G1 X-37.9876 Z-5.5162
G1 X-38.3876 Z-5.6
G1 X-40.7537
G0 Z3.0
G0 X40.9876 Y-2.3964
G0 Z-3.8
G1 F300.0 Z-4.8233
G1 F800.0 X40.4124
G1 X40.0124 Z-4.8231
G1 X39.2124
G1 X38.8124 Z-4.8233
G1 X38.4124
G1 X38.0124 Z-4.8284
G1 X37.6124 Z-4.832
G1 X37.2124
G1 X36.8124 Z-4.8079
G1 X36.4124 Z-4.7721
G1 X36.0124 Z-4.7282
G1 X34.4124
G1 X34.0124 Z-4.7721
G1 X33.6124 Z-4.8776
G1 X33.2124 Z-5.0505
G1 X32.8124 Z-5.2247
G1 X31.6124
G1 X31.2124 Z-5.2629
G1 X30.8124 Z-5.6
G1 X-31.9876
G1 X-32.3876 Z-4.4169
G1 X-32.7876 Z-4.3561
G1 X-34.3876
G1 X-34.7876 Z-4.3788
G1 X-35.1876 Z-4.4939
G1 X-35.5876 Z-4.7246
G1 X-35.9876 Z-4.8473
G1 X-36.3876 Z-4.8832
G1 X-36.7876 Z-4.952
G1 X-37.1876 Z-5.0424
G1 X-37.5876 Z-5.1697
G1 X-37.9876 Z-5.3566
G1 X-38.3876 Z-5.5953
G1 X-38.7876 Z-5.6
G1 X-40.9309
G0 Z3.0
G0 X40.9876 Y-3.1964
G0 Z-3.8
G1 F300.0 Z-4.8233
G1 F800.0 X40.4124 Z-4.8231
G1 X40.0124 Z-4.8215
G1 X39.2124
G1 X38.8124 Z-4.8231
G1 X38.4124 Z-4.8233
G1 X38.0124 Z-4.8282
G1 X37.6124 Z-4.832
G1 X37.2124
G1 X36.8124 Z-4.8079
G1 X36.4124 Z-4.7282
G1 X34.0124
G1 X33.6124 Z-4.7822
G1 X33.2124 Z-4.9983
G1 X32.8124 Z-5.2031
G1 X32.4124 Z-5.2247
G1 X31.6124
G1 X31.2124 Z-5.2753
G1 X30.8124 Z-5.4429
G1 X30.4124 Z-5.6
G1 X-31.5876
G1 X-31.9876 Z-5.5044
G1 X-32.3876 Z-4.3561
G1 X-34.7876
G1 X-35.1876 Z-4.3788
G1 X-35.5876 Z-4.5232
G1 X-35.9876 Z-4.7246
G1 X-36.3876 Z-4.8563
G1 X-36.7876 Z-4.9084
G1 X-37.1876 Z-4.9781
G1 X-37.5876 Z-5.1271
G1 X-37.9876 Z-5.3436
G1 X-38.3876 Z-5.5744
G1 X-38.7876 Z-5.6
G1 X-40.959
G0 Z3.0
G0 X40.9876 Y-3.9964
G0 Z-3.8
G1 F300.0 Z-4.8231
G1 F800.0 X40.4124 Z-4.8215
G1 X40.0124 Z-4.8193
G1 X39.2124
G1 X38.8124 Z-4.8215
G1 X38.4124 Z-4.8231
G1 X38.0124 Z-4.828
G1 X37.6124 Z-4.832
G1 X36.8124
G1 X36.4124 Z-4.7282
G1 X34.0124
G1 X33.6124 Z-4.7822
G1 X33.2124 Z-4.9076
G1 X32.8124 Z-5.0493
G1 X32.4124 Z-5.2247
G1 X32.0124
G1 X31.6124 Z-5.2753
G1 X31.2124 Z-5.2764
G1 X30.8124 Z-5.4429
G1 X30.4124 Z-5.6
G1 X-31.9876
G1 X-32.3876 Z-4.4939
G1 X-32.7876 Z-4.3561
G1 X-34.3876
G1 X-34.7876 Z-4.3788
G1 X-35.1876
G1 X-35.5876 Z-4.5232
G1 X-35.9876 Z-4.6635
G1 X-36.3876 Z-4.8748
G1 X-36.7876 Z-4.9632
G1 X-37.1876 Z-4.9923
G1 X-37.5876 Z-5.1271
G1 X-37.9876 Z-5.3538
G1 X-38.3876 Z-5.6
G1 X-40.9876
G0 Z3.0
G0 X40.9876 Y-4.7964
G0 Z-3.8
G1 F300.0 Z-4.8215
G1 F800.0 X40.4124 Z-4.8193
G1 X38.8124
G1 X38.4124 Z-4.8215
G1 X38.0124 Z-4.8275
G1 X37.6124 Z-4.832
G1 X36.8124
G1 X36.4124 Z-4.834
G1 X36.0124 Z-4.7282
G1 X34.4124
G1 X34.0124 Z-4.7822
G1 X33.6124 Z-4.8616
G1 X33.2124 Z-4.9076
G1 X32.8124 Z-5.0493
G1 X32.4124 Z-5.1403
G1 X32.0124 Z-5.2753
G1 X31.6124 Z-5.2764
G1 X31.2124 Z-5.4429
G1 X30.8124 Z-5.5809
G1 X30.4124 Z-5.6
G1 X-32.3876
G1 X-32.7876 Z-4.4939
G1 X-33.1876 Z-4.3561
G1 X-33.9876
G1 X-34.3876 Z-4.3788
G1 X-34.7876
G1 X-35.1876 Z-4.5232
G1 X-35.5876 Z-4.6635
G1 X-35.9876 Z-4.8715
G1 X-36.3876 Z-4.9632
G1 X-36.7876 Z-4.9923
G1 X-37.1876 Z-5.1271
G1 X-37.5876 Z-5.3538
G1 X-37.9876 Z-5.6
G1 X-40.945
G0 Z3.0
G0 X40.9876 Y-5.5964
G0 Z-3.8
G1 F300.0 Z-4.8193
G1 F800.0 X38.4124
G1 X38.0124 Z-4.8272
G1 X37.6124 Z-4.832
G1 X37.2124
G1 X36.8124 Z-4.834
G1 X36.4124 Z-4.8444
G1 X36.0124 Z-4.8357
G1 X35.6124 Z-4.7282
G1 X34.8124
G1 X34.4124 Z-4.7822
G1 X34.0124 Z-4.8616
G1 X33.6124 Z-4.9076
G1 X33.2124 Z-5.0493
G1 X32.8124 Z-5.0736
G1 X32.4124 Z-5.133
G1 X32.0124 Z-5.2748
G1 X31.6124 Z-5.4429
G1 X31.2124 Z-5.5809
G1 X30.8124 Z-5.6
G1 X-31.9876
G1 X-32.3876 Z-5.4029
G1 X-32.7876 Z-5.2499
G1 X-33.1876 Z-4.4939
G1 X-33.5876 Z-4.3788
G1 X-34.3876
G1 X-34.7876 Z-4.5232
G1 X-35.1876 Z-4.6635
G1 X-35.5876 Z-4.8715
G1 X-35.9876 Z-4.9632
G1 X-36.3876 Z-4.9923
G1 X-36.7876 Z-5.1271
G1 X-37.1876 Z-5.3538
G1 X-37.5876 Z-5.6
G1 X-40.7957
G0 Z3.0
G0 X40.9876 Y-6.3964
G0 Z-3.8
G1 F300.0 Z-4.8219
G1 F800.0 X40.4124 Z-4.8193
G1 X38.8124
G1 X38.4124 Z-4.8219
G1 X38.0124 Z-4.8269
G1 X37.6124 Z-4.832
G1 X37.2124 Z-4.834
G1 X36.8124 Z-4.8384
G1 X36.4124 Z-4.8422
G1 X36.0124 Z-4.8489
G1 X35.6124 Z-4.8357
G1 X34.8124
G1 X34.4124 Z-4.8616
G1 X34.0124 Z-4.9076
G1 X33.6124 Z-5.0493
G1 X33.2124 Z-5.0736
G1 X32.8124 Z-5.133
G1 X32.4124 Z-5.2113
G1 X32.0124 Z-5.294
G1 X31.6124 Z-5.4821
G1 X31.2124 Z-5.6
G1 X-31.9876
G1 X-32.3876 Z-5.4029
G1 X-32.7876
G1 X-33.1876 Z-5.2499
G1 X-33.5876 Z-4.9301
G1 X-33.9876 Z-4.8468
G1 X-34.7876
G1 X-35.1876 Z-4.8715
G1 X-35.5876 Z-5.0161
G1 X-35.9876 Z-5.1994
G1 X-36.3876 Z-5.3108
G1 X-36.7876 Z-5.3913
G1 X-37.1876 Z-5.6
G1 X-40.4105
G0 Z3.0
G0 X40.9876 Y-7.1964
G0 Z-3.8
G1 F300.0 Z-4.8234
G1 F800.0 X40.4124 Z-4.8214
G1 X40.0124 Z-4.8193
G1 X39.2124
G1 X38.8124 Z-4.8214
G1 X38.4124 Z-4.8234
G1 X38.0124 Z-4.8269
G1 X37.6124 Z-4.8339
G1 X37.2124 Z-4.8378
G1 X36.8124 Z-4.8389
G1 X36.0124 Z-4.8436
G1 X35.6124 Z-4.8626
G1 X35.2124 Z-4.8951
G1 X34.8124 Z-4.9127
G1 X34.4124 Z-4.9567
G1 X34.0124 Z-5.0222
G1 X33.6124 Z-5.0736
G1 X33.2124 Z-5.133
G1 X32.8124 Z-5.2113
G1 X32.4124 Z-5.294
G1 X32.0124 Z-5.4821
G1 X31.6124 Z-5.6
G1 X-32.3876
G1 X-32.7876 Z-5.4029
G1 X-33.1876
G1 X-33.5876 Z-5.2499
G1 X-34.3876
G1 X-34.7876 Z-5.2847
G1 X-35.1876 Z-5.3993
G1 X-35.5876 Z-5.4803
G1 X-35.9876 Z-5.5526
G1 X-36.3876 Z-5.6
G1 X-39.9309
G0 Z3.0
G0 X24.1041 Y-7.9964
G0 Z-4.2
G1 F300.0 Z-5.6
G1 F800.0 X-32.7876
G1 X-33.1876 Z-5.4029
G1 X-33.9876
G1 X-34.3876 Z-5.4144
G1 X-34.7876 Z-5.5707
G1 X-35.1876
G1 X-35.5876 Z-5.6
G1 X-39.1812
G0 Z3.0
G0 X-31.084 Y-8.7964
G0 Z-4.2
G1 F300.0 Z-5.6
G1 F800.0 X-35.828
G0 Z3.0
G0 X-32.7568 Y-9.5964
G0 Z-4.2
G1 F300.0 Z-5.6
G1 F800.0 X-34.0371
G1 F300.0 X-35.0883 Y-9.1964
G1 Z-6.0
G1 F800.0 X-32.3876
G1 X-32.0091
G0 Z3.0
G0 X-38.4217 Y-8.3964
G0 Z-4.6
G1 F300.0 Z-6.0
G1 F800.0 X-36.3876
G1 X-35.9876 Z-5.9106
G1 X-35.5876 Z-5.77
G1 X-35.1876 Z-5.7399
G1 X-34.3876
G1 X-33.9876 Z-5.6581
G1 X-33.1876
G1 X-32.7876 Z-6.0
G1 X-30.7217
G0 Z3.0
G0 X20.6841 Y-8.7964
G0 Z-4.2
G1 F300.0 Z-5.6
G1 F800.0 X20.4124
G1 X-27.9501
G0 Z3.0
G0 X-11.9588 Y-9.5964
G0 Z-4.2
G1 F300.0 Z-5.6
G1 F800.0 X-27.3212
G0 Z3.0
G0 X-12.5446 Y-10.3964
G0 Z-4.2
G1 F300.0 Z-5.6
G1 F800.0 X-12.7876
G1 X-26.4662
G0 Z3.0
G0 X-13.128 Y-11.1964
G0 Z-4.2
G1 F300.0 Z-5.6
G1 F800.0 X-24.5197
G0 Z3.0
G0 X-13.4453 Y-11.9964
G0 Z-4.2
G1 F300.0 Z-5.6
G1 F800.0 X-20.4915
G0 Z3.0
G0 X-13.7375 Y-12.7964
G0 Z-4.2
G1 F300.0 Z-5.6
G1 F800.0 X-13.9876
G1 X-17.9024
G0 Z3.0
G0 X-16.5116 Y-13.1964
G0 Z-4.6
G1 F300.0 Z-6.0
G1 F800.0 X-14.3876
G1 X-14.0644
G0 Z3.0
G0 X-19.2144 Y-12.3964
G0 Z-4.6
G1 F300.0 Z-6.0
G1 F800.0 X-13.5732
G0 Z3.0
G0 X-22.2165 Y-11.5964
G0 Z-4.6
G1 F300.0 Z-6.0
G1 F800.0 X-13.5876
G1 X-13.3291
G0 Z3.0
G0 X-25.8468 Y-10.7964
G0 Z-4.6
G1 F300.0 Z-6.0
G1 F800.0 X-13.1876
G1 X-12.9115
G0 Z3.0
G0 X7.1345 Y-9.5964
G0 Z-4.2
G1 F300.0 Z-5.6
G1 F800.0 X6.8124
G1 X-10.9531
G0 Z3.0
G0 X0.2389 Y-10.3964
G0 Z-4.2
G1 F300.0 Z-5.6
G1 F800.0 X0.0124
G1 X-6.64
G0 Z3.0
G0 X-9.6157 Y-9.9964
G0 Z-4.6
G1 F300.0 Z-6.0
G1 F800.0 X2.5251
G0 Z3.0
G0 X-26.9069
G0 Z-4.6
G1 F300.0 Z-6.0
G1 F800.0 X-12.2404
G0 Z3.0
G0 X-27.7003 Y-9.1964
G0 Z-4.6
G1 F300.0 Z-6.0
G1 F800.0 X9.2124
G1 X9.5484
G0 Z3.0
G0 X-30.4665 Y-8.3964
G0 Z-4.6
G1 F300.0 Z-6.0
G1 F800.0 X-28.6067
G0 Z3.0
G0 X16.4318 Y-9.5964
G0 Z-4.2
G1 F300.0 Z-5.6
G1 F800.0 X13.68
G0 Z3.0
G0 X11.6243 Y-9.1964
G0 Z-4.6
G1 F300.0 Z-6.0
G1 F800.0 X19.2946
G0 Z3.0
G0 X22.2678 Y-8.7964
G0 Z-4.2
G1 F300.0 Z-5.6
G1 F800.0 X22.0124
G1 X21.7458
G0 Z3.0
G0 X40.9876 Y-7.9964
G0 Z-3.8
G1 F300.0 Z-4.8214
G1 F800.0 X40.4124 Z-4.8204
G1 X40.0124 Z-4.8116
G1 X39.2124
G1 X38.8124 Z-4.8204
G1 X38.4124 Z-4.8214
G1 X38.0124 Z-4.8271
G1 X37.6124 Z-4.8344
G1 X37.2124 Z-4.8389
G1 X36.8124 Z-4.8412
G1 X36.4124 Z-4.8425
G1 X36.0124 Z-4.8436
G1 X35.6124 Z-4.8626
G1 X35.2124 Z-4.8952
G1 X34.8124 Z-4.9386
G1 X34.4124 Z-5.0222
G1 X34.0124 Z-5.1079
G1 X33.6124 Z-5.1785
G1 X33.2124 Z-5.2113
G1 X32.8124 Z-5.294
G1 X32.4124 Z-5.4821
G1 X32.0124 Z-5.6
G1 X25.5232
G0 Z3.0
G0 X40.9876 Y-8.7964
G0 Z-3.8
G1 F300.0 Z-4.8204
G1 F800.0 X40.4124 Z-4.8116
G1 X40.0124 Z-4.8032
G1 X39.2124
G1 X38.8124 Z-4.8116
G1 X38.4124 Z-4.8204
G1 X38.0124 Z-4.8275
G1 X37.6124 Z-4.8348
G1 X37.2124 Z-4.8337
G1 X36.8124 Z-4.8309
G1 X36.0124
G1 X35.6124 Z-4.8624
G1 X35.2124 Z-4.8951
G1 X34.8124 Z-4.9224
G1 X34.4124 Z-5.0329
G1 X34.0124 Z-5.1286
G1 X33.6124 Z-5.176
G1 X33.2124 Z-5.2455
G1 X32.8124 Z-5.4367
G1 X32.4124 Z-5.6
G1 X26.4795
G0 Z3.0
G0 X40.9876 Y-9.5964
G0 Z-3.8
G1 F300.0 Z-4.8116
G1 F800.0 X40.4124 Z-4.8032
G1 X38.8124
G1 X38.4124 Z-4.8116
G1 X38.0124 Z-4.8279
G1 X37.6124 Z-4.8337
G1 X37.2124 Z-4.8309
G1 X35.6124
G1 X35.2124 Z-4.8624
G1 X34.8124 Z-4.8951
G1 X34.4124 Z-4.9224
G1 X34.0124 Z-5.0329
G1 X33.6124 Z-5.176
G1 X33.2124 Z-5.3034
G1 X32.8124 Z-5.6
G1 X26.6492
G0 Z3.0
G0 X40.9876 Y-10.3964
G0 Z-3.8
G1 F300.0 Z-4.8032
G1 F800.0 X38.4124
G1 X38.0124 Z-4.8225
G1 X37.6124 Z-4.8309
G1 X35.2124
G1 X34.8124 Z-4.8722
G1 X34.4124 Z-4.8951
G1 X34.0124 Z-4.9224
G1 X33.6124 Z-5.0329
G1 X33.2124 Z-5.4344
G1 X32.8124 Z-5.6
G1 X27.0731
G0 Z3.0
G0 X40.9876 Y-11.1964
G0 Z-3.8
G1 F300.0 Z-4.8132
G1 F800.0 X40.4124 Z-4.8032
G1 X38.8124
G1 X38.4124 Z-4.8132
G1 X38.0124 Z-4.8337
G1 X37.6124
G1 X37.2124 Z-4.8309
G1 X35.6124
G1 X35.2124 Z-4.846
G1 X34.8124 Z-4.8837
G1 X34.4124 Z-4.8951
G1 X34.0124 Z-4.9224
G1 X33.6124 Z-5.0211
G1 X33.2124 Z-5.4324
G1 X32.8124 Z-5.6
G1 X29.6236
G0 Z3.0
G0 X40.9876 Y-11.9964
G0 Z-3.8
G1 F300.0 Z-4.8411
G1 F800.0 X40.4124 Z-4.8132
G1 X40.0124 Z-4.8032
G1 X39.2124
G1 X38.8124 Z-4.8132
G1 X38.4124 Z-4.8346
G1 X38.0124 Z-4.8399
G1 X37.6124 Z-4.8337
G1 X37.2124
G1 X36.8124 Z-4.8309
G1 X36.0124
G1 X35.6124 Z-4.846
G1 X35.2124 Z-4.8837
G1 X34.8124 Z-4.8951
G1 X34.4124 Z-4.9224
G1 X34.0124 Z-5.0211
G1 X33.6124 Z-5.0898
G1 X33.2124 Z-5.5455
G1 X32.8124 Z-5.6
G1 X30.0578
G0 Z3.0
G0 X40.974 Y-12.7964
G0 Z-3.8488
G1 F300.0 Z-5.2488
G1 F800.0 X40.4124 Z-4.8411
G1 X40.0124 Z-4.8132
G1 X39.2124
G1 X38.8124 Z-4.8346
G1 X38.4124 Z-4.8431
G1 X38.0124
G1 X37.6124 Z-4.8399
G1 X37.2124 Z-4.8337
G1 X36.4124
G1 X36.0124 Z-4.846
G1 X35.6124 Z-4.8837
G1 X35.2124 Z-4.8951
G1 X34.8124 Z-4.9224
G1 X34.4124 Z-5.0211
G1 X34.0124 Z-5.0898
G1 X33.6124 Z-5.5455
G1 X33.2124 Z-5.6
G1 X30.7638
G0 Z3.0
G0 X40.2525 Y-13.5964
G0 Z-3.8488
G1 F300.0 Z-5.2488
G1 F800.0 X40.0124 Z-4.8411
G1 X39.2124
G1 X38.8124 Z-4.8601
G1 X38.4124 Z-4.8538
G1 X37.6124
G1 X37.2124 Z-4.8595
G1 X36.8124 Z-4.8688
G1 X36.4124 Z-4.8848
G1 X36.0124 Z-4.9018
G1 X35.6124 Z-4.9202
G1 X35.2124 Z-4.9665
G1 X34.8124 Z-5.0218
G1 X34.4124 Z-5.0898
G1 X34.0124 Z-5.5455
G1 X33.6124 Z-5.6
G1 X32.5572
G1 F300.0 X31.8495 Y-13.1964
G1 Z-6.0
G1 F800.0 X33.6124
G1 X34.0124 Z-5.2741
G1 X34.4124 Z-5.0211
G1 X34.8124 Z-4.9389
G1 X35.2124 Z-4.9106
G1 X35.6124 Z-4.9043
G1 X36.0124 Z-4.8739
G1 X36.8124 Z-4.8399
G1 X37.6124
G1 X38.0124 Z-4.8452
G1 X38.4124
G1 X38.8124 Z-4.8516
G1 X39.2124 Z-4.8244
G1 X40.0124
G1 X40.4124 Z-4.8761
G1 X40.8132 Z-6.0
G0 Z3.0
G0 X30.3104 Y-12.3964
G0 Z-4.6
G1 F300.0 Z-6.0
G1 F800.0 X33.2124
G1 X33.6124 Z-5.2741
G1 X34.0124 Z-5.0211
G1 X34.4124 Z-4.9389
G1 X34.8124 Z-4.9106
G1 X35.2124 Z-4.8951
G1 X35.6124 Z-4.8722
G1 X36.0124 Z-4.8309
G1 X36.8124
G1 X37.2124 Z-4.8337
G1 X37.6124 Z-4.8399
G1 X38.0124
G1 X38.4124 Z-4.8409
G1 X38.8124 Z-4.8225
G1 X39.2124 Z-4.8032
G1 X40.0124
G1 X40.4124 Z-4.8244
G1 X40.9876 Z-4.8761
G0 Z3.0
G0 X29.811 Y-11.5964
G0 Z-4.6
G1 F300.0 Z-6.0
G1 F800.0 X32.8124
G1 X33.2124 Z-5.4324
G1 X33.6124 Z-5.0211
G1 X34.0124 Z-4.9389
G1 X34.4124 Z-4.9106
G1 X34.8124 Z-4.8951
G1 X35.2124 Z-4.8722
G1 X35.6124 Z-4.8309
G1 X37.2124
G1 X37.6124 Z-4.8337
G1 X38.0124 Z-4.8399
G1 X38.4124 Z-4.8225
G1 X38.8124 Z-4.8032
G1 X40.4124
G1 X40.9876 Z-4.8244
G0 Z3.0
G0 X27.6022 Y-10.7964
G0 Z-4.6
G1 F300.0 Z-6.0
G1 F800.0 X32.4124
G1 X32.8124 Z-5.8466
G1 X33.2124 Z-5.4324
G1 X33.6124 Z-5.0211
G1 X34.0124 Z-4.9224
G1 X34.4124 Z-4.8951
G1 X34.8124 Z-4.8722
G1 X35.2124 Z-4.8309
G1 X37.6124
G1 X38.0124 Z-4.8225
G1 X38.4124 Z-4.8032
G1 X40.9876
G0 Z3.0
G0 X26.7692 Y-9.9964
G0 Z-4.6
G1 F300.0 Z-6.0
G1 F800.0 X32.4124
G1 X32.8124 Z-5.7208
G1 X33.2124 Z-5.3299
G1 X33.6124 Z-5.1667
G1 X34.0124 Z-4.9785
G1 X34.4124 Z-4.9215
G1 X34.8124 Z-4.8722
G1 X35.2124 Z-4.8309
G1 X37.6124
G1 X38.0124 Z-4.8225
G1 X38.4124 Z-4.8032
G1 X40.9876
G0 Z3.0
G0 X26.6727 Y-9.1964
G0 Z-4.6
G1 F300.0 Z-6.0
G1 F800.0 X32.0124
G1 X32.4124 Z-5.871
G1 X32.8124 Z-5.5072
G1 X33.2124 Z-5.2455
G1 X33.6124 Z-5.176
G1 X34.0124 Z-5.1126
G1 X34.4124 Z-4.9785
G1 X34.8124 Z-4.9215
G1 X35.2124 Z-4.8722
G1 X35.6124 Z-4.8309
G1 X37.2124
G1 X37.6124 Z-4.835
G1 X38.0124 Z-4.8277
G1 X38.4124 Z-4.82
G1 X38.8124 Z-4.8032
G1 X40.4124
G1 X40.9876 Z-4.82
G0 Z3.0
G0 X26.1711 Y-8.3964
G0 Z-4.6
G1 F300.0 Z-6.0
G1 F800.0 X31.2124
G1 X31.6124 Z-5.8753
G1 X32.0124 Z-5.6707
G1 X32.4124 Z-5.5098
G1 X32.8124 Z-5.3953
G1 X33.2124 Z-5.2455
G1 X33.6124 Z-5.1925
G1 X34.0124 Z-5.1324
G1 X34.4124 Z-5.0622
G1 X34.8124 Z-4.9659
G1 X35.2124 Z-4.9127
G1 X35.6124 Z-4.8722
G1 X36.0124 Z-4.8309
G1 X36.8124
G1 X37.2124 Z-4.8401
G1 X37.6124 Z-4.8346
G1 X38.0124 Z-4.8273
G1 X38.4124 Z-4.8204
G1 X38.8124 Z-4.82
G1 X39.2124 Z-4.8032
G1 X40.0124
G1 X40.4124 Z-4.82
G1 X40.9876 Z-4.8204
G0 Z3.0
G0 X-28.1438
G0 Z-4.6
G1 F300.0 Z-6.0
G1 F800.0 X23.3025
G0 Z3.0
G0 X-39.6155 Y-7.5964
G0 Z-4.6
G1 F300.0 Z-6.0
G1 F800.0 X-37.1876
G1 X-36.7876 Z-5.9394
G1 X-36.3876 Z-5.77
G1 X-35.9876 Z-5.6446
G1 X-35.5876 Z-5.5323
G1 X-35.1876 Z-5.4307
G1 X-34.7876 Z-5.2847
G1 X-34.3876 Z-5.2499
G1 X-33.5876
G1 X-33.1876 Z-5.4029
G1 X-32.7876 Z-5.6581
G1 X-32.3876 Z-6.0
G1 X30.8124
G1 X31.2124 Z-5.8753
G1 X31.6124 Z-5.6707
G1 X32.0124 Z-5.5098
G1 X32.4124 Z-5.3953
G1 X32.8124 Z-5.2748
G1 X33.2124 Z-5.133
G1 X33.6124
G1 X34.0124 Z-5.0622
G1 X34.4124 Z-4.9854
G1 X34.8124 Z-4.9127
G1 X35.2124 Z-4.8951
G1 X35.6124 Z-4.8626
G1 X36.0124 Z-4.8436
G1 X36.4124 Z-4.8412
G1 X36.8124 Z-4.8401
G1 X37.2124 Z-4.8384
G1 X37.6124 Z-4.8342
G1 X38.0124 Z-4.8269
G1 X38.4124 Z-4.8223
G1 X38.8124 Z-4.8204
G1 X39.2124 Z-4.8193
G1 X40.0124
G1 X40.4124 Z-4.8204
G1 X40.9876 Z-4.8223
G0 Z3.0
G0 X-40.1709 Y-6.7964
G0 Z-4.6
G1 F300.0 Z-6.0
G1 F800.0 X-37.5876
G1 X-37.1876 Z-5.8247
G1 X-36.7876 Z-5.6649
G1 X-36.3876 Z-5.5413
G1 X-35.9876 Z-5.4221
G1 X-35.5876 Z-5.3344
G1 X-35.1876 Z-5.2847
G1 X-34.7876 Z-5.2499
G1 X-33.1876
G1 X-32.7876 Z-5.4029
G1 X-32.3876 Z-5.6581
G1 X-31.9876 Z-6.0
G1 X30.4124
G1 X30.8124 Z-5.8753
G1 X31.2124 Z-5.6707
G1 X31.6124 Z-5.5098
G1 X32.0124 Z-5.3953
G1 X32.4124 Z-5.2748
G1 X32.8124 Z-5.133
G1 X33.2124
G1 X33.6124 Z-5.0532
G1 X34.0124 Z-4.9867
G1 X34.4124 Z-4.9366
G1 X34.8124 Z-4.9127
G1 X35.2124 Z-4.8951
G1 X35.6124 Z-4.8701
G1 X36.0124 Z-4.846
G1 X36.4124 Z-4.8412
G1 X36.8124 Z-4.8384
G1 X37.2124 Z-4.8366
G1 X37.6124 Z-4.8337
G1 X38.0124 Z-4.8269
G1 X38.4124 Z-4.8248
G1 X38.8124 Z-4.8193
G1 X40.4124
G1 X40.9876 Z-4.8248
G0 Z3.0
G0 X-40.6481 Y-5.9964
G0 Z-4.6
G1 F300.0 Z-6.0
G1 F800.0 X-38.3876
G1 X-37.9876 Z-5.934
G1 X-37.5876 Z-5.6948
G1 X-37.1876 Z-5.4236
G1 X-36.7876 Z-5.194
G1 X-36.3876 Z-5.1191
G1 X-35.9876 Z-5.0906
G1 X-35.5876 Z-4.8748
G1 X-35.1876 Z-4.6635
G1 X-34.7876 Z-4.5569
G1 X-34.3876 Z-4.5558
G1 X-33.5876
G1 X-33.1876 Z-4.9489
G1 X-32.7876 Z-5.2499
G1 X-32.3876 Z-5.4029
G1 X-31.9876 Z-5.8537
G1 X-31.5876 Z-6.0
G1 X30.4124
G1 X30.8124 Z-5.8753
G1 X31.2124 Z-5.6491
G1 X31.6124 Z-5.4821
G1 X32.0124 Z-5.2748
G1 X32.4124 Z-5.133
G1 X32.8124
G1 X33.2124 Z-5.0532
G1 X33.6124 Z-4.9867
G1 X34.0124 Z-4.9076
G1 X34.4124 Z-4.7878
G1 X34.8124 Z-4.7623
G1 X35.6124
G1 X36.0124 Z-4.8517
G1 X36.8124 Z-4.8384
G1 X37.2124 Z-4.832
G1 X37.6124
G1 X38.0124 Z-4.8272
G1 X38.4124 Z-4.8193
G1 X40.9876
G0 Z3.0
G0 X-40.8953 Y-5.1964
G0 Z-4.6
G1 F300.0 Z-6.0
G1 F800.0 X-38.7876
G1 X-38.3876 Z-5.934
G1 X-37.9876 Z-5.6948
G1 X-37.5876 Z-5.4236
G1 X-37.1876 Z-5.194
G1 X-36.7876 Z-5.1191
G1 X-36.3876 Z-4.9781
G1 X-35.9876 Z-4.8748
G1 X-35.5876 Z-4.6635
G1 X-35.1876 Z-4.5569
G1 X-34.7876 Z-4.5232
G1 X-34.3876 Z-4.3788
G1 X-33.9876 Z-4.3561
G1 X-33.1876
G1 X-32.7876 Z-4.9489
G1 X-32.3876 Z-5.4531
G1 X-31.9876 Z-6.0
G1 X30.0124
G1 X30.4124 Z-5.9573
G1 X30.8124 Z-5.6491
G1 X31.2124 Z-5.5243
G1 X31.6124 Z-5.3646
G1 X32.0124 Z-5.2748
G1 X32.4124 Z-5.133
G1 X32.8124 Z-5.0532
G1 X33.2124 Z-4.9867
G1 X33.6124 Z-4.9076
G1 X34.0124 Z-4.7878
G1 X34.4124 Z-4.7623
G1 X34.8124 Z-4.7282
G1 X35.6124
G1 X36.0124 Z-4.7623
G1 X36.4124 Z-4.8413
G1 X36.8124 Z-4.832
G1 X37.6124
G1 X38.0124 Z-4.8272
G1 X38.4124 Z-4.8193
G1 X40.9876
G0 Z3.0
G0 X-40.9757 Y-4.3964
G0 Z-4.6
G1 F300.0 Z-6.0
G1 F800.0 X-39.1876
G1 X-38.7876 Z-5.934
G1 X-38.3876 Z-5.6948
G1 X-37.9876 Z-5.4236
G1 X-37.5876 Z-5.194
G1 X-37.1876 Z-5.1191
G1 X-36.7876 Z-4.9781
G1 X-36.3876 Z-4.8748
G1 X-35.9876 Z-4.6635
G1 X-35.5876 Z-4.5569
G1 X-35.1876 Z-4.5232
G1 X-34.7876 Z-4.3788
G1 X-34.3876 Z-4.3561
G1 X-32.7876
G1 X-32.3876 Z-4.9489
G1 X-31.9876 Z-5.9762
G1 X-31.5876 Z-6.0
G1 X30.0124
G1 X30.4124 Z-5.8557
G1 X30.8124 Z-5.5243
G1 X31.2124 Z-5.3646
G1 X31.6124 Z-5.2753
G1 X32.0124 Z-5.2527
G1 X32.4124 Z-5.1853
G1 X32.8124 Z-5.0493
G1 X33.2124 Z-4.9076
G1 X33.6124 Z-4.7878
G1 X34.0124 Z-4.7623
G1 X34.4124 Z-4.7282
G1 X36.0124
G1 X36.4124 Z-4.7623
G1 X36.8124 Z-4.832
G1 X37.6124
G1 X38.0124 Z-4.828
G1 X38.4124 Z-4.823
G1 X38.8124 Z-4.8193
G1 X40.4124
G1 X40.9876 Z-4.823
G0 Z3.0
G0 X-40.9806 Y-3.5964
G0 Z-4.6
G1 F300.0 Z-6.0
G1 F800.0 X-39.1876
G1 X-38.7876 Z-5.8432
G1 X-38.3876 Z-5.5744
G1 X-37.9876 Z-5.3436
G1 X-37.5876 Z-5.1271
G1 X-37.1876 Z-4.9781
G1 X-36.7876 Z-4.9084
G1 X-36.3876 Z-4.8563
G1 X-35.9876 Z-4.6635
G1 X-35.5876 Z-4.5232
G1 X-35.1876 Z-4.3788
G1 X-34.7876 Z-4.3561
G1 X-32.3876
G1 X-31.9876 Z-5.5044
G1 X-31.5876 Z-6.0
G1 X29.6124
G1 X30.0124 Z-5.888
G1 X30.4124 Z-5.6763
G1 X30.8124 Z-5.4429
G1 X31.2124 Z-5.2753
G1 X31.6124 Z-5.2527
G1 X32.0124 Z-5.2247
G1 X32.4124
G1 X32.8124 Z-5.1372
G1 X33.2124 Z-4.9412
G1 X33.6124 Z-4.7822
G1 X34.0124 Z-4.7282
G1 X36.4124
G1 X36.8124 Z-4.8243
G1 X37.2124 Z-4.832
G1 X37.6124
G1 X38.0124 Z-4.8281
G1 X38.4124 Z-4.8232
G1 X38.8124 Z-4.823
G1 X39.2124 Z-4.8193
G1 X40.0124
G1 X40.4124 Z-4.823
G1 X40.9876 Z-4.8232
G0 Z3.0
G0 X-40.9464 Y-2.7964
G0 Z-4.6
G1 F300.0 Z-6.0
G1 F800.0 X-39.1876
G1 X-38.7876 Z-5.8432
G1 X-38.3876 Z-5.5744
G1 X-37.9876 Z-5.3436
G1 X-37.5876 Z-5.1297
G1 X-37.1876 Z-4.9781
G1 X-36.7876 Z-4.9084
G1 X-36.3876 Z-4.8563
G1 X-35.9876 Z-4.8473
G1 X-35.5876 Z-4.6635
G1 X-35.1876 Z-4.3816
G1 X-34.7876 Z-4.3561
G1 X-32.3876
G1 X-31.9876 Z-5.5044
G1 X-31.5876 Z-6.0
G1 X29.6124
G1 X30.0124 Z-5.888
G1 X30.4124 Z-5.6995
G1 X30.8124 Z-5.4697
G1 X31.2124 Z-5.2753
G1 X31.6124 Z-5.2247
G1 X32.4124
G1 X32.8124 Z-5.2031
G1 X33.2124 Z-5.0239
G1 X33.6124 Z-4.8161
G1 X34.0124 Z-4.738
G1 X34.4124 Z-4.7282
G1 X36.0124
G1 X36.4124 Z-4.738
G1 X36.8124 Z-4.8079
G1 X37.2124 Z-4.832
G1 X37.6124
G1 X38.0124 Z-4.8283
G1 X38.4124 Z-4.8233
G1 X38.8124 Z-4.8232
G1 X39.2124 Z-4.823
G1 X40.0124
G1 X40.4124 Z-4.8232
G1 X40.9876 Z-4.8233
G0 Z3.0
G0 X-40.8618 Y-1.9964
G0 Z-4.6
G1 F300.0 Z-6.0
G1 F800.0 X-39.1876
G1 X-38.7876 Z-5.9685
G1 X-38.3876 Z-5.6379
G1 X-37.9876 Z-5.4071
G1 X-37.5876 Z-5.2381
G1 X-37.1876 Z-5.1152
G1 X-36.7876 Z-4.9781
G1 X-36.3876 Z-4.8919
G1 X-35.9876 Z-4.8416
G1 X-35.5876
G1 X-35.1876 Z-4.6613
G1 X-34.7876 Z-4.3816
G1 X-34.3876 Z-4.3561
G1 X-32.7876
G1 X-32.3876 Z-4.6811
G1 X-31.9876 Z-5.8659
G1 X-31.5876 Z-6.0
G1 X30.0124
G1 X30.4124 Z-5.888
G1 X30.8124 Z-5.6995
G1 X31.2124 Z-5.2629
G1 X31.6124 Z-5.2326
G1 X32.0124 Z-5.2247
G1 X32.8124
G1 X33.2124 Z-5.0862
G1 X33.6124 Z-4.9046
G1 X34.0124 Z-4.7943
G1 X34.4124 Z-4.738
G1 X34.8124 Z-4.7282
G1 X35.6124
G1 X36.0124 Z-4.738
G1 X36.4124 Z-4.7943
G1 X36.8124 Z-4.8344
G1 X37.2124 Z-4.832
G1 X37.6124
G1 X38.0124 Z-4.8274
G1 X38.4124 Z-4.8233
G1 X38.8124
G1 X39.2124 Z-4.8232
